P5
512 512
255
WXZ^elszÄÇÖÅysplovyz|zy{xrmi`WQMDDHNU[][SOH=6417DMLIHLQ]flg__dabd^SLHHIMPMNT\ac[N@57DS\\[VNJJGDHR_nturh]TPQUUWZXRPQPKLQOHEEGNXailf[TPOU_gmsxÄáäããáÇ~xronoosvw{ÄÄÇÉzpjegoqqnicekrwz|xpmnpoqttru|Éçìêâ{j\WTTUWVQLHKZpáïôñéÇ~|yvttrqkhfddekpwz~zvttpnojc^ZSTVURK@9?KX_]RG>?Qeqw}{uoroi_YX\`iqvrldYKFFFJR\kzÄzob[\elqmdZVX\^a_WQNKJKMPTXZZ[ZWSMGA=;?ELU]^cmsv~}wqokkos{~|xtnpvxupg`^^\\\ZXY[\\][_cc```djt~~wtmeeilt{ztmhikifaUSXajqmdXMGLWafigbcgfb^XQONLLPW`glmf_WOIIJMV^bdgc^]^\\]\VUUUUSOHAAHS^fgdabiormbWOMSX[XSKJOV\fnnu}ÇÅ~rdX^afkrw{~ÄÅÇ}wrnjntvxywuwvspmdZSMEEGMT[]ZSQJ@:825AKKIJMQ[ekiegmihie\WTSQPPMLPX^_YM@66AQ[]_[SMLIHLTamsurh_WTTWVXZWQOQOMORNHEDGQ`luxpd\WV[bglrv}ÉÖÖÉ~zvronnnmquv{ÅÇÉÉzogdflnolhdiouxzzvolnqrtvvstyÅãëéáxfWQOOPSTSQRZj}çîíäÅxtusqpnllifecachntwywtrspookd^ZTUVTQKB=CO[`\RJDI[nx{|vrtoh^XY]clrvuoi`SLLMQZeq|~wmd`ckpqmcYTUY]``YRMLNRW[]^]\]\ZVPKFBAEJPX^`epuy}upomnrv{~|yxsswxsmf_`baa`[XX[]^^]_ba_`cgow~{soicfjmtyxslgiifd_VU[dkqmcXNHMXcjomgfifa_ZSQQPOQW`hmnh_WNJLPS[cddfb]^``adc\XURONLF@CLXemlgbahoqlaTKJQW\[WNKOU[fpsx~}xmbXejqw~ÄÅÅÅÄyspljnttvvsqtuutrh\SLDDGMS[\YSRLC?<33>HJJMOQZelmlpupnnkeba`\WTOKKQVXTJ@65>OZ_ecZTRPNPWbhnqogb[WUXVX[YSRSQQTTOJGGLYiu~Äwkd^\`ceinrx~Ä~zuoliijlllpsu|ÇÉÑÉ{pighklljggmswyywrmjlorsusoot{áãàÅs`RLIIKNRTV\hyàíîåÄvolnnljhegfedb^_cipstrrqsqqpme`\VVVSNH@<CP[`\SLIRdv}}Ä{wvwog^X[`hpuxxrldXQSV[env}}vojhlsvupg[USV[_`[TNOT[bhgeb`__^ZUOJGGKNSZ_ahrw{Ä|tppoqvx|~}{zvtwvpje`cfecaZWX[_aa_`a^^bfltz|ulgc`ekouxwslhhfb_[UV]ekolbXOIMYdmsqjijga_ZTRRQPRW`iopjaWOLQUZbhfed`[\`bejjc\UOIHGC@FR`mtqjb`gnpj`QHHPX`a\SNOT[grw{}|yskc]mt|ÑääâÖÅ~zsnnkimqprsonqtvxvl_TKCBEKS[]ZTSOHFC:7?HKKPSSZgpsv{}xsrogeed`YTNGDHLNLE>63;MZbkld][XUV\cejmkfd_ZWXX\a_ZXWUVZZUPOOUbq|ÉÇzpib`bbbejntyzwpic__adghioru}ÉÑÑÉ{qjjklkjhhjpuwxwtnkhimppomiiovÇÖÅymZLECCFJPV\euÖëïëÖvjecgiifcacccb_YY\bilmlmmqpppmfa\XWUQKD<9?LY^[SNNYl|Ä~zwyxnf^Y^envzz{umdYRY_fow{|ztnkmrwxvqi^VQSW[^]WQS[dmtrlhc`aa^YSNJIMPTZ_aisw|~zrooptyy{}|{zxturlgdbgjhfaYVWZ`cc``]Z^dipwzwnc^[\clpuwvrlhgc\YUQU^ejmjaWOILWcmutlklhb_ZTRRQPRV_jpqkaWPOU[`glheb\WY^bflng^UKCAA@AIWgsxsja]dlmi_PFGQ[egaWQPU^ju{}{wsoiebryÉåëèåÜÄ|uolmkloporspptwz|{qcWLB?AHR[^\YXVTSOFBELNOTWX_ow{~Ä~xsplecdd`XRKC>@BDC?;63<N]huwoheb^]aecfhfdea][]_ciic_\Z[^]YWXZamzÉàÜ~tkc__^]_dhnrtpic][]adefhmpu}ÑÖÑÄwojknpnljjmquvwuqlkhjnokhd`afoz~{shVJCBBDIQ[do~ãëêâzld`agkjhdaca_]YSSV\cgghijnpppngb^[YWPIA85<IW\YSOP[n}~zx}yle_\bku|~ÄwmbXR[dmw{|zwrooruxwsng`XRSWZ]^[VZdmv}yrlfbcdc]VPKILNRY^bkruxzvoooqtxww{zywuoomheedilif`XSTY`dca_ZY_hmryxpf]WVZbkquuusmjg_WSNMT_fjjg_VNJKU`ktsnmmjeaZSQQQOQU^hnni_VRSZ`elnieaZUX]afloi`UJ?<=?CN]luwrh]Y`hjhaTJLWajleZUT[dnw||yvrokihtzÇäçåäÉ~yrmmnmnpopsutuwyzywnaVLD?AHS\___``bc]SMLORSX\_j{ÉÖÑysolga_``]TMF=888998877ASan{xrlhcbegabb`_cb``cejonhc_]`ba`acgnv~ÉÖÇ|slea_][\^choroif`^`bbbcglqwÖÖÑ~vpmostsqnnppqrspliifhmle_ZVX^jvzwoeSICBADJT`itÄáâáÄtibadjllkhdfc^ZUNNRX^bddefknopmga_\[XPF<3/5ETYYTPR\m{}}|{Äylfb`gqzÄÄÇÇwk^TQ\fpy{xvurprtwwsnjea[UUXZ\``]blt|Å{uogbdeea[TLGGJNU[ajppsurnqrrtvtuzyxurjjhfegfjlie_XSSX`cb`\WZcmqtvsjb[XY]djnqrssolg^UPLMVahihd\SMIIQ\gopllnlhbYSQPPOQT[ekkf^VSU\agmohd_XTX]bfjmi`UH>:;>FR`lsrkc[X_fhgdZSV`ioog^ZZahpvzyxvrqomluzÅàåããÉ}vpllnoppoptwxxyywuqi_UNHDELV^cfilnrpf\UQRUV[agtÉâÜÅxplkhb[WVURKD?73111249=?JZfsÄÑ~wpjcchicb_ZZ^abeilrtqle_^adgilosvxyyvsplhd`][ZZ[^djnnljc^][XX\dls{ÅÑÉÉ|upnnrtsrqrpmmmnkhggeglg^VROT]itwtlaRIDCBHP[fnu{~~}wnfaadjmmmjhif`[UOOSX^bcbbdhlnomhc`]\XOC7-(.?PY[XUU]ly|}Ä}~Çymhfdlu|ÄÄÅÅugZRR]hqwxtrromnqqplhfcc`[Z[\\addhrw|yrmd_adfe_WMD@AEMU^hmkmnlkpqopqoryywtpgffffgghjgc_XQQV^aa^YV\gquvuogb^\^aeimoqstqoh^UQOS]hkjhbYQKHHOZcjkhgiif^UPOQRRSU[chhb\VTV\agmmhd]VTW\adgihcXLB;9>HUalokd^WV]dfgf`Z^goroh`]_gmruwuvwuvtqoux~ÖãååÑ{tnknpppnmptwzyxwtojc\UPKFGOX_flrw{~yl`YSSVY^en{àâÇynedff^VPMJGA;741/0127>EHR`itÄÑ~xpjcekmie_YWZ_dkpuywrkc]\`ekptuwvspnkigfda_][[ZZ\_dikllf`[TNNU_js}ÇÇÄyqmkjlppprspkkkkgfffdhkdZTPOWalsurj`TLEDFNXdnsuwvutng`^^cilmnkkkhc^WRSVY^aaaaaeilnmhc`^[XNA5+$*;PZ]][X^mx{ÇÅÅÉynjiipw}Ä~Äug\UU^fnttqomiegiigd`_`bc`_`aaeijnw{}}unh^Y\`egd[NA:8<FR^ilhefefmnlmmknwwuspecegffeegfc`YOOU[^_]XW`ksuuqkfdbbefghjlnprpme\UTUZenolg`WOJHIOYaggebded]TQQSUWXX[`ed_ZUTW[_ejjfb[USVZ^`acec[QF@<ALXbhgaZWSU\cfggc`emrrng``elqtuvtwyzzwrmvx|ÉäçåÉzqljopqpnotwz}zwuqic]WSRPLMTZ_gnwÑÖ}m^VPPUZ_gsÄàÖyl_Y[beb[VRMJD=:96589;@HOR\fmuÇ|vnhcfmpmg_XVZbjswyxsle]WY^dlrttrmiggedcca`a`^\[ZYZ^cimoiaWMFGO\it~ÅÄ}|uokiegjlmoqnijkiededdjle]XWV^gptvuodYQHGLWcovxwuqnlf`[[[bgjjmkklkgd_[[\]`bbaa`dgkmmida^[XNB6,%):NZ_cb_dpz}ÇÖÖÑÖzpnnnsvz}{}wkb\Z`djopnmjdabefea___beccdgfilnrz}}yqiaYUW\bgh_QC849DR`jle___ajnjiifhsuutqgdfigeccfedbXMMSY\^\Z\fpuusmhfghlomkihhjkmljc[WX\cnurlf^UOKJLRZafda]]ab^XVUWZ]][[]`^ZWTSV[^dihd`YSRUY]^]_aa\TLGCIU_egd[USRU]dfijhfkqtqmgbchnrttvvy}}yrkrtxÄàäàtkhhnoonmpvx{~yusoe]VQORVVY_abiq{ÑâázhXOJKRY`jxÅÑ~o_TQV`hgd^XPKD@?@??BDEKRZ^elot{~ztnhdfmqoib[Y_iry{wskc\WTW_gnrqmhb^^____``acdb`^[XWZaiooh\OD=AL[iv}}zusojhfbbcgikmlhikhddedhnplhecbgnsuxysj`WMNT`nw{{wsokib]YXX^bdfjjjllkkhedb`bbba``dhlooiea]ZVNC8/(*9LZbikjmu|}ÅÑÖÑÑzrqrrtuxywz}wniecegkoonmhb_`cggfedbccccejjlpru}Ä}xpf_XSTX^ejcVH<7<IYfnmcZYY]gmihfceqvvvtiehliecdfefbWLNTX\_^^ckqutqljjlnsurnkifgggfea]]agmuxrkd\URPPTY`ehe^XWY\\YYY[^ba_]]]\XURRV[]dihc]UOORVYZYZ\]ZVQONT^ghgaXRQRU]egijiimrsplgcehlorswx{Å}yrjorw~áàÑynecflmmmnsxyz|wuurh^VPNRY]afddjs|áäÑtcTMJMRZaly~|sdUNNT^ikje]RJDBEIJLOQSY^deimoqy{yvrmjkqutniedjtz~}vnf^XVV[binlha[UTVY[[[]]_bcba`]ZX[binkaSE<8@M\jvzxrmkgddd`_`bbdggfhjgcegjpxzxvsokortuxzume^UW^kx~}xsnkhb^ZWV[^achiikmnpponidcb```afjprrmjd_ZVPG=5-,8KZepuuvz|}ÄÑÖÖÑ{ttuttstuty~zspmihimoqrpha_`eklkifa__^`djkmpsv~Å|vpg_XSQTZbjf\NC<AM^lrocVSTWaigdb``lstutkgjnjedgfef`RINSW[_`bgnqsrpmlmmoqspljifedcbccbdjosvvoga[XYXZ_cgklf]SPRVZZ[[]`ddb`][YURPPSX[bhgb\SKIKMQSSTWYXUSSU\fljf_VPQSU\dhikjjmrrplgbbeilquyx{Ä|xqhlou{ÉÑ~shaaejllmouyyyyvvywoe\TRV]chkgfkr{Öá~paUONQV^ep{}xn^OHHP\iprlaUMFGNTVZ]_aegkjknprz}~{wsrvywsqonu}ÅÅ|siaZWX[_ehfaZSNKLRWYXXYY[_baacecbeimnh]OB;;ER`kuvsmgc_^_a`_^_]]`abegedglr{ÉÉÇÅxrrrpqtwupke^`hs||wrnljfc^ZWZ]`bgggilnpqqoidb^[[\^fntwwtoid^XSMD<4/6HWdr{|}~}{}ÄÇÉÇyrssqpnprsy|vrnhghlptsqidcekqqokf^[XVX]ejmrtv|~xtohaZTQRW`kjbUKDIUfrtnbSNPU^ffb_\\gpsttmhjokfgjgecZLHNTX\acfjnoomlkjhggikkjljeca_`beehmrsspic^Z[_acilnpph]SNPTY\]]^`cba_[XVRPONQUX^dd`ZPHEDEHIJLOQQPPUZdlple[RMNQTZbgjkklorqnjd_^`dhntyxy|}ytnfknsyxmc^^dhjknrwyxwvux~~woe[Y\bjookjls{ÉÑ}qg_[Z\`fmwxm^OFFNZhswpdXOHLV^bhjllmnpnnnqu|ÄÑÇ{xux{xuvvw~ÖáÑ}th^XWZ^cfd]SKEDDHQWZZYWVW[_bemrrsttsrk_RGABLXclssoic^YXZ^__^][Z\^_bcbcioxÅáààáÖ|vrnjkptsqojgiov{|{yuqmmljhd]XZ\_aeeegjmpqqpjd`ZVUV[fqy|}ztmg_YWRJC;26EUbsÄÉÇÄ}xy|~Äwpqpmkijmqy|uojfehoswwtlhgjosqnic\XSPQU^ekruvzztsrmg_WRQValmh]SNS\jsrj^PJKQZab^ZWWbnsstnhjolillgc^RFFMSX]cfijkkjiiheb`_adgjnlfcb`bgjjlpssple`[Y^fjmtttsph\QLMPV[]]^_`_^]YVTPNMMNQU\bc_XNEA??ABDGIKLLNS[formeZPLMOPW^eimopqrokfa\Z\aekswuvz{vsmehlrvzxpf^[_dgjmpvyxusqsyÅÅ|vmdbcgorroppv}ÇÅ|tnlkjkmqv}ÑÉ|rcTIGMXgsysfYNFLXaiqsssrqqonorxÉáÖÄ}{y{}zxz{|ÅáàÖwla[Y\bfd_TG>;=@GRZ__^[WVZ_cju|~{wuobVLHJU_hmpnjc]XRQTZ]`^]ZWY\]_``cks}ÑààáÜÉyrmgabfjknonnqtwyxuspmjmopni`YXZ]_bbabehlnoplgaYRPRYes{}~}vpjc\\XRKC99GWctÉÖÇÄ|vv{{}}tlljgedeinw|yrkgddjrv{{vnllorsmhb^YVQMLOX`hptuxwrssokd\VTXalnjaYV[bmrof[MGHNW^_[VSU`ntttogimllpngaXKCGNSY^cegffdcdfea]YWY]dkpojhhhkopooqtsojc_[[bmqu{{ywsi]QKKLPVYZ\]][[\YWTPMKJKMRY_a_WLC>;9:<@CGHHHJNWckoleZPKLLMQYaekoqrqmhb\XX\bfkrtqswxurmfjlqstrme^]`dfkoty{xsqoqxÄÅ~{umkiimonorsx}~|yspruuuwy}ÉàáÅwhYMHKUdqyuk`UNS^gowyxvtrpmllpw|ÄÑÅ}||z|~{z|}}~ÇÉÇ~zrhb_afhcZM>659>GU_eec^ZX^cgozÅÇÉÉ|wupdYROR\ekmmkg`ZTNOSZ_b`]YUVZ\]`adlu|ÄÉÅ}zwnje`YY[_cinpsuwwxvspmiiostslaXUWZ[\\\]`cfhkmlhcYPMQYet{}}|vqkfbb^XQH><JYdsÅÅ~|zvw{|}{rigda_`ciov{xphebdktz~yrpqsroe^[[YWRLHHR[emruvtprqnkf`ZX[cjki`[Z]aikg_VLFHOW\]XQOS^muvuqjhjknpmf^QEBGMRY_bdda_^]_`^ZUQPSYbkqpmlmorusplmopmic`\[cnrv}|ywrh\QLKMPUWXYZZXYZYWSOKHFGHMT[^]VLC<867:?CGHHGGJQ]ekjeZPKJJJNU]dkptsqke^XUW]chmrrprwywsnfkmqrqomfaacehnrw|{vrpoqyÄÅÄ|vsmiikkpvvz{xuspqvz|{|}ÇÜâàÇxk]PKMWerzwof^Y_gmtyzzwtromllpvz||xxyyy{zzzzyy{}}{ztlhedhi`WI;238<GWeloke^[`fkr{ÇÇÅxrpmd[VV[biljgfc]WRLMRX]a_[WRSX\]bdeksvwwsnkica^YQOQU]elorrsstrolifirxyvnaWRSUVWWVW[^bdfikhd[QLQYesz{ywqmigggc]UKA@M[fr~}xyywy{|{zqhc_[Y\aiqwzwogdcflv}Äzuuvtph\VW[^[TLECLWclruupnonkjgc^]ahlkh`[[]`ee`[TLHKTZ]]YPNT^lwyyvnihimmidYLCCHMT[`bb`\YWVXWTQMKKOU`kpolknruwslegjnnkfb\Zaknrxyvupg\TNNOQTVVVWVUVYZXSOJGEEFKQX\[UKC<8569?DHIHGFHMXahjg^SLJHHLS[dkqttpkc[VTX_fkoponptxxupjnprtqoojefgfiorw{yusrru|ÅÇÅÅ~xskdcegnuvxwqooosz~~~ÉÖáÜÄyodYSRZfqxwqib_dkpvzzyuqolkklotvwxuprtvwyyvuuuuxzzyzwrokhjjaWJ=228>K]lvzvofbekov|~yurlgge_XWZ`fjjf`^\XTPLLOTY\\[WQQW\_fgeimmlke___]^]VNLNR\elmnmmoqolhdbgs{{xoaUPOOOPQQRVZ^adhjhd]UPV]gqxvrngc_afhd^WLCCP_hs|xsuwwz|{{yrjc]WUX`ksyzvngeeinxÄ}zuvvqj`TQV]a^VMD@GS`jpttoklieeeb_`gnomh`YX[\^^]ZVPLMU[]_\RQV_kw{{yrifilie^RGBDJPW_cb^ZUQPOONLLKKNSYbkomklquvvpg`aelmkhc]Z_gimstrsne\TNNOPRRRRSRSUXZXSPLHGFGKQW[ZTKD=978=BGKLIGFGKU^fkkbXQLJIKRZbjqusojaYUSYcjqtrnnnrxyupjorvxtqrnjkkjlruyzyuvwy}ÅÑÉÇÅ~xqh`_bgqxwyunkllpw|}{|}ÄÇÇ~xqh_YX]houuqjcbgmqwzwsqnkiijklpppppmosvwxwrooooqrsrstqomklmf\OB77=CQbq{Å}vnjkptxxvmgd_[ZWRPS[chjga[YWSPMJILPW[]]XPNRY_ilhijged]WY[Z]]UOOQU]dhikklnpnic^]es}~{rdYTPMLLMMNRVZ^bfjif`YU\cjquqie_ZY^egeaZOHJVdmuzuortvz{z{ytld]WTYbox|{wohhjmqy~~{wtutmf]SRX`b_VLC?FQ^gotunjhb]^`a`dlpoke[UTVWZ[\][VRRX^`b_VTX`jw}}{tiehieaXLDDHNTZaca[UOKJIHHILPSW\`ejlkjnswvskb\]ailkie_[^cdgmopsne\TMLMNOOPPOPRSWZYTQMLMMNPSWYYTMGA=;<CINQQKHFFIS]flnh^VQMKNT\cjquroh_VQPXbkuytqpmouvrnisw|{ywrnonnquvyyxwz~ÅÑÜÖÉÄ~ztjbZ\bktyxxsmkjilqtttvwy{{zvqlhd_^cimqqnfacinsxwrmkhggiiiiklmmnmnqttuunjkjikkkkmonmljkpkcYMA>CIUcq}ÑÇ|vqoswwtoe^ZUPMIHJR\dghc]XVTQNJFFHMU\`a[QLOW_kpljidaaZUX[[__XTVY\addeijlnojf_[]ft~~zth`[VPLKKKLPTX\`eiiea\Y`gmrune^YUTZadca]SNR\hpvxrorstvwvyyvnf`YW]ht}}wojlnruz}zurqqpjd\VW]cc_VLDAHR_gnttmhd]WXZ\^dnspjcXQPPRVY\__\YZ_cegcZX[`htz|{ujghfb^SHDFKPV\bda[TLGEDBDIPX^cfhjkjhhkprqnf_[Z]ehhge`\]`_agjmqkc\SKIJLKLNNMMPQUYYUROQUXZZZYXWTNIFA?BIPTVTLGEFIS^gnrle]XSRU[binstqmf\SNNV_jv{vsrmnstokgtzÄÑÄ}xsoqpsvxxywvw|ÄÑÜÖÉÄ|{vof_Z]enuxvtplljiknqqqrrrtsrnlhhifeillmlh_\`fmswuolkhfhihgiknpqqomorstsjfgfdffefhkkljggmlf_WKEGMVbp{ÑÉÄ{upuxwrmcZSMGB@CIT^fhha[VTQOLFBACJS\ab[QJKS]jpolkged]X[`bed\Y]_bcb_`egjmkd_YW[fszyvrkgc]UNJIHJNRX^bgkjea]Z_flrskb[UQRV\_acb]Z^fovxxrorrpqqosvuohb\\bmw~ztnjmqttxwsmjjjifb\Y[`cc_XOJHNXcinqpje`XSRTV[couslcWOLLOSX\aa_\\`dfhd]\]`gqwyxskhgea[PIGKNRW[ab_YRJDA?>BJU_gloomlifeinoome_]Y[bddffb^]\Z\bfkqld\RGCDFFHLLKLOPSWXUTTY`fhfc^ZXTOLHDBFMSXYVMGEEGR]hptoid_ZZ]bimqtroleZQLMT]iuyutsnnqqkgdu|ÉàÑxspqrwz|{ywuw}ÇÜàÜÄ}yvqjc^Z_iptutqnnmjgfhkkmponppnkhehllkopllid\Z_gouzwokkhfhhfehlqtutpklopqphba`^`aadfiikgcafgeb\SMNRXalxÅÖÉysvywqlbXPIB==BKWahjibZWSOMJC??BKV^bc[QKKR\iqrqpljid_bhjmldaceggc`aglopkaYUU\fqutrplljc[SLIGGKRY_ejkje`\\_ekpph`XROORVZ^cfddgnuz{ysprplkjhmqrnhc`bhpy}ysmhflquuvqkcaaabdb][]`bca[SPPU]fjlmlgb]UOMNQW`kpmg^SKIILQW]aa_[\^befb_]]`emsvvrnkgd_XOJKNORUX\^\WQHB=;:@M[gouwuqpkfeknoolc^\WX^`aefd`^[WX^cjpkcZN@;<?ADJKKLOORUVTTW_juwslcZVTPMKGEIPW]_[SLHGHQ\fpurnkfa`dhlorsqpof[RKLS]hsvtttpnpngc`u}ÉàÜÄxsppsz~ÅÄ}zvx|ÅÑÜÇ}yurmfa]]cmsuusppqojdabegkmlmqqnjfchnprtrnlhc\]dnv|~ypmlhefeccfjpsspmhhjlmmea_][\\]aeikkd]Z\^aca[WTUV[dq}ÑÑÇ{uvxuoi`WNGA<=EOZchjib\YUPMIB=?FP[ac`ZQLMS^jrvvurolhcfloqqkghjigb_clrwum`WTW`ipponmlooiaYPIEEJQX_dikjfa^]_dkqpjaYROPRUY`eiklnsz}}zurtrlhfbejljebbhouzyskfcdkrvuskc\YZZ^ba]]_adhf`YVW\cklkjid`[TNKLNT[dgc]ULFDFIOW]_`^[]_adc^]]]_djpttsroid^VONNPPOPRTWYVPIB<:;BP`ksz{wsqkgglnoplc^[TUZ]^cffc`[VUZahnkdZL>77;?CJLLLONPSTQRV`pÇ|tgZTTQNLIFKRYad_YTNLLR[enusqnjfgkoqstsqsri^TLNU]gpqrstqonkc_\rzÖÖxsqpszÄÉÑÄ|wwz}}~{wurojd`_bgptsqpmoqng`\^bejkknsrngbahrxzyvpkga]aku|Åxqomhedbadglqsqnidegjlmgc`]ZXY\agnqpfZSPSZ`ca]YVUV^kxÇÖÑ~xwvpjcZRJD@?BKT\befe_YWUPMJC>BJT]aa^ZTRTXbmtxxvspliceiloqmjkkigdcgpvzwnaYW\empnkkklpple]TLFEIQX^cfggea``agnutrg]SPORV\cgknoqw}ÄÄ}xuvtoid^_adc``dkswytkb][_houtod[TSUW[_`]^`dhnnha``ciomigea]YRMIJLQW^_[VNGBBEHNX]]^\Z]_`a`Z[\\]cgmqtuuqid\VSSRRNKJLOSWVPIC<;=DQ_hpy|xtrmihllmnkc^XPQWY\bfgea]WVZ`gnmg\N?76:>DKMNMONNPQNOU^pÇÖ~whZTUROLIGKQX`c_[XSQQV]eouuutpnnrttturquvmbXQRYainmnpsrpmia\Znuy~zvsqprxÄÑÜÉwuuutwvuutojdabdiopmjjkoqof^[]afkmpswtmd_`hs{}zumgb^]eow}ztonmiec`_bgkoplgc`aeimolgc_ZVW[`hrxuj\OGHQ[bba]YVW\fs}ÅÉxvsle]TLEAACIQW\_``]XTRROLJFCHQY^`_\ZWWY]eotvwurqnkfdefhkighihhgilsy{xpe][`gmnkijklnmifb]UNJKPV[_`abbbbdfjpvurh]RMMSX`hjknpsyÄÉÉ|yzxung_\\]]\]cjrutlcZTT[dmsrkaXRQSUZ^^]_bdipqmghgglrlgd`\XTNJGHKPV[\XRJD?@DIQ[_\\YW[\[\ZVWZ[\bgkqvxwqh`WSSTRPKGGJNTZYRKE>=?CNYblvzxsqmhhkkmokd^VOPVY]dffe`\XW[agnoj_PA86:?ELNONONMNNLNV^o~ÄxqeXUWTOLHDJPX`da_^ZXXZ^entuvvsrrtutstrsyzrh^WW]flmlmmprplh`[Xiosx|yurqmns}ÅÖÉÄwsqpotvxywqib_^afkkhffinome][^djqvy|}yod_afpyzuqib^Z]hqw|{tolkiea_[Z`egjke_\[]bgknmhc]WSUZ_hsytj\KABLYbefc\YWZdoy~Å}wsng`WMFA?BHOVZ[ZXVSOMOPPNMJHMU[]]\[ZXY[_fptwwtrsqoje`^^acdegghilpvz}ztjb^agkkjilmkkhfghg`VPPRUY[YY]afjlnpswwsj_SLLRXbiiilmpwÇÑÇÄ}~|ztmd^[ZYXZ`gmone]TNNV`ksune[UQQSX\^`eghkqqmiligkohda[VRNJGEGKQVZZUOHB>?ELT]_[YXW[\[YXTVYY[`dgouxxqf[PMNNMJECEKQY`_WOIA>?AIS]iuywqokhhjiklic\SMNTY`ffec^[YY[aflmj_QF?=@FJNPPMNMKNPNPW^lvwoj_VWZVQKFBHPWadbceb``abgntvwvtrrssrrssv~wmc\\cjpommlnonjf`[Ydjotyxtqpkimuz~vqnllrvy|zri`[Y\cggfcdhlmle`adjqw|ÄÅÄ|qgdfiotrlha[YX]jrtwtkhgec^ZXVW_deff_ZXY\`fkmkg`XQNQX^isyrgYH=?JYejkh_[Y\dmtwzxrmhbYQHB?>DLTZ\YTOKHGJOTUUSPMPTX[^^^^[Y[ahrxzxtrtsqnf\VTUY^befghjmquwwske``cefhinplhedhmpj_WUTUVUQT[cmsttsrvxvndYQPV\dihgijov~ÇÖÉÇÄÅ}yrh`[WUTV[`fig`YPJIR\hqwsmc\TQPTX\bilmorromqmhkmfb^WQNIFFEJOW[]\WOID@BIPW^^YYZ\``\YVTUXY[_bensvwpdWLHHHGDBCHPY`ge\TNFBAAENZhuzysqmjjjhjkgc\SNOUZbfd`]XVXX\bfjki_TMKIKPQRQOLLKKOQOPUZdkkeaYVY\WPIC@HPW_b^_b`_acfkqtvvtqpopqqqstx~xofbdjpsromkmnmie`\Y`glqxvsomfegnrxz{upmllrwz{xof^YWZ`deedgloookgjlptyÑÑÅ|sjjlkmojb^YUUV^kpoqlc`a_]XTSSU_dfgga]\\_afkkgaXPJHMW_jsxncVF;?JZflmjc_]^dinruqlgb[SKC?<>EOW[[VOHB@@GPW[[WROOPRW^acc]XYaju}~zvtwxzwn_TNKPX^befefhjlnonje``_`adhnpmhddktxsh^ZWWXUPS\frxwuqptxvpg^XX]bgjihijou|ÅÖÑÉÅÄ~~|vme^XTRTWZ^a_ZULEENWcoxwtkbWPLPU[enqppqqqrvqkkle`\SNJFEGIMS\^^]XOIFCGOU[^ZUW[_db\WTRTWX[`aemqsunaTJDBBBABGNXbinkb[VNIECDLZjw}}xuqnlhehgeb\SPQV]egb\UOOSV[bfhhf^VTVUUXWTQNKKKMRTRQSW^aa]ZUV[]VOG?>GOU\^ZY[ZX[aflqvvvuqommnoprtw}~xqljlsvvspmkkkigeb`]aglqvuqmicabhmqsvsonnpuy{{wne]WVY`fiklqvwwxtqsttuxÖÖÇ~unqspokc[XUVW[cnnllf^]]ZWRMNPT^eijjdb``bcfigaZQKGHNY`jpri^QE>DO_jnmkc^]]afkoqlf`ZTNIC?>AHRY][ULC>=?HS[__XQLKJMU_ehe]VWamzÉÉ|z}ÅÖÉxgYNGKU\aefcbbbbdgihea_]\]binokgcfpz~xmc^Z[ZWTYcnxzvqmlqurmgc^_cghhhghhlov{Ä~~|}|yqkd]VSSSTX[YUQJCCKVbny|zpeWLGKU^jtvrppprtxsllmfa[QJHFHLMQV^_]]XMHFEKSX[ZTPU[afb[USSW[^bedgmnork^RH?<=@CIQ[emqrofa^XPLIJScsÇÇ~ztpledgfdc\TSUYaig_VLEGNSZbdec`[X[bcab]VRNIIJNSUSPPSWXXUTQUZ]UMD<<GNTZ\VUXWTW_ekquutsolkklnortw{~{uqptyzxvrljigeddcbabfkqutplf`^`ejllpoopruy|~zqh_XWY_fjnqvyzyzyxyyvuw|ÇÑÉÇ{vyzupi_YZ\acflroljd^]\XSMIKOVbkoooihffgfffbZSKHGJR\djmmdXMFCITbklki`ZXY\cimng_XSNKGDAADKTZ\XQG@>?ALX_cc[PHDAFQ_hkh`WYesàâÑÅÄÑâàÄqbTIJRZ`efb^\ZXY\_ccb`]YZ_fkkigfkv~}ui`^^``]]clu{yrmkmtyvqljffiigfffeefhouzzzwuuwxwsokd\XURRTWUROHA@HS_ly~|sfWICHT`mxyroonquwrmnqkf_TLKKNPQRU\\[ZUKHGHNUXWRJKU]dgbYSRSX]bgiiknmopj_TI@<=AHP[enrrpngdeaXSRT]lzÇÑÇzsoiaaedbaZSTW]ekf\PC=BJS[bbb]YXZalpmkcYQLGGIMRSOKJLPQRQONSY[TKB:<HOSYYSQSSPS\ejqutrplihikmnqux|}xtuy~}zxsmjhd`_acdddfjnqqnha]]_dhhgjlnrux{|}}xof]VTV\bgmqvyzz||}}ztrqu|ÅÇ}z{{uohb_ciorswysokd_\ZUQLINWaox{xtmlkmnkhe^VPKKMRZcilllbWNJIOXchged\VTVY`glle\TPKIGECBEMV[\YQFABFJT_efd[MB<9AO`mrohbdp}àéçàÖÄ~ÅÑÖÅwj\QNSZ_de`ZVRNMPT[_bc_ZY]chhijkpy{vmc^^aeedflrvwrifhmswtmjkkkmmgfgfdcdelsvuuqnoqrsrpnjc^[VSSUQPOJBAHQ]kw|yocVJGLXdpxxpmlkotupnquplf[RRRSTRQRXXVVRHEFHOUURKEIV_de^TOOQW]dknopomnnjbYND>?EOYdlssmjiegljda`ahs}ÅÅÄ~xqmf_aeba^VPSX_gkdXK>:BKT\ba_YVX^frwsmdXOJFFHKNMHCACGKMLLKPUXRJ@:=IPSXWOKKLJNZelrwtqnkhgiklloswz|yutw}Åzxsmie_ZZ\`ceddglmmjc\[\ahjihhhmquwxyxwslc[USSW]ciqvxyz~~~xpmmqy~ÅÄ{vutqnlikqx}}||vqlfb_\XSPPVbn|ÑÑ}vnmmqsojf^VRRTX]gnqqokbVOMMRXac_^]WSQTX`gmld\TQLKIGDCFOX]_\SIEINS\dghd[MA86?O`owvroqzÑãéãÜÉ}yz|||umcZVX]acc_XRLGEFLT\dgd^[\`dfjmotywnf_]`fkllrvxvqh``fmqtogeijknmgfgfedcdjpsqpljjlloooonjfd^YWVRRSOIGLR^kuxrg]UORXcluxukfeekrqmosvtqlaYWWURNKKPQPPLCACHOSSRJEM[`bbYNJKNT[elrttpnnmjf^SKEEKU`jquskhigkrqljjkpxÄ}{tlha]`ca_YQMQW_hleXK?<EOX]a_\WTYbjuzskaWNIFEGGHFB><>AFHHHIMRVPH?9>IORWUNIIKJNZfmsxvrolihklklosvyyvsuyÄÇzwsmhc\WVZ_becbeijkh`[\`gmnliddjmoqsrrrpme^XTRRW]dlpoprvxzztmlmry~|uomkjlnpu}ÇÖÉÄÅ}wsmhda_\WW[dq}àåâtjiiotrmha[Y[`eluyyuqjaWPORSV[ZVVWRPPT[dimlc[USNMKIFEIS]dd_VKGLTZbhklhaVG=;CQapzyxwx|ÇááÑÇÄzutqopoljfcbeggd`XOHBABIT]ehf^Y\_aelnquuog`\^cjorsy|zska[^gmooh__fghkjeegfecbciorqnjhghhijlopomkea^\XWWTOMQV`kssk`XUV]dmtwvqf``_fnnknsuusncZWVRNKHHMOOMH?>AHNQRRKIU`aa_ULIJLRYentwupmnlkhaWQLMS\emruqhfhinuuonnouz|yvnhb]\_`^ZSLJOWaimgZKA@HS]bc_ZUSZemv{siaVNJGFGECB?;;<?CDDEGJOTPG>:?IORUQLIJNOS_kpuywsnliimonoquwywsruzÄÇywsohb\VUY]_bbacegiga]afmqpnjdbghikmklmomh_ZSLJMRZadcbeknstoklntz}|xphdbbflrzÉÜÜÇ~|zwrnidb_]`hsÄâêêåÅujggmuvsnhb`djpwÅÉÄ{ukd[UTTRPQQORTRPPU_gjlja[WUPNKJGGKU_hhcZOJPY`gmqspkaRFCJTbpz{zzywy~}{}|uqmfbegjmpommlhd_XOHBACJV_dfbZUY\_emortpi`[\afotwy|{vmc\Y\ejihbYZcfgkjfeggecbcjqtsojgdddffhloqqpkgc`[Z[WTSUW_hnmh`[\`hmruurla[[[ajkimpqqni`YTRMIIJLQROKD<<@GMORTOO\edc`VLHIJNU`ksusolmnnkf]XTTX_fknolddjlqwvqooptwzywsohb^\^`_[VNHINXaimh[MDBIU`ee_YST]iqx{rf]TMIGFGECB@>=>@CBABEHMROG=;AJQTTPJILQT[fpuxzytomklpstuwyyxtppu{ÄÇ~ywtohb]XVW[\`babceggdchmqqonjcbfeeffdefjmkd^TKFJQZ`a_ZZaflpmknpu{zwqh_[YYaiq{ÉÉ~ywyy|{xuohecbjtäéêéäÄtieejuzzupihlsyÅäâÑxnhb[WTNHGIKQUURSYdjkjg`][XROKIHILT^gif`WPT]cjpuvsoh]QOTZbmvxwxtmlqqqvwpmj`XY\bltyyvrke^XRMHGJPW_ba\URW[`hnorqke^Z^fltwxyyvpf\WWY_a^\XSWchjmlfeggfedglrvupjgccddcdfjprtqmid^]^[[[\Z`fjjgaaejquvvtoi^XYY]fhgkljhe`YUQMHHIMRXVOH@8:?GNQVZWYdkhgcYPLKKMS^irspljknokf`ZVVX[`cded`dmruzwqnmmqtvutplfa^^aa]YRJGLRZcjmi]OFBHVbhgaWSVbmv{zpd[SMIGFFCABBAA@AB@?AEHLQOF=>FNSUSMIJNUZcmuz}}{wromnruxz{|yuomov|ÅÅ}xusngc`[XXYY]eccbdfhhjostolkhccfcbccbdhntuoi^TLPWbfe^URZ`hnonprwzvrj`XURT]gnv|xqmmosz|{{tligfp{ÖååàÑÄyphfeiv~Ä{wqptzÅáéäÑ~vlga[VPHA?CITYZWY^hmmic]]\ZTPLJJLOU^fhec[SU]bhotwuqmf][\_ciprpoj`^cdfmokif]TQT[ht}Ä|tmf^[YURTUWZ]\XSONTZbjoqsohc^\bkpvwwurmh`XVVUXXTSSQXfklnlecdeccdhnsutnhebcfdaaafnsvtplgb__\^__]beghf`cgkptsrpmh]XZZ\egfhgcc^YTRLIFINTZ^XNE;5:BLUY^a]_jnjif]URQNOS]gppmjijnojd_ZVUUUUVXZ]]epwy|yqkhgkorsspkeb_ada[UNGGNV]chkg]RHBGU`ggaURVcox|yoe\TNIECC@?ACCDCBB@>@EHKNMF>AJRUWRKGJPX`jszÄÅ|xtpnpsvz}}~ztposy~Å{wtrlfdc^ZXWUZjgebceinruwsjffdaehdbbaafksy|xsi_Y]fopj^QKT\emqrsvzzsof\TQOQZbhnqledfkqz}~ypljkuÄáäÖ~zxtnihhkwÄÑÄ|xwx~ÑâåáÄyqida]WOF=:AJW_`\^bilkd]Z\]ZURNMPRSV_efee_WW]afntvurnidbccceikhf_USXZ^gjgfd[PLNVds~É~vng_^_^^a`^[ZTNIGIOWbkorungd_^dlquusnh`]XSSUTTSONPS]kqpokdabb`acipuusmfb`eigda_ckpttrnie`^\_aa_cdefeaegghljkkkg^[]\]dfddb``\WTQKIKQV\abYND;8?ISZ^bb_bkmjhe^ZYXUTX`inmhffhmnga]YUSQNLJJMRWbpx{}yphb`dhmprplfcbdfc[UMGIR[_befbZRJDGU^ff^SRXdpy}yqg_VPJEDDBBCCEGFEDA=?EHJMLFAFPWYZSLILR[epyÄÑÉÄ}xtqpqsvz|}zuqrvz}~|xvspjeef`[WUTZmhe`_bjqvywod___`fifcb``gnv{}zvohekt{{scSLS[cmrtux{xpkbWQOMPYaehib]^chow|~Å|snlmu|ÅÄztsrqmjjknyÇÜÉ}||ÄÑÖÜÅyrmfca^VNF?>FQ^dd`adghf^WX]_^YVRQUWVW]bdegc\[`aenstsokhfeffedegec\TQTTXadbbbZOJMUao{Å{smg``cdgkic[TMEBBEJS`jntwoigb`emqutpg]URONOQQQNKJOUbouqmib___^_afnrsrmf`_dihfb^ahmrtrnid`]\_a`^bcdfeaeeaadabfif_^a_^dc`^\]`\YXUOPRX\`ccYLF@?GQW[_baaelljhd_]__^\^chljdachlnib]XTQNGC>=AHP^nx{|ypg`^`djorqmgddehe^XRMOYabbb_\XSMHJU\aa[QSZfqz~zskbYRMKKLKHDBDGFFEA=?EIJLKFCKU[^]UMJMR[gt|ÉàáÇ~yurqqqtwy{{wtuvxyyvtsqojghha[UST\mhd_]_govwtj^YYZ]dfeca^`gnty{zxsomrzÅÄyjYRTZbjquvz}wni_UPONS_fgge]Z_fkqw{}~{tpnnrvxvqnmkkihjms{ÅÑÉÄÄÇÑÇÅ|tmhc`]YRKDABKT_dcabcdc_WSV]bb^[VUWYVU[^_bd`\[^aemqqqniggeeedcdhgd^XSRPRY\]^_ZOJMU`kuzvomicbegkqpfYPG?>ADGO]hnuxpjidbglprpkaWOLJJKMMNJHIPYfrunhc^\\]]^`emqqrmf`^chgeb]`gkptsmhd^[]_`__beghe`b`[[]Z]bee`aca`ca[YX\a`^^ZTV[aceedZPLHHOVY[]__`ekkiea]^befdehkkha^bgkni`WQMJF@:426AN]nz}}zrh^Z[^dlppmhdddgd^XTOR\efec^ZWTPMNVY[\WQU^ir{~{undZUSUY[YRHBBEFED@<>FIJJIEENX_a^UNLNRZfs{ÉàÜÅ~xsqponnpsv}}yvvutsrpoppnjhijc\UST^nid^[\bjoqneZVVWZ_aa^][^ekosuvwxutx|~}vg[UV\agmruy|ulf_VSTUZdihec]\dlqtxz|{xtomklmnmkkjhffhkqx{~ÅÄ~ÄÄÄÇÇÄzsmgba^XSMFCGMU]a``ba_^XQQW_deb^YUVVTU[^_``[YZ_djqssrnhfea``aaejlic^YTPPTXZ\]YPLQYbkrwtnnlfcefjoofXLC==ADGLXckqslgfbchmorpkaYROLJHIIKIIMW`iqqg_\YYYZ[\^dlpstrjb_bfedb^_cgkrrmhc\XZ\\[]agkjd^\XUVXUX^bcabda_a]WTT[cddd]X\bhkkhd\SQPOSWWWXYY]dklic]Y\bhmlmnnjd]Z^cilg\SKEDC>9658ETbr~Å{sh\WWZbjopmgccbec]XSMPZdghf`[XWURQUTTVUSZcksz}zuof\YZ`hnlbTHDFGFE@<>FKLKHDGQZac_VOMMOWdpyÇáÉ~|vpnnljjklqy|{xvrpnnmmnnlihijc[TSV_qoic^Z]ehjjbYVUUW[[[YWUY^dimnruxxx{|zxrg]ZZ_adjoquxsmhb[YXX^hkigebdlsvvwxxwuqmkheeeefhgdbdgku|{{}{y}}|}}{|zuqlhig_YSJEHMSY\\^`_[YTOS\dhhd`YVVUTU[^_^\XWZ`gotuutogc^YVWY[ainnjf`YQNPTXZ[XPNU^gnsurllkgcccehicXMF@@DFFIR^fkmiefccgikople^WRNIDDFGHKS^fknj_XWVWXXZZ[bkotxwogbaccca]\^`fopmibZUVWVVY_hlke`\VSTTPT[abcec_^^ZSOQYbege_[aglolhd]XWWVVUQNOQS[dkliaZVX_hprrroh`XV[agkeZND>>?=<>>BN]huÉÄ{sh[UUY`jmokfaa_cb^XTNNWbilke^ZXXUTURPSVW_hot{~zunf]Z_gs~tcUMMLJF?;>GLMKFBGPY_b]UPNMNXepyÇÉ~{ysmlkiggfhlvzzvsnlkkklmlkjjjjdZTTYcsrmg_WX_cgjd[YVSTWVTRPOTZ`fmoswyxvuuspnidaacabgkmrvrmje`^\[aikihgejswxvttsromhfa]\\[]a`]^adkv{xwwtrwvtuwwzzxwtqspfaYOIJLPTVX[]ZXWST[chjgc_ZWVTSV[]][XTTW]emqstqld^XQLMQU\gnqolf]SMNRWZ[XQRYbkpsspjiifcb_^_aa[SOKJLLIIOZchkjhhedeghmnkd_XRLF@?ADGNZdjjhaWRRTTUUXY\bhkqvupia]^`b`][Z[clnkf]TPQQOQU]gomf`ZSPQPMRY`cefc__^YSOQX`dfc]]cinplgb]Y[\YVRKGJMQZbhjg_WQT[fpssrmd\UUZ`gkeYK?76:<@FJNXemwÄÑÅ|ti]WW[bjmmid`_]aa^ZVPNUakqqlc[WXXXXTQUZ[dmrv|}xslc[Z`jxÖà~obXVTOG?:>HNPMGCIRZ`d^VRRQR\irzÅÄ{xwqkjigfecdiqvxtpjihikmlllkllje[UW]gvuoi_UT[_gnia]WRRSRPNLLU\ahoqtwxuqonjhhfdcdebbfhjqurokgcb`_dhigiijqx{{wtrpnkgb`ZVTSRTXXVX^bkv{uqplkonlmprvyz{zz|zqi_TKHHLOQUZ\YXYVZeklkf`^ZWVTVY^a`]YWUVX`hlppmgaYRJEFLS[elppmi`UNMQWY[WRRYakpsspjfgecb_[XZ__\^\ZXTMKLVahkkigbaccdjkhc_XQJC><=@GQ^inlg`YTTURRTX\`ehinsrmg]XZ^aa_\XYbjkgaWMJKKILS]irpiaXPNNLLPW^befddeeaZUV[_cc_[]cinplga]Y[[XTOJHKNQX]cebZSMNUalrrpi`XSSV]cidXI;/-28AMV\clqxÖÅ{si^XZ_djmkfb^[Z]^\YVQOUbpzzti]TUVWYWVZ_aioru{{wrkb\]bjwÑàÑ{qhc]UJ@;@JQSQKHOW]cg`XVWVXcou|ÅÄzxuoiihhgfddgmsuqkfffimomlkkllid\X\cnyxsncWVZ^hpld^WQTXWTQNPZafkppsuuromkfb``_aefdehhkqspnkfdda_ceeejlpv||ytpmkifa[ZSNMMKLPQPU\bkvwplieehhefhkqv{~ÄÉÅxodXMIHKNQW_a^]^[bmqokd^\ZYXY[`dggeba^[Z^cfijgb^WPIFJOV]cfkmljcXPNQWZ[XTTZakrttof`````]XSW`efljgaXOKLWcijifa^_``afge`\TMF@<<<@IUbmrokfb`_]XWY]aefedhmlibZUW_dcb_[]hmkg^QHFDCCHO[hrqj`VMJIIJNV]bdebbdca^Z[]_aa[Z]bglnid^YVVWUROMMOQTWZ_a]VOHHP[gopme]USQSY_ed[L=.(.6DTbjmqrv{Çyrj_[^dilnlfa^YWYZ[ZYVTYfuÄ~wk\PPSVYZ\`celoquyxupkb_`aenw}}yrmeYLA=CMUYWPOV]bgke][\\`kv{ÄÇzwrmhhijjhdceinrnhcdfjoqmjhhjie`ZY`juzxuqeYX]aksoe^UQW\\XTPS_gmqrnoppmkjhc^^_^aefdgiilrspokdcea_cddflpty|zuokgdec^YWOIGGDDGJKS\bkuslgd`_ba__bfmu|ÄÉÉÅÄyoe]SMMPQS[egddcahrvqkb][[[[]aeimnnllf_XXXZ^a_][VOIJQUY]]]cgjjdZTQRWYYXVUY_iprrlbZYZ\[YUPTakpwxsi^SNOZgllhc^\^^\\``\WQJC?<;;=BLXenqolhiijifeefhhd``aedaZURV`feefbdoqkf\MDA>=>DLXdmmh^TKGDEGLT\aba^^_`a`^````_[]adhmlgb\VRSTTSQOQQSTTTXZWRMGFNXcklhaZSPNOT[cf`RD5-0;IYgppnoru||voh`^bhkmolfc_XUVX[]_]\alzÑÄvhWJJNRVZ_cehlnptxvrnia_`__dipw|}yuk^QGELW`ec\[_djnqleaccis{~ÇÉÄ|xqkffhklidbcfkomfabejnqkhffgfa\Y[eq|xusoc[\`cmupf^VR[a`]ZW\iqvvrlkkjhgfda^`aaceeeiijoutqojbdjhfjiginpsvwupjgb`bc_[YPGBCA@DGJR\dmroid`]\_^[\_cks{ÄÅ~yyungd]WVYYX_hjhhhejssmg`[Z[]^`chmsutrqg]SPLNTY[\]ZSLNUWZ\YV\`cfb[WUTWYXXXWY_goqqmcYWWWVURNTamt}{qf[WYcnqmg_YWZ[ZYZXTMFA;;>?@DJR[flonmkmprstsqomh`[[[\[WPLMS`iikniiqqjcYJ@;88;BIUajjg^TKEAAEKSY]^[YZ[^accec`_^[_cfinmgb]TOPQRSSRSRRSRQUWUROJIOW`ggd_WROKIMT^edYOD<?KXcnurmmqtzztlga`djkmokfd`XTUW[^aabgp}ÖsdREDIMSYaehkmmptvtpke_`ba_`afox|}zqe[TT\hryxtssuy{{wpkllqyÇÖÑÇ}woiefgknkebbchljd_`chnpkhecdc_\\akvÄtsrod_`cfnrld^XW`ghhggmx}~{sigfdccba]\^``bccdhhjputrpjdirsrvtooqrsttqlfc_^bdc`\QF@ACCGKMT\fnqmhb^\\]\Z\^bjrz|{uortomnha`a_]clponlghllhc]YXXZ\^bgovzxtpbVLIDFMU]cfd[QPTVXXSOTWZ^]ZXVTUVVWYXW\cjmone[VURQQONS^hpvwvphbbdmvtlcXQQVXXWVSNFA=9=DFHMQU[bfhilmsx{ÅzslcYVWWWUOGFIQ`knrtmkong`VG<6238@GR^fgf_VLE@@DJRWYYVTUW[`defb^\[Y^ceglkfb^TLKLNRTTURQRQQTVUTSONRW^ddc_XSNGCGOZeh`XPJLXclswsmmprvvqjfa`bgiikidb^WTTUX\`adiq|Çzo`OCADHOYaehkjmrwyvpieadgeba_bmy}}uke`bis~ÖÜÑÑÄÅÇÉÇ~xsrsw|ÄÉÜÜÑ~vlfdegmplfcbadhga]_chmojgca`_\[]eoyÄtttpfbdefkke_][^hooqqqxÇÉÇ}rgeda__^\YY]`abbbehhkrvuutpkr}Éxuvuuspkeba]\cfhf`TG@BHKNQSW\hookhb_\]^\Z\_bjsyyuleinnqvqiggc`emqrrmgcdc`]XTRQRUVX^gpvuphZMFC>@GS^hnk`TPRQPOJGLNPTUUWWTRSSUXXW[afikke[VRNKKJKPX_fgggfefiow|wncWPRXYYWTOHB=;8?HLOWYYZ_`_bgjqzÅàåà~reZRRUURNHBBGPamrvvnijje_UF92.08@GR\cefaXME@>BIQUVUPJJMQX_bb^YWWV\abchheb_UKIILQTVUQOPPRUVUUUSRVZ_cddaYTMD>BIUcjfa\XZeotwwskkopsvsmidaadefge`_]WUUVX[^_bglvyrh[MDCFJQ\bfijgkrwxvnga`ehgdb`blwz{zslihjpxÅàäääÜÜáàÖÉ{yy|ÅÜââÜ~tjcbcejmjdba`bdd^[]bglmhd`][YWZ^hqy|ttsnecefgif`]]^ckoortu}áÖÇ}sged`][ZXUX_bceccgkkptxxyxwrxÉÖÖàÉ{yxwuqlfaa`]_egkldVJBELRUVWZ^jpoljfc`_^[Z^bflsvtnc]cils{vnlkfcfjnpqmfa]ZYWSOLKLLLNT_jsqj_QD?>:=FTajnh[NIHECC??DFFJLNRSPNNMOSTSW]bdffd]XSNHFEHKQVYYY\agnsz~Äzsj_X[a`_\ULC<:99CNTX`b^[][Z]bfnwÅãéázj[QNQTSOIB=?DPamswrf__`^ZRF;316=FMV^dcfc[QKEBGNTVVQJEEIPW]``\XVVV\___bccb`VLGGKPSURMKLMPSTSTXXX[_adedaYRJ@;>FScmlkkhjsxywuoiinopuuplgc``aab^ZZYVVWXY[[\^bfnrldZOHJMQXaceigchpuwule__dhgdbbfpz}{ysmlmpu{ÉâãççààââÖÑÇ}}~~ÄÖäãâtia`bcfjhcaa``aa\Y\aeijfa][YXX]cmsxxtusmdceeeea[[`cipportxÅäáÇ~vkhf`ZXWUU[dgghedhkkquz|~}}y}ÖÜÖÖÅzxwwsnf`\^_]aghmpgZNGIQY[[\^bmqolkgda`_]^cgilppme[V]dir|xpnlecfiknplf`YTSSPMJGEDCEMYepndXJ=:;;@KZgpqfXJ@<98878==<?CGKMKHGGIMOPTZ_`aba^ZUPICBFILOPMMS\fpw}Ä{xricfmifbWH?879<IW_bhhb]\ZW[`fnwÄáÖ{m^PKLQQPJC=;=DRalrri\UTVXWQKC<;AHPV_ehfge]VRMLQW[\YRJEFKRX]_^YURRSZ]\[[\^`_XNGFLRTURKHJKOQRQSXY[^bcdeeaYRH>9<ERcoqstsrx{yvrlffklnuxupkd^]]]\XSSSTVYZZ[[[[]`fihc]URUY\bhgfhd^dmrutlfabgkiffhmwÄ|xqmlnqtx}ÅÑáàÖáàáÑÉÉÅÄÄÅÄÅÜäãà}rg`^`acfeaaba__^YVZ`ehhd_[ZZ[]cjsvwuttpldceeda]XZagmrrprswÅâÜÄ}vlig`XTSRS\dfggcbehkrv{Ä|}Ä}|yuvwwslb[X\^^dhflpfYQMMS]_]_diqrnkigecba`dimmmmke^VRY`epzwpoldcgijnpmg`XSRSQNIC?=<@IVbondUH;9;@HUcoxuhXH;5333446668<AEFDBBBFJMNQW[\\[\[ZTOHA>EHILLHGNWalsy|~|{xrnqxtpi\I=67:?MZbehhd_^\XZ_foxÅÉ|paSIHLOOLE>:;?IVckmh]RLLOSSPMIDDKPW^fjifge_]\XY_acd_WPLMSY^bb]WSNNRY[[XTUY^^YPHHPUVVPHEHJMOQPRXY[^bcegfb[RG=9;DRcpuwvtquwurng``efju|zune]ZZ[YTOOORVZ[[ZZYXY[_dec_[Z_bglpmjhaZ`gmrqkgeglnliimr{ÅÄztmhghjkmprtx{{ÄÉÉÇÇÇÅÄÅÅÄÖââÜ|qf^\^_add``aa^][WTY`dffb^]^^adjqyzzuvsnibabb`^YVW_gnsrmlloxÇÄ}{uljje]XVTV_fgfe`agjovy}ÅÇÅÅ|ywspppquxzulbZV[_`fifkpf[VSPS]`^dmqusmifghgfffjprolic]WRNTY_kuusqmedfhgjnlgb\WUUQNHB>==BKXersgXJ><AIQ]iqvseUF:33589997569=@@>=?CHOSTUXZYXVVXWQME=;DIKMNIHNU]flswzz{{xvzÅ}zrdPB;:<ALW^aeijihe`^ahpx~}sfWKDFJKIF@::>DNZbfd]TLHILOPOQOLKQV]dkmiegebfhehkhghc[UST[adeb[TOKLSY[YSMLS[]ZSLMUYXWOEBEFHKNOQYZ[^cegihc[QF;89AOaow{{wsuurokc]\adiv~yqg^[Y[ZUPPPQVZ\\[\[YY[^ceeb_`einpsplh`Y\aglmihgimnkijov|Ä~umgb`addfiiloru{ÄÄÄÄÄÄÄÅÖàÜÅwlb[X[\]_a^^aa^[YTQU\`cda_bfgknqw}xtpke_]]^]ZWUU\emqpkhfhr|}|zvnlpmd_\WYchhfc^`gkpwz}ÅÇÅysmfbcglty}xncZUZ_afgehmf]ZXQQZ^_ivzwqjebfjhhjlqwvqkd\URPMRW]hrvvtngdfhfgijfeb_[XSNHB?@AFP]lxym^ODBHOXclsvrfVH<67=EIHE>8579;:77:?GPWZ\]^ZWTUWWOJB99DJLOPKLRW]bfkqtvxzyyÄàÑÇ|o\NEBADKQVY^hpttpibbirx{vj]OEBFHGD@:9<CKT\_^YRKGFGJLNOSTQOTX^flkebdbblpostnjje]YYZ`dfd_WQLIMV\]YQHFMW[ZVPPVXVSKA=?ABGLNR[^^aeghiie]TH<9:?M^lv}~xtutqnjb[Z_civ}xoe]YVWYWSTTTVY\[Y\[YY[]aegdceilpqqnje^[\`ekjghiknnkhhlt|~|sib^\^badghilosy}~~}|{z{}}ÇÉÄ|qh^WTWXZ\][[]_[XVRPSY]`caahpqw{|~ÉÅ}wnke_ZWVXXVUSR[fossnhdfoy|{{xpptrhb]Y\ehfc_\_ehmrw{ÄÇÇÄyof]Y]dku}ÄxmbWOU\^bdcekga_]URZ`dp}~ukc^[_edejntxunh_VQQRPSX\fpvwvpieghdcegedec_[UPKFFHJOXcr||paQHFKR[ckrvuk_QE?AJT\ZSH>76786337<FOW\_`a]YVVYXPIA88DKLOQMOUZ[\]aeilnsuw~ÖÑÇ}tg[TPKJLLMQXet~yoeaenuumcWIBBEEDA=:<CKRY\ZVPKGFFGIKMPUVRORVZahf__`^amrtzzrmkf_]^^cfd_XNIFGOY^]WMC?EOUWVRRVWURH>:;<?FNRYabacdffgif_WLA><=IYfr{|vrqpnmhaZX]aht}zumc[WRSWXWYZXUWYXV[\[Z\]^beccgjlomkjgb_^`cgkihjloqnifekt}{qe_\[_dcehghknrx}}}|ywvwz{}|xoe\TPSVWXYXWXZXTQPPSZ^adbcmwyÑÉÇÑÄ{sifb]YUTTUTUTT]hpssnidfnx|||ysuzxnf^Z]egfecchosvx{|ÄÄ~wlaZX]foxÄÅwl`SJPX\_bbciifeaWT\emzÉ~qe]XW]ccfjnsvqjcZRPSUSTW\eovwvpkhhhc_`bbcee`ZVTRRUXZ^dmx}{n`QJHLQW^ekqrog^UPS\iqndVG<99:868=BJSZ]`ab^\ZZ\[RJB::ELKNRPSZ\ZYWY]afhosw|ÉÉÇyoe`ZTPKECHSdvÉÑ{pgacmsph`TGABDCAA@BGNTXYXTNJGFGFHIKLOTUQNQRT[a]Y[\Zalsx}zqiea^^_`cc_WOFFGMX__ZQF>:>GPTTSTUUTRI?;;;@LV[bfedcbeefigc^TKHB@HUanyztqponmhb[Y^bhs|ytlc[VONUY\ad^XVVUTY^_^a`_`b``dgilieec`_bdgjljiklpsnhdcgqz|xma[Z\agffihhlorx|||zwttvxy{}|zwncYRNQSUUUUSSUTPNNPT[`bfddoz~ÉâáÑÑxoba_ZXURPPQTUXajqrrnhbcku{|}{wx|zpg^[^ceeddhpyÅÄÅÄÄÄ|th]WV^hr|ÇÅwk^PFKTX[_`ahlljdYW^htÄÑzk]WTV]eegjmqsnf_XTUXYUSU[eovwvsokjhb\Y[\]ab]YXY\`dfgjnt{{ui[NIGGIMRY`fjkhebbfo|ÑÄteREBBBA?AGIOW\^aaa___bcaXNF?=GLKMSPT[]YVRPTX^ckpt{ÉÑÇyqkhb[ULC@FSexÖÑyogbdmrld\OD@ABBDFHOUZ\\WTNIFGIKMNONMPUVQOPOOV[WUXWV^how{vmc[YZ[]^^YRJB>FMWbe_XND=98@JQRSTRPQQLC@?@GU]agfcba_abdhgec\VSKDGQ\kwytqnmmlhb\Z`dir|zumcZSKJPX_gmg\VSQS[beegd`^`^^dfhje``^]_ejlonkjlmqsnfb_bmw{wk_Z[]chhhkijmprvzz{yvuvwz{{{zxvndZSNNPPPPQOPQRNMMQW]befdclw|ÅááÑÇ}um\]]ZZWRLLNSYakqtsplf_^frx|ÄyxzwlaYY[_`b_`eltz||~~~~{vmaVRQ[gr}ÇÄtgYLBENTV\_`hnold[Z`kw}{o`URRV^ddehjnoib^[Z^a_XRSYbkstttqnmibYTTUW[\Z\^bhmnmmosvzwpdXLGB?>AEMW^cgggjns|âèâ}o\PMMNNLMQOQVYZ_cddeegihbZRIDJMJMUSW]^XTLHHNW^hotyÇÑÄ|vmihd_[SJHNYhvÄ}skgcemph`YMDBEGIMRU]cdb_YSMHGIMQSUTQORUUPNNLLRTPRUST\bjtuph]UVXY[ZTME=9=KVaih`YPGA;7<GNPQQMIJNLGEGJS`ffgc]][XZ]`effgc`\TIHNYgtwtqnlljfa[Y`dhq{zune[TMIMV_iqm_UONPYbghihb`b``fhije____dkpqsqmloptvpf`]`jw{vl`[]`fkkknmloqrvzxyxtsuvxxxwuuupjaYROMNNMNLLNOMLMRY`dffc`fpuyÄÉÅ~ztmXZ[Y[YQIHJR\isxvrlhaYX`mu{ÇÅyvtmbXQTXZ[^[Z_ekprswy{{wpfZPLMWeq{Ä{obTH>?HORY]`hotqjbchpxzsfYQRU\dihhhilmgbbccghbVPPW`iprsuusrkcZSPPSX[^ekqxzxustvyysj_SHB>968<DNUZ_cehnt{àéàÄtcYYZ[[Z\^[YZWTZbgkmljlmid_UNPPLPYWZ]\SNE@>EOXblsyÇÖÄxpfbba`a\VUX_iswskffdfklb[ULHJNQTY]bknlie_YRMKLRWY[YSRUXWSPOLJNMKORQV^bjqpjbXSWY[^\RH@74?Q_jnkb[SMHA<>EKLMNKEFKNLNSYcnpmi_YWTQTX]cdfhhgd[PKLWdputsnkjgb_YX_cgoz|xrj`YRMMT\hpnaTKJOYcjjmmgcedcgiigc^`bdjquttqnmpquxsga_bkwzukb^`bhlnmpqpsuvwzwwuqqstwwuspqsqng^VRONPONKJKMMNNT[cghfc_`inry~}|xto\]_]]\SJINXfs{{ume`[SR[jt}ÑÉyrmeZQLQTUWYUTW\`dgjpsvvri_TKIKTbox{vl`RH??FOT[`djrzyrmmnsxul`VRW]emrqomlmmifhjkmh]PLPZclqrsuvvtnf\TPRX`hpzÇáâáÄyuvxywph_TIB;7457=GNSZ``bgkrÅÖÇ}se`ceghhilieb\X\fnuxwqoonkiaXXVQT\[\[XOH@<<BMW`iqvÄÖÄxqfa`__cb``bdimlhcaeehlj`YTONSX\_bfksuromhaZTOOV\_`]UUZ\ZVRNKIKIIMORYafmplcYPOV\`d`SG=56DXenokd^YSNF@>AFIJLJCAGNRYcktzxqi]VTPMRW\bcehjjh`UNMWbnsutpkiea\XW^cfnz}{unc\XSPT[foncUIHOZdllnpkghfdhhfda^bfiotvtsqmmqsuxujeegnyzsjc`bejlmmpssw{|{|xvsoorsuvsomlmmlh`YTPPSSRONNNOOOU\dijgd_]chlryyyurn^^`][ZRLLT`oy}zqh`[TMKUdp|ÑÇvkd\SMKQRPOPHEGKORV]emsupfZOHGJS_ktvrjaULEEKTZ`dhkr{{ursprsmd\VW^fmsusponnnllorpmcWLKS^gpsrsuvusng]URU\enxÉãèéàwsvxzxskcYOGA><;:=DIOV[YXZ]euzywna^cfilmnpokgc]`jt}ÇÇzvsqonha_[VV[ZZXTKC><<DPW]ckp{ÉÅ{vkca\\bdfjjgggd_]^bbejg_[XUX]befghlrutuvtlcZQPY_bc^UX]^YUQLIJJGGLPU^glqog[PJOY`fg`PD;6:J[fllieb]WPG@;<@EFHG@<CNWer|ÇÉwl`YUQOTY]bacgjkje]VSZclqvvsmid^YUU]beny|zumc^\ZUW[emmdWLKQ\dijkmifgedhfcb``ejmrwxvvrnnrrtvtkikmrzyqjdacfiiijmquzÄÇ~}xtpmmoorsokheehjhc\VQQUWVUUSQQRS[bionigc_behlsvwsqmdbb^ZWTSWbny||vlb[UOIHQamyÅrf^VPNMRQMLJA>>AEHLU_hqtof\TPORW^goqoibWPLOU^cgilns|}xwvrqng^XVZclrttqmlkkmoqttnf[QKP\elstpopqqoke[SQT[enxÅáâÜÄzutz~Å{slbXRLIIFA@FINVZURTV_nrroeXUY]aejlnomifcdmyÇàäÑÄ{xtqjc_[XWZYXWSJB??@JUZ\_djuÄÇÄ|shc\Zafjongc`\XXZ]]bhgcba`chjligfhosuz|tj]RQ[_`a\VZ_]VROLKLJEFLQYdlsunbUHFQ^dhg\LB;9@N[cghgfb]TLD>97:@CEE?;DR_o}ÖÜÑyrhc]VSVZ]`_`eikkje_Z_diowzvpjc[WRS[aeox{xskb_`_]]^fmng^USX`fiiijgeeddgd`]^`fmquy{yxsooqqqtsmmqrw|xpjdadhjhgfhot|ÑÜÅ}wpliiijmolhd^^aehhb\VUVYZYZXVUVZcksywqniddegiorspmjjge_YXY^eq{{vmcZUPKHHP_kt{xlb[VRQOROKJG>>?DJNRZaiqrnf`\[[^]^cijjhbXRPV[ekmmqqt}{zwrnic\Y[bltyxuokhghlqrroeZRNOZgnswtljkmnnkbWPNRZcksx|}xsporzÅáàÑ}vlc]XUTPIFJNPVYRMMOYhlmj^PKMQW\aegjjhgfelwÅâèåâÑ~wqha]ZXWXWUTRKDDFJT\^\Z^dp}ÇÉÅyng]Zafkok`ZVSRSVYZ_giijihjlnmiedgnsw~Évl_SR[^_a\VY]ZTQPMLLGBEKS^hqwvk_RGJWafhcUG@<<DPZafggd^WNG@;635=BEFCBKZizÑÜÉÄ~~}wqh^XY[\]\^ciknppicdehnw|yrkaYTPRZ`epxzwqf^\]___`goqnha_chkjhgea_^^_c`[YZ]binswzywrmmoonopmoruy|unhc`dhjhebdkr}áàÉ~wnjggfgkmjgbZWZ^eie`[WUZ^_`^ZXY^gr{ÅÇ}xrjgffglpqmidrolg]\bjtÅàÖzqe[TQMKJLR^gmrqjc^ZWSPQMJHE>BEMV[_fkosrmfddeef`Z[`bfhcZUSZ`jrssvuv}}xurmjd_[Z^hrwyumeb``bhmnjcYPLPXequwxriffilmi_QJINU\begjkgecdis~àçåàÅwoida_[SOQTVYXRLJMVbegdZMHGKQV[_adefgecgpyÉåçéäÑ}tib\YYWUTRSSOLNQXaec]VV]iwÄÑÉ|rj^ZagjmhZPMLMPSVY_jprssommljeccgouyÄÉxobYX^__`[UWYUQPPNMKEBELVaku{vk_QIP]cecYI>::>HRY`egeb[UPJD>845>EIKLNWftÄÑÇ}|~ÖâÜ}rf_^aaa^`djmquxqkjjjpy}ztk`XSORZ`frxyum`XUW\_adltxxuplmomhfd_[YWW[_]YXY[_eimquvtommnnllllosvz{tnha_dikjfabjq}âäÖÄyoljheeimkje[VVYahe`[TQX_cfe^[\ajt}ÉÖÇÄ{tnjffimokgbyvsmaair}àåÑvj^TNMKKLNQY_cgjifc`\UQPMKJGELQZejmrtuuqjefkmlj`USY^ejg^XV\akrtsvtsuupljhe_[YZ_ksuum`XWWY^ejf^VOILT`lsssrjc`chkmi[KDBEILMMMOQPQSV\gr~áåãâÇ{vpkgb[WXZ[YVQLJNW`aa_UJFEIMQUXY\_adc_afmwÅÖââÖÄxne]YWTRQORTTTX\cjjd[QNUbp{ÇÅzpfZXahjkdTHFGIMPSW`muxzwpmkgeabchpvyÅ}xqg`_cb`^WRUUQNONMMKFDIPYcmvztk_TQYbeaYK<449AKTZbgige_\YVQKD>=CIMPU\eq}ÉÅ}yzÅãíèÜznfdghgefhnqu{Äztqnlqy|ytk`XTPR[biuzytk\TQTY^biry~Äzvtrkdb`ZVTQRW\[YXY[^cgjmrrpmmmonllllpruyxqlf`^dhigc^_go{àäÑÄypmlhddfikkg_ZY[cjhbZPKS]diha]^cmw|ÄÇÅÅÄ}vpifgmnkhb~{xqghpwÅääÄrfYNIIIJMOPVY\agjjhfaXRPLMOPS\`hrvvyzwrmgbfnqok^RQZclrof]X[_gnprvussrlheea\YXZ`kqqnfYRRSV[ad]UOKJR]irtqplc][_eknk[JA<;>@@?>>??@BEKUanzÉàãâÑxphb]Z\``[UNIHLW^]\ZQJHHKOPPRSVY]`^Z[]ahpu}ÅÅÅ}ujbZVQOONRVZ\afloldYNJR]kv}{vne\[bjki`ODBEIMORXcpwxxumifdaaehmtxy}~|ytmjgge`\VRTUNNOMKLKILSY`hntwska\[afe]RE936=ENW_ioqppiffe_YRKFGKQV`ks|ÉÇ{vtvÄãíèÖxlcafjllmmpsw~É}wromrxyupi`[XTU\ckw|zthZSPQV\ajt{ÄÖÑ{xria_]XUSPPUYYYYYY\aegjnljjlmoppopqssuxvpke_]befeaZ\dlxÜâÑwomkgbbdfjmjea_^ekic[PJR]ejha]]bjquwy|ÅÅ|vnjknolhc~{ysijpv~ÜÖ{ocVKEEEHLNPUVY^fkmkjcWQNKNTX_gkqxxwxwunic^blnkg\ST^hrwtkaXXZaglpsqponiebc^YYY[alpmh`SNPTW]a`WPMMQZdnrpljd[XX^fnsp^MB:79;;;:997767:AKYiuÄáãâÜÄuia\Y[aaZRJB>CMTUTSLHIKNRRQQRUWY\XTTUVZ^bkrx~zri_WOLLKNU\ahnttoeZOJP\gqwuojc^^ellg\LBAEJOPU]grusqngeca_`flry}~ÄÄ{xusmje_[VRUUOPSOLNMNU\_dhmprojcbeigcYND;8;AIQZcouyz|ustslg_VOKMT\hv}ÇÑ}tnnsåëãpcZY_fjllkorw~Ö~yuqosvuqmga`]YY_eny}zsgZSQRVZ^itzÅáÖÄ{vncZXXVTSPORWYZZZZ\bcbcecbekmprsqqpqpsvuoib\Z^aca^WZahuÉáÇ~wokgc`_`diomkhd`eigb[QNVaimja\Z^dhkkmt|ÇàÜupnppnic{xrhhmqzÅÄynaTICDEILOQTTW_glnljcXRPOSYajoqvwtqqqpkga]aikie]X\fpwzxrg^[[^chmpmmjjfb`a[XZ[^bkke^WLJQW\bb`XRQTY`hnnhdaZTTW_hqup^LA946898987531//2;HWgtÜââá|nd\WW]]WNF=9<FLMLKEDHMQUWXVYZXWZUONMLLMNV`iu}~xpdYMIIHLT]cltyxrj`TNS]enroiebaafmkbXKCDIOTV[clrojigccc`]^fmu}ÇÅÇÇÄ}zyvpmha^XUXXSUVRNOQU\bdehmnnmkggjic\TLF@=?DMV`hty~ÄÉ~~|tng]UOPV`n|ÇÑÅvkhksÅåéÖueZTU\cghgfjot|É~{xuuvvrnidaca^_dhqz{wrh_[ZZ\^bltzÅÜÉ~ysj]TTTSUURQTXZ\\\\`efb`_\[ajpvyzvspqpsutoia[XZ]_\XSW]eqÉ{tlhc_]\]agoponjcege`[TV_jsumc\Z^abb``huÄãçÜzsoonmhayurmeehnx~}yn`SHBEHNRTUWUYagkljhc[WWVW]goqsuqjfghhed^[`gjhfa`eox|}{vnfc`__ejljjhheb__ZXZ]`chf^WQIKS\`eeb[WV[_chkg`[XRNQW`hnpjYJA9568999765320/05>KXdoyÖáÄsg]TSVVQJA96:DKKGE=<AFJPUXX]_[XZUMIFCA?@HR]lx|xrfYMIIHLU]bltyyvph\WY_eknlfcbabfmkcYOJKOTZ^ckqqha_^_ac`^_gnu~ÇÄ~{vuusnnica\Y\]Z\\VQQTX`ggfimmnpqmlid[VRPMHEFLV`ipy}ÅÑàÉÅ}xnic\TOQXcr~ÅykbbhrÇäá{jZSPRW]_`]^dkpyÇ|zwwwuqkd``cdegknw||vrkdbddcbfntyÄÉÄ|vri]TSSSVXVVY\^_^\\agjfdb^\bkrxzzvroportsmf_YVVZ[VROSYan||xpic^]\ZZ]cmqsuphhigb_\blw~}sf^Z\]__[\er~âãÉxqmnmke`qnlhdcfku{|ynaSHDHMU[]^^YZaefgedb^\][Z`joqqog^Z]`bbb][`giigeflu{~}zvohea]\ahkjjgfd`\\XW[`cdfbYRNIMU\^b`^ZXY]`bfhd\VSNOT]dilkbTJB<8;====944433459@HQX`hpyxnbVQPMIB;449DKLGA858<?GPVYaea\[UKD>:657AKXfrurmcWLIIJPW_dlt{|{wpgbacfhifc``abgkjc\TQRTX_chptobYVW\bfdbdjpw~Ä}{xsnnomlnjeea\\^\]\WQPTYajkjmpnptuqle\TRSVTROQVaipty}ÅÉÜÄzsk`ZWSNNS\hvzpaY\cpÜÄsaRLLMRVUSQRZcku}|{ywwxurlc^^adglorz|xroieehigfiorv|Ä|zvtmaYVTUY\[]befea^]`gjgec_^clrxywpljlmrtrle]YVVZ[UPNQW_kx|zwng`[\\YXZ`kptxtkjkhffjq|ÖàÉwi_[[Z[[Z]huáÜ~snlmpnjfmjheaachpwyxmaTIGLQ]defe\Z_a_`_]]^^^]\`hllkf[SPUZ_``\[agjjjhipvxwvsojgd_[[agihfcb`]ZYUU[accc^UNLIMTYZ]ZXVUUY[\ae`ZUPLPYdjlkf[NGB>>CECA>722457:=AGMPRUX^hrxxti\RMF@;404;ENMF?50146=JT[djf`[RG>730/3>JXfnnke^UNMNQU[`dipy|}{wnifeefeb^\\^afhga\VVXYZagmwzqbWRT[dkhfimqw|zuqlfcegfhlkggc]ZZYXVQMMRY`ikjmqptxxri^VONRWXXX[`jortvwzzyuph_TNJIIMWbmz{sgXRW`n}Çzm]RNNNPPKHFGQ^gqzz{yxzzwtnd^]_bgnqt{zuomihioolknrsvzzwvtupf^ZVW\``dillic_^ailjfebaenswxriddgkrurlf^ZZ\`aZSPRW^iuyyxqib]\[WVV[fmsxtmllkkowÅäèéÖwi`\ZVXY[bmxÇÜÇ{rmknrqnkheeb_`adkquvmbUKKQVckkli]Z\ZWXWTV[]__^`fhge]QIIOW]__\\ciklmijptttsplihf_\]begea^^\YWUQSZ`a`^YPLKJLRUUWTRQONPRT\`^ZUPLQ\fjjf]RHDCDFKLGA<40269=BEIMONMJIMV`ksvoeYNC;50.4=HPQKB71/./5COYckg`YPD93/,-3@N_mrng_XSPRW[_`cdfkvzzzxqlhdcbaa_\[[]aba]ZVX[[\bjpz}rcXSU]holkmpqtvof`ZUW\_aeiigfaYUUTSPMJMU\clmlqvu{~{sfYPJIOVX[_ektxxvtpnjged]WNEABFP]hr{~vk_QOXbp}~si\TSTSUQHEEEO\emuvywwzzwvnd_^^ahnquzxpkjiimrronrtsvwspqqvule_ZZ_dekprpjb^]ahlkhfddiquwvmc`bejqtpkf_\]`cc]UPRV\grvwxunfb`\VSRXclsyvolllmuÄâèèâ~rg`]ZVX[_gpx~~ytplknspnm_]__^^^`ekqskcWOPUYelkjgZTTQOPOKNV[_bbdjkicWJDEMW[]][[bhjllfflpptvrnmmjcabdefaZXYWVUQNQY^^][UNKLKMPQPPMKIFEFIMW^^]YRPXbijg_VNHGJMPUTLB;3/28>ELPSSQLGA>>DMYfoqlaUH<6107@JRTPH=50,*.:GQ]gg`XOB60-.2<K[kvxpf[UQRX_giiifdhruvvtpmicaa``_\YWX\[ZYWUX[\^djq{}tg]WXamsqqrqoolbYRLKOV[^`ceca\TPRPNMJIOX_fopqvz{Ç~rcUKEGMTZ`fnu}~}wqib[WY[YUNE?BHTbmuzxmaVMNZerzxmdZVUUSUQHFHHQ^hnrsvtuxyvumfdcbcinpu{wohgfgkqpmnruuwtmijmuwqjb\]bfinrroh`\[_ehhgggjotutof][_chpspjf^[^cgfaXQRVZdortwvqkhe_ZWU\govzwojiinxÉàäÖzqjb`_]\`ciptwyuponmmpsqooXWZ[[\\[]cjmhbWRTVWbhfeaVOLHHHFBGPW]dgmrsnfVJDENV[\[YZ`finmeejklruqmlljghkmjh^USUSSSNKOVZZXUQMNSTTTQLIFDA?>?@GRZ]^\TU_gjjd[TPMPVY[_]QE>736=ENX]_]VLE>968?IVclnh]QE=87=ELSUSLB93-*,5BLWcf_WM@4--19EWeszyodYSQT[dmonlhdgnpoomkiga^^]]_\YVUVTQONMRW[`eipy{tkc]\grxvtrpkidYPJFFMTY[Z[^\\XRNOJIJHIS\biqsty||~|paVLFGMT[airw{{yrkbZRQUZZXPE?BJXfqvvrgZQMR]jtwuj`ZWSPMQNHJPOWdmqrqsrruusrlghgefikntywphedeioolmqtttmd_ahsxuoe^^beinpple][\`efdccejqutpkbZY\`empnie^Z]dhhcZQPTXajmqvwsolga]YX_jqvxsjcbekwÄÇ~uib_\^acejouwusqmjmponopnnoPOSVVWXWX^eifaYVXWV]a_^[RJDBBC@?DNV^hntxwoeUJEHOW\]ZY[`flrnffhginplijkkimrsoj]QOPOPQLHLSUTUSPQW\\ZUOHDB@=;;:<CPW[^\WZchfc[SPRS[dijkdVIA;;AIR]glmi^QF<5214;GTaije[QJEBEJMQTUPG>6.+,5CLU`d^VM@4-/5@N_lvyvlaWQQV\gprnlhcfkkiigefe_\\\]`_\WSQNIGEEJPX_dgltvqlhdcmvywtqnif`VMIFHPXZYURSSTURQSNMNKMW_chnprwyyyyvl_WPJJOW^cjrtvusmh^VPRW^^ZPE?CM[hqsni_TNOV`lrrof]YVNIFKKIOYZbmuvtstsrttrplikjhhkknuzytkgffjpolmprrrj^Z\dqywpf_^aekpqojb[[\aeeb_^bipusnha[Y[_bhmlhd\WYafgcZPOSW_hjnsusqnha][Zcmtvtnc[[`fqxvncXSSV[bhnuz~}unkgglpnlljghhIHMQRSUUV[cgea[Y[ZX\_^\YQIB?BCBBHQXalsxzwl_RIFKQX\\YY[`gotpgffcejkhgijihnsvsn^QMPOQQLFJPQQSSSY`da\TKD@?=;:979ALSX[[Y`imhbXNMU]jtzwshZMFDGOYcmuxzvjZM?61-.2:ER^fgd_ZSLKKKNSWULC:1,.5CMS\`\VNB6-1:GVgqwvqg]TORW\enpnmieegfefddff_[Z\_ehe^VOID@?>BIS^cehmnllliiqxzwupmhf`YROLNT\]YRLJJPTWY[VUVTU]`_afinuxvsqog\YTPPU\achnnoomhd\WTW\a_YND@EQ^hmld^WONT[ennljaZXTIB@FKNWacgowwvuusqqqpljjlliiklovz{wnjihjoollprrri]X\dpzzrg`^aensspjb\[]aca]ZY_hputme`[XY[]agheaXRSZ`b_XNMQU]egjnpqpnic`^_ityxtl_UV\blpj_TJHMSZblu|ÅÇ~tlhedgifddca`_EEIMOORUVZaeb_\Z\\Z]``^[TMGEHIHHMT\epwzztgZOHGMRX[[WXY\cmpmec`]_ddaceecbiouvsdVPQQSRMHJOPRUWZ`fgbZPE=::999868BLQUXXYesxrh\RSao~ááÄxlaWRRX_hpw}ÄÑÇwfWH<4/-.19DP^fkmjaVOKIKQWVPG?724;GPTZ^\WQG;26AO^lrrmh_XRPTY\bhjjkheecaaa_add`ZXZ^djkcZRKC?<<=COZ`acfhhkmljqwxwuqlfc^XTRPQV__YQHDFPY`cb\[\]^`\VUZajrurkhgaZ[ZZ[_fgddheeec`_[ZZ_beaXMC?DQ^fhdZSNLOXahmjge]WWQE?@HOU\cbdksvxwvtpnnmjijkkhikmqwz{zrppmmppmnqssrj^Z^eq{|ujb`bfpusnib]\_acb^YX_irvumda^ZXZZ]dgb]TNNV]a_XOMQT\defjjlnmheb`bluzwpgZQSZ`ijaWLDELS[eq{ÄÑÇ{pkgda`_\[[\\\\CCFJNOTWX[bca_\[]^^bfgfb\VOMOOMMRW^fqwxum^QHCELPVZXUWWYajnlfc]WX[YWYYWTT\frxxk\RQQSROKNTWZ^`bgjh_TI=6589;<;8:DLNPSTZj{Äxk_W]nÅëïëâÄrjc^^emsx~ÉÜããÄqaRF<4/..1:FWft}}rbULGHOUVRLE?;<@HORVZZVQKA8;FQ^jnlhc]XTTW[Z]abcfdcb^[ZYX[_a_[WZ_elqj_WRIEA?=?ISXYZ^adjnnntxzxwsmgc^YUTRQV`bZSHBER`jkic`befbZRNT]iqsld`_\[_bfhjomfcc\YWUUZ\`dijkdXJA;AQ]ba[OHILR]hlle`_XUVQFBFNV[_b^^ckrvwvsnklkhhiiiggkmquvxxtrspnopmnqrrpja_djt|}wmebehqvtnjc]\_`cda\\cluzyqgb`\YZZ]ce`YOIJQZ_]WNLOT\defggjmlhga]_ipvtmcWPT\bhf\RHACLSZer{}~wmjgc^ZXVVXYZ[YABDHMQVZZ\``^][[^`bgloomg_WSTUTVX[_emsrlaRE>=CKOVYXVXWX^gkkhd[TTURRSRNIFMXiu{rdWTSUWXX\begijjkiaSG=537?DGFD??HNMNPR^pÅÖ|nc_gzçôòîãÅsmfablrv{ÉáççÑwj[PE;40-.5AUk}äål[PJJQWYXSMF@?AELOSVYVSPHAENVbkmlifc`]\\]XXZ[]`^\[VRQPPTY_`^[]chnuob[XQLHD>;AHLLOSW\empqvzyyzvqmhaZVSQOUae_ZPHJYhrple`cjke]TNT^gnphb]\[]bfmqrvrg`\SNJKOX_glonneWJA:APZZWPEAGPZdnoh^YXTSVRIHLRX[[[VUZdmuvurmkljhggiifhklnqpqsstwuponklnqqojdchnt{{unigjmtxuojc^\]^bed`ahr|Åvjdb_\_^`de^VMGHNX^\WPOQV^egfffjmljh_Z]flsrjaXSX_ehdZPFACLT\frzxxwsjjhc\XVVXZ[[[Y?@BELQWZZZ\[[[YY\`cjqtwwqha]]^^^]\^chlleZM@89@HNUXWVXXW[cgjjh^VRPMNPNIB>BM_p{xm`ZY]bilpqrsqolh`UI@<:=ENSUSMFFLPOQSXfwáàtljtÖîõïèÜznjc^blqtx{}ÅààÉzqfZOD:3./6DYoÅããn`VPPU\``]XND@>?DIMPUTSSQOS\ahmnmlllifda]VTTSWZWURLGFDEKRY^_]_dhltqd]^YTPKA9:?CDGLOV`inqvxyz~{xupf]VOKIQ]ecbZTVdrxsja[aknjcYQU^fkmifca`bdenrsvreZRHC@CKWalppnndXND=CRYVRJB@JWcmurfXSRPRWUNNSUWXWURRW`luutqlkkigfgjkijkkkkihlptzzupmjknqrnlgfkptyyuqmmpquwrmhb^\[]adffhnyÉÜÉzmecdcfhjlkd\SNMQX^[WSQRX_ehhghmomlj`[^ejqpg`ZV\chgaVLD?CLU]gsytssmegd^XUTVY[[[[Z>@ADMQUWWVWVXYWW\`ckruz|wmgdbaa`[Y[adhicYNC;;@FKSVWWYZXZ`cfii`XRMHJLJE>9=GZm|~wkedhpy}~~|{uoh`VNHEEFJPW[\YSLLQTTVX^m|áÖ}toq~çïïçÜ~tli`]_hkoqssv{{yvrkcWLA946@Oar}Åwlc\VUYafff`THC=9<BGLRSTWZ[_ehknooqrsrokd\SPNMPRNLJD?<9:@HQX]]]bdfnod`c`ZVPC748<>BHJPZejpvyy|Ä~{yqfZPIGHQ_hhhc_amxzpe\W_lqni`X[bhknlkigffdblqrtpaSI>:9?KXdnqnnne[SH?DSZXTNFFQ^irwn_QLLOU\ZTTUSRRQRSV[cmstrplkigfdekljkljhfb`emt{}yrmjjlproonmpttvvtsqqsrtupljfb^[\_dhkns}àãáÄsieilorwwwqib[VUY\ZWUSTX`fiighnommka\`egnmd_\Y^efb[QHBAENX`juzsrpjbd`ZVTUWZ[ZZ]]BCCDLQTUUSSRWYYZ_bdkrtzzohea__^WTV[_bebZRJCBEHKQUVX\]\^bcehhbZSLGIKID=7<FWk}ÇÄyusu{ÇÖÖÑÇ~ulc[TPOMMMPU[__\VPQTXZ]`iuÑ~uoovÇåéäÇ}wqjd[WX^bfilklmklnomh_TIA>CO]irtqpnjhd^[^gkkjdWLE=66<BHNTUZaehlllmnqtwyyvpf\SPNKKLGED?:6128AJR[^`cfemohdiha\UE5038;@EGLXdjrwxwz~|yvmaWPLNRYdkjiggiqyxkaYU]innlf_bkprusrpljha^gmnpm^OD;78?N\hprmmmf^VKBHV]\ZUNOZeowvi[LFJPXa^XUQKILPV]aeiorsrpmlhfdbcjlkmlhda]Z_hqx~{unjgfkrqtustvuuurrqststtpnolga[Y\binquäçàÇuidkosxÄ~{vog^YXZYWXVVY`fiigjoolmja]begmkc_]Z^db\UKCABHQZakuzsrrkfgb]XVWZ[[X[^_JIGFKORRSRQRX]^aggfjopv{oif`]_\SMNTW[``[XUONMLLQUY]becdfcadea]WNHJMLG@8;EVi{ÑÜÖÖÇÅÇÜÜÖÇÄzqib\VUTQPOQUZ^_\VRUY_dhksz~~wqnqxÅÖÇ|xtoje^VSSVY_cedb_\_ekmke\RLLS]gkjd^`chmmfcdlnlhcULHA:8>DJQWX]floqqnllpsvzyupf]VTPLJHB?>;730039AJT\`dhgjnljnqjbXG5-17;@EFKYfmrutqsusokbZTQQW]bhljhhkmqvtg\UQYbhkmhcgqvy~}{wrlg^[chikhZNF>:=ETbnutnmle_WMFLX_a`]WZcksytfXIEJT`je\UJ@AHS_joporrrqplkgddacikkmkfb^ZW[dnw}|wnidekuw{{xvvuvustsuvuutqqsrng_[\agmnp{áâÑÄtfbjptyÄ}zvnd\YXZZ]][]chjjhjmkhie_afhjmia^]Y]b]UNE>AELT\bkuxttrmjid_ZWXYYWVZ^aNLIHKNPRTTUX_dgkpojmoot{qmkb]^XMHHMQTZ]\]`][WSOQVZ`fjikjc^_^^^YQKOPOLD9;ESdwÉâéèäÖÅÅ|yvrlfd_ZWVROMMOQRSROOV]emsv{}}{vrsv{ÅÅ{urnhebZSQOOS[_a^ZTQU]ejmjd]Y\cilh]TPU^ippjghnmhc]PKJF@=DJOTZZ]hopqrmikoqrttqmf`ZYUOKG?;;97622249BNY`eijinqqv|vl^K8.18=AFHO]jorqnkmmlf`YTQT[chhiifbcgjlnmaVONT\bgifdit{ÑÉyrkd[V]bbcaXPLGEGN\isywomkb\UNHNZdhjhbchmszvi[MILWfqj^RC9>K[kwzxsrpqoomkecbabgijlkhc^ZUXakt{|wnhcdmy~ÇÉ}zvuvvtvuvvtstqswwrkd^]aehghsÄÉÅugbhmou{}|{zwoe\XY\^aa^^cghgegiecb^\bghjkf`^\X[^WNG?=DLU]bektvuvuqpmfbZUTTRQSX\`POKJMORVYY[]bfjnqoknoou~{splaZXQIDDJNPUXY^fiibZSSV[djljkh_YVUW\[URVUSOG:<GTdwÑãêíãÅzuqnlkjjjkic]WNHCAAAACEEIV`lv|~{yxutvy|~|vqojea^UQPMLS\`b^WNIKT\elnkhhmstodWOQYclqpkjjlhaZTMKLKFCHNQV[[\glkklhgjnpopqpplhc`[UNG>878<?>=;8;CO[cgkllpuw|ÑÉyiUA56<@EKOXfqssojgggg^UPLMVcmqmkha\[`deff\OJKQX`gjiinx~ÅÇ~wohc^XU[_]\[URROOSVbmv{yqpla[UPLS_iouqjijkqywl`TPS_q{seUC;CSds}|voljmlnolgdb`bfhjkkid_[UW_iqzzunhcdnzÅÜàÉ}wvvutvuttrqrqsxyvpjedefecbm{ÅÇvhabefjpstvvunc[XZ_aefdbgjhcacc^]\WW_efhhb]\YTWYRJD>@LWaghgkruvxxuuqjcZSQPNNRW[_SQNMNPUZ]]^^`bfikjilmntzxtrj^VSLGDCHLMQSS[gnqkaWTV]flligc[SOLQX\Z[^[WRH::EScuÇâçåÉwngdcbdhjntqh^RD<64568:=>ETbq|ÉÉÄzwwwx|~~|xurkd^XPNNLNWahjh^QIJPXcmqqqsx{vk_USZcioqmkkjhb\TOKKLLIFJORUZZ[dihhjhgknmjkmortrlibZRJ@979@GIIEABIUbinstrty{ÅãéàxcN@=AEKRWamsspjdaabcZPKHKXhqsmhb]YW[`a``VJDFMV`ionnpvyyvqia\YXUV\]ZVSNPSRSXZcmuz|xwqc[URRYdmsxslkjiqzzpf\WZj}Ñ|n[IFP^mz{tlffhhlomhecbehkmkkhd`^Y[bipvvrlfcdnyÇÜàÑ~wvwvuvsrrqpppquvuromlkif`]huz}~qb[YZ[_chlpqrmd^]`eimpmillf_]^\XVTPS]bcdc]YXURTVPIC@ER_hkhfjorwz{zyriaWRPNLMSY]aROLKLOU]aa`^\[^`badjmotvsqoh^VRKHFEJMNPQOVblqmcYTV_hkjd^YRKGGMV\^ad_YRG87BQar~ÇÇvmfba``chjqxrfZL>74233458;CTdsÜÑ}xx{}ÅÖÉ|zwvsjaYQKKLMR]iqurgYNLPYepvxyz}{qf^Y]hppqpmlonhaYRMKJJJHFJNPSWWX`efgjjimnjfgjntxwqlf]UNE<8<EMSVRNNT^jpv|}yz|~ÑèïíÑq^PJKNSX^forqkd`^]ac[SOMO[iomga\YWUX]]Z[SGAENWdpuroljjhd`ZURRRRSYZVQNHJNNRY\cls{Ä~wg[UUW]gotyrmkigr{~vlc^duÜåÑveVT\ht}yrhbbdekpnkhdehknokkiedebdilpspmiedflv~ÇÖÉ}vvvuttqppoonoorrtrttspkd\Xdpuyyj[TQPQVZahnqtrkgehlotvsnokc[YYVRQNJOZ``a_ZWXWVYZTNHFMZfmmhfinrz}~|xndYQNMLKNTY]aMJHGILR[``_[UQRSTU]glsxupole^XSNLKINPRUUQV`gmkcYST]dfd]TLGB@CJRZ_cfaYPC65@P`pzzwrkgedecacefkqmcZOD@<9852249DTetÑÅzwzÇÜáÉ|zzxxtj_TJFFINWes{|wk[PNQZhsy}~}xndabkvyuroklpoh`XSOOOMJHEFILNQQRZacglmoroiefipvzxqjd[TOHB?CKU^b_\\airu{ÄÅ~~}Öêóòé~m`WRRV\ckqqmg`]]]chb\XUT^gkha[XUUTW[]XVPE@FR^kwzslb[WSNKIHIKKLLRTRNICBEFLW[aioyÄÅÉ{i[UVZalsv{snkigs}Äzsjgnãéázk`ahpzÅÄxqg`acdkqpnkghjmpqlkighjhjlmnokjgcdeiovz~~{tssqppmkkjklnnoppptvurld[YdosvtdTMIHJPU]gotxvpljkorvxuqoh_WUUROMIGMX^]\[WVY[\_^YTPPVckomgeglr{Å}vk_SMKJIJNSX]`LIFCDGNY_`_YOJGFFIUairwrmlhb^XSPONNSVY]]WZ`dgh`WRT\cd`WKA<;=DMTZ^ce`WM>23@Qbpvsmighijkifffachgb^WPLHDA<657>IYhvÇ}xwz~ÅÖÑ~yy{{{sgZNDBEJTap|ÉÄxjZPPT^luzÄ~{tlghlt{zsolilonha\YX[\ZVRKGFFHMNQZadjnprtohfgjpwyvoh_WOLHFFMWakomjjmsxzÜááÜÉÇÖçìñìâ{ocZX]bjpspkc^\[\diea^ZX_egc\VTSTUY]^YUQIFN[fqyxodXMGA<<=@FIIIHMPPKE<;=?GSY^ektÉÜl]WY_hqxy|tqommy{vpq|äêèá{ojlrx~ÇÄyqicdfgmrrqnkkknqqmlkkmppqpnmkfgfcdfgkruy{xrqrnnmjhiijknnooonrtuqng^\irstnZIC@?CKR[hqwyxqmllpuzzxtoe\TRQPMMJKQZ_\YXUTZ^`dd^[XY^hmmidcgls}ÅÇ{qf[NJIHGINSX^aNID??BIT[]]XQMJHFHR^fptnhgc`]ZVSRQQVZ_dd]^_^`aZSORY`b^TG<69@LX^bbdd_WL<14AScnpkfdfjnqrolje\Z]`bec^ZTPKE?>@GR_kv}}yuw{}ÄÉÄzwy{{xnaSF>?DLYivÄÉ}seVOQVapwz{vphfjnsvtmjgfjljgc``bfjhd_ULHDFLOU`fhmrsuuohfegmssrmg\RJGFHLU]fosrrrsw{~ÑäçåâáÖÖâéííçÑzmc_bflrrmhb][Z\cgdca]Z_cc_WPNOQU[_`[XUPPYemstndYLB<638;BJMJIFGJLID;:<=EPV\bgp{ÅÖÄn]WZbmuyyztsrqr|~{vrntÇééäÅvnmpty}Å~wqhcdghmpqrommkknmklmnquvtqlhdacecfhhkprtvsqqqmljfdffgikklkhglpqpohaamusneP?:9:>FNXfosurmjkmsx~}ytmbXQPQPPRRTY_b[VVTU^cgjjdb`bekkifaahowÄÑÉyncWKGFEDHMRW\`LF@:9;COY^`^ZXTRNMS]dnqlfeb`^\ZYWUTX\cijda^ZZZUPNQV\_ZPD949EUbgjhgfbZO?59FUbihb^_dlrvyvrmcWSU\cjkjfa\VPIILS^jrz~{utvy}Å}wtvwupeWH>8<EQapz~{sgZOKOVcqx{}xrlfejmoqpjiggjjiigegkpuspi]PICFOU]inoruuvvrljiimrpolf\RHDDGOZcjruuvxy}ÄÉáàÜÑÑÑÉáãèêêåÖwkffgnsplhb][Y\aeddb_]acb^UMKKMT[`a^\]\]dlnmhaYPF>92/8?ITVNG@>AEGE@ACCIQVZackv|Ä~p`[^fpwxwyussrszyurnnxáèåÜ{pjkmqvz}ztmfcehjnpqsrpmihiijoqrvxwsnhea_bfdgjjknpqrppqqljgdbddehijjfa`dhlmmhdgu{um_I83459@IS_fiifbaekrx~{vpg]UPQSUVYZ[^aaXUWW[fknpoiighjljfd`aiszÅÑÉxmcXLGEEDFIMPSUKE>767=IT\beeea^WUY_dkplgfdb``_``^[^bglmhe`ZYWQKKMOUZVMD<7<K\hmpkjihaVG?BLXada\Y\dmu{~{vlaUPS]gosqmgb]WRRV_jsy~~ytsvxz{{vppsurl`PA86=JYiuzxqfZOGGMUantwzytokffihikkhgffgfehjkotw{zvobSICGR[equttvtvwtpollorpolf\SICADN[dlssstxy||}{~Ä~|ÄÅÄÖâåèíìçrkhiquqmhb]ZY[`cdeca_bba^UMJJKS[abaaccdgjgaYTPKFA:1.8CQ^^SG<8;?CFEHKILQTX^_eov{|seaciqwwwyusstuyvromqçëåÇwlgglotz|xsmgfimnrssuvtoieddiptuwurlhcb__bgegklnooppmoppjhea_bbdfggf`ZY]bhlonmq}ÄvjZC3//15<DMW\]ZWST\fov{wrlcZSPSVX[_abccaXVZ\`jmnnlijijjjfcb^`irw|~vme\ROMMKIHHIKLLF>755:EPYbilnmjd`adglqokifcbdegigcdgjlmjf_YVSLGGHHMSRLGB<AQalstnlmmi_RKLQZ``\YX]enyÄÇxmcYTW`jquqke`]ZY\`gpw{||wsrtwwwvsnpttqi[K=47AQaowwofZPIEGNU`kqtxvromiiifcefeedbaaafmquxz{wunbRHCIUcpz{xvvtvywtsrqqromkiaXOGACO\elqppswx{zwux{{{ÄÅÅÑÜâêïîäÄysrxysnh`[WUX^beggdaaa`\VPLLNT]cccdedccb\TOMMNNJ@5/8FXfgYK=79<AFHMPMLNOU\]alsz}wlgfmruuuwutuwwxtokksÉèíåÅulgflpuy{vpkffknnssrtvsnhdbckrvvvrniebcaadhfhjmppppolorrlid`^`adefec[UTX^elqstyÉÅtfT>0,-/4;BJSWVROLOZeowxrnh_YUTWY[^begfc^UV]agoomlkikklljeba_aktvy}|vrmd]YWWSOLHGGGQJA:647?IS]gnrssplkkknsqmjfddhkoolffhiklibZSPLFBAAACJMJHF@CRcluxqoqtph\WUV\^[WVX]fpzÄ}vkc\W[ckqsld]ZY[^beiouwyyuqprutstrmpsrogZK=7<IYhqsndZPKIHLRX`jpsutqpomkic^`ddec_]]^emuxzyvpkdZMFELZkyÄÄ|yxw{}{wusrrqnjijgaYPHHR\cgjijpwyzxsnorsvÄÑÇÅÇÄÉäíñëãáÄÇÄwqj`YUTV]djlmid`]\YVSPQRW]dccbb_\YXTONQSVXRF918GZhi\M>89;AIMSTOJIIQY\altz}ypjhnqrrrtsrtwtrojfhrÄäèãÄtlfekptwvpkfcdikkpqnpsqmiffhntvsqmifdbcbdfjijjmoonnnknqqkfa^\_adddb^WRRW]dmty{ÄÜÄrbP;/,,.39@GOSTQONS^hqvtmid^[Z[^__bcefc^YSXdjpwsnliilmnokea`^aktvy{yunida_[WUOJGCVNF>8449CMXcknqssppnmorokhddfjostogfgghje\SMIFA>=<;<BFFFFACS`gptontxvneb_\__YTUX_it|~~{sjd]WZahmmdZTQTY^cfhnruutqnlotrsvtnprqoj`RFCIUdoqlcXOJKMPU[`eknoponopolib^`dffc]YY[cltwzytle]TLILUar~ÑÑÇ}}Ä}ywvurnjfgjkhbYQOW]`bccgovxyvojjlovÇààÑÄ{}ÖèóóîêàÑÑvrk`XTST[dkornh`[YXWXVVVX\a__][YTPQQNT[^_`YK<49FYeeYJ;68:ALRVXQIGGPZ_dovz|ztminommnopprvsomhditÅâéä~rkfelqutrlhccfjjikmkkpolllnsvwtniedffegfghlkkkmpqooollooic^[[^bfeeb^WTTW\clsz~ÉÖ}n_N;1--.38>DKOQPPQWckruphd`]]_bdbabbab]WSQZgpvztmifgjlormga`^ajrtxÄÄ}wsnjgca_WOHA`WMD:525=HT_fikmooppopqlf`]_dkqvuogegfggaVNIDA<98867;@CEECGUafllgirxyrkhfbec\WY]eoy}|yrkga[]cilk_RLJNV^bdeknpooljimtstwvpqqrrng]SQXblqmcXPKJOUZ^abdfijlmlnrroleacfggbZVWY`iptwwsle]VSSYajxÅÉÇÄ~}~Ä|xvvsojeadiljf^WV\__^^^dmtvwsmjjlr|âëëâÄww~àìñïëäÜÑ~vsmbYTPOVajosqi^XVVY\ZYXWZ_^\YTQKGLQR[efcb[MB;=IYbcZJ;789CPW\^WMIIS^dhrwyzyvoilmiiijkmrxtqnhdkvÄáãÜynhffmswusnjggikifeedfkklorw||unf`^bfgghhiilmmklprqqqkhkje_\Z[^cfffc_ZWVY\akt|ÇÇxh[M?620148<AFJMNOR\gntumdb``beijecb`^_ZTOPZiqwyqjeceilprnga`_aiprwÄÅÑÅ|xsnkiig]TLDh_TI>634:EPX^``cgknqrqnf_WSW_hqvtmfdffge]SMHCA<877568<@CDEM[ehid_altwrmiifihb]`dlu~Ä~{ysmieacimnj]OIIOX`deeiklkjffekrsuyxststvsme^]binme[QMKMTZ]_^^_aehjklotvtqjdfhhgcYUWY]dikpspjd]WVZ`fnzÄÄ~~ÄÅÅ|ywvpib^]dknlha[]bec`]^dntwwrkjikuÇèôöèÉytwâèèåàÜÉ{zsg\UMJQ]hntsj]VUUY^\ZZXZ__]UOMFCLUWaiic_XNGADNY_a[M?<<>HV^`b[QNOYekpxyxxvuqlmnifefglsxtomgdku|ÇÜÅulhfhouxvuqniijid`^]\`egkqw}Ç~qg`[\djkkjhghlnnlmqtrrrmgjid^[YZ^bfgfd`\YXZ\`hry{~{pdZPF?;7668;?AEIKNT`lsz{qhggfikmjda`]]^VOKLXhrxxqhbbdhnsuqica`biptzÇÉÑÖÉ|vpifglmd\SIpfZN@7328CMTYZWX]chnpoh^TLIOV`jqojedefgbYSNKJHC=;96669=@BHTblmia[\hosokgiillgbeiow}|xuuqlieachkmi\PMOT^fgfehhihfbbciqsw{yvurtvurmgghkmi_UNLNS[a`^YXX[`cfhjmsvurkfghihe[WXZ[_bcjnlgbZVX^dipz~}}~||~zwuqia[Y\elnjf`^chjhb]^entwvpjhhkvÖêúúëÉzttx~ÇÅÄ~~~|z|ug[SKGMXcjqph]WUW[_\ZYXY]^[RLLFEOXZcjh`YSLJILT\^`]PEBDFQ^edd\SPT_lsx}{wvuutrqqidbdekquqmjgeltzÇ|rjhhkqvwttqoljjh`[XUV\afmv|ÇÖ|lb\Z`krrpmhhhkoqootwsqrleggc]ZY[^begfc`]ZZZ\_fnuvxuka[TNHD?;99:<=@EHLVdpxÄvnlkjjjic__^]^]SLHIVgrwwne``bfnsuqkecbdiotzÄÇÇÅ}vpib`eknhaWMuk^PA7216AJQTSNLOW_glldYNEAFNYdnomihfff`YWTSUTLFA;54459=CM\kspg[UVbjomjfiilmkilotxzwrnnljheabgijh_VVZ]ekhefhhhfa\]`gosxzxvtpruvtrmkijicXPJKOW_eb\URSV\`ehjnttrqkfhhihd[XXZZ\]]chgc^WSW^ejoy|{z{xy{{zxvsme]YX^honid^]bgif`\_fmsurlgfglxÑçóñãÅ|uruwxwvtuvuuwrdYQHBGQ[cjjd\XWZ_a]YWVWZ\YPJKIJT]]bgcYQNILRV\`^][PHGKOYdidbZQQXerz}zuuvxyyvtkcadejprokjgfmuy~Å|smlnptvtqqqpolje\VRORZair{ÇÖÉyj_\]dottrmgfgimqppvytppibdec_\[]`bceda_\YWWY\bjpprnf^ZWSPOJDA>;;;>BGMYgry|tonnkgc_ZX[]]_]RIEGSbmsrjb^`chotsnieeehkorvz{{{unhaZY_fieaYPvl`RB9205?GMONGDGPZcjicXNFCFNZdnoomlggd]WYYZ_^UMF=53239@IVeqwrfYSR]fkkiefhjlmmqvyyxslghhggfeeiiigb]cjmsungghffe_Z[_elqvvsrqmpuusqmieec]TNIKPX_eaZRPRV]bgkmqusqnhdfehgd]\[^]\YX[a`]YTOSY`ektxxvurruvwxupib[Y\clpmg`YY^dfe_\_ekprlfccen{ÉàèåÉ}zsooonmoosxwvuo`UMD>DMV^db^XWW\`a\XUUWYZXOIIHLV]\_`ZPJHGOZ`cd`\[RLLQT]gia^UMOZht}Äzvwz|Å|wnfdghlppolkjjouv{|urqrrssolmoppmke\VRMPZckt}ÇÄ|ui__birutpkedegkoontvplmf`beb___adcbcc`_\XTSUX^ejjkg_XXVUUWSMHD=::=BHQ^jrvyvqoqojc\WRRXZ[`^UMHIS`jooib`dgjqspkhfghjlnpstuutnf`XQPW^aa_YQtk`RE<524=DJKIDADNX`ffbZSNJJOW_gknnnhgb\X]_cjj`VL@7336>HTaltytg\VT[chhgcefjlnpuyzwrmd`cdcefeehhggfgqz~Ä}qiigdee_Z[^bgmsrooompuuqnieabaZRMHJPX^c`YUVX]cgjlnrtqpmgdecgfd`_]`^[WUV[[WSNIKQW\dnvwusqpruwxtnid_^ahnold]VU[bdd`]bimrqha^_dnz~Éxxxrljhghkpw|zyum_TKB>ELU]b]ZVVV\a`[XTUWXXVMEFGNW]\]YRKHHJTaddd]WVQMNUY`gf\XOHM\jvÉÄ{yz{|ÅÑÄ{umjlloooonnnnrttz~{{xwuspjeegjkkjg^YTOQ\emtz{xtqhaaflswupkgffgillmsvoiid_bfda`aceca`^\\XTQNPT[aedeaYTVVVX[XQMG?::=CLYenrroljlong^VPKNSVY`a\VRPV_gkjfbbgkmsrnkkjlnnnnoqpppmf_XOGFOW]bb[Sqh^RGA;65:@FHGB@CLU]bc`\YVROOQU]chklgc^YV]_emof^SD9339CO\hmswsjc_]bgihe``cgknquxwrkdZVZ]_bca`cddgkp|ÖáàÄsjiecef`[Z\]bipolmmmnssnifecee`UOIHNW^ed`]_behjlmnpqmnmiggcddca_\][XUSTXWSPLGHKQW_jsvtqompsuuqkheabeinnjc\UTZ`aa^]elptqe][]cnwvuvsorsnifcbeltz|wni^UNFAGLT\`\YVVW[a_ZWSTWXUSJBCJT\ba]VOKLQR]hgbaZRPNKNUY]a_WRKGN^lwÄÉÅ||}|{ÄÇÄ~xrnnoqppqppprtuuzÄÄÄ}yupkd^]_bfhiie`\WX_horuvspojcbglqutqmmmlkkjjkqumghd_cgebacdeb_]ZZZVRMIKOW]a_`\UQSRRW\ZUPH?99=DQ`kpoia]`ehibYQKILQSW_ba^[X\aegfb_cgknrplkmmorrponnllkh`XOE==GOYbb[TlbYPHFB=9;>CDECCHPX^a`][[[YVTRSX^eikgaZURX\clog`UG:44<GVdmoqsqmjhfiklid^]]chmpttsmd^URUZ]cdbadddgnvÅâåäskieegic]YXY_hqqnnoootsleccbegbXQKJOX^egghlnppoonopokmmkjia`a`_^YXVSRQRVUTROIIINS\gqvvspoopsrmhgfefhjnlic]VW]bb`]_gnprnb\\^ckqmklkjoqlfc`]bmxÄÉ~tjfa\VNHMNT^b^\YYX[`^YVPPTVTRKEFO\dhe^TOOUZ\bie^[ULIGFJORUXVPMIHR`mxÇÄ}}}zz}ÄÄ~zuqpqqoprrrtvwvuz~ÅÇ}wrkf`ZYZ\^adhjigdcflooponlnkdaehkoponqqolifgiosmhieadhgddfhgc`[XYYUOKEFKTZ\\]YROPNNTZYUQI?9:=GVenpk_URW]cd_VQMLNQRV]ceec_``ab`\\`chmrolmmlpssrqnmkjgd\SG=57AJV``[Ve[SKGIGC?>?ABDDGMV]aa\XWX\_^\YWX]bghfaYRNTY`jnf_UH;45@L]jqppprqqpooonib[ZZ`hmoonkf\XQPRX\bedcggeipyÉäåâ}rkjffjle_YUV]hsvrqtrqwvkb`_^cfc[UONS[`fjkmruvurpnmljhmnmmja_abcb\WRNMMOSTUUTNKILQZeouurpnoorrmggfdeijljf`[WZbhfecdjonoj_\_adhidceghlolfc`\bpzÅÉ|qihfd^VRUSW`cb`^]\]_\VRKKOTSROKKVbhif^USV]baac^XTPHCBAEIKLOLHFFKXfqx}~|{|zvvz~Ä|wsppoklnpswzzwuwy{ysngb_\YWWXZ^fmqqpnmomkihghjga^aehmpqpssnigdehmsokjhbdhgeehjifc]XZZUPLFEIRVWWYVQPQMLPTSQMF=9:?L]iomdXPOU[^_[UQOONNOS[cjmkfda__]YY]`dkqonnmjmqqqqljhfcbZOC825@JU]]XU_TMGFJMLHECBAABHOW^cb\VTVZ^``\YY_dijid]VSY^dmph`XK=68CQaourrruvxxwvtqi_XVW^glljeb]USOOQX\bddcefeir|ÅÑÑunkjghmngb\VXakwzvtxwv{zma[YY^cd_[VUY`dhklmptvurpmkheempppmc`cghe]UNHHHKOQSUTNJHLQZfnpponmoprpkgfcaaehkif_ZY^hmkighmqomg_^accca]]`efjnlgd_\dq|ÅÄwmfhjgc\Z[Z\cffedba_`[TNFDKRTUTRS]hmlg^WW\dfb][VROKF@>?EGGGHD@AGQaowz{{yxyvqrx}|wqnmjfhilqv{|yxyxz~}wrngcba]ZYVVZeovyyurpljhfhihd_]`ejpttstqjfdbdhmtspnleehihgjljgf_XXYUPMHEGOSSTWURSSNKNPNMJC<:;CScloj`VQQW[[[YUSSSQNMPWajonjgb^]YTUXZ_hnnnnlgjopqpkhecaaYNC;6;FNT[[WW[QICELRTRMHD@?@FMT[``[VRQSX]`_^_bgjkie^ZY^bgnpib\PC<=EQaoussrux{{zxuog[TPPVafgeb^[USPQQVZ_aa^_acisz{{xtmjiighmlgb]VZcmy}xuyxv{yj\URRX^aa_[[_dghjjijnpqpnkid`blnmmia_fkkg_TJDCBFJNRUSMIHLS\ejkkkkjklmkhdb][[afjie_[\blpmjhiknjf`YZ_aa^[Z[`eghllgebaiv~ypgbfhd`]\]]`fhjigec``YQJA>DMQUVWWalrplb[[_ec^WSQPMIFA=?DDBA@;8<FUhv{|zwuttspsy||yuqmkjd_``birx|{{zwwzxspoifeea^[WTV`lu}~ztpkihffgc_\\_fmsvusojc^]\`elsusrpjgggghlonkg`YXXVRPKGGMONORRQTRLHJLLMKE?>AJYejkd\WVY^^\YVSUXZVROOT_hkkhe`\[WRRSTYckllkhcfloqoifdacd[QJFCIRSSVVTV]RJCDKT[^\VOF@@ELQVYXUSOOPT[bfgggffedb^^`cgkopjd^VJEDJUcqxwuuvxyxuolg`WSONS\addb^\WURTSVY^_]Z[^aiswusojfefffinkhfa[`iqz~ytwutxvfXPJHOUY\^\^cgiiihffgilnnkhb]aijhgc^_hooiaUJC@>CGLRURNJLRYafghggfefghgea`\Z]bfihd^[^dnpkhihije_YTW]`a_]]^bggglliijjq{{rhb_cc_ZXY]_cjkljhdba`YPG>:>GNRUY]fpwupf^[\]YSLIKPNLJD>@DA><:538EWkz~}yuqpqqpu{|ztqnihg_XXWZenty{zxtrsqnopmjihd`^YUV_hrz|wrniiifee`\\]`ipuwuog_WSTW\dkrusqnideefiptsoj`YXXXVTOJGJKIJMNPSPJEFHIKMJGGLT_egf^Z[^`c`ZURPT[_\XSQT^giheb]Z[WQRTTZdmnmke_cilnkca`_bd]WVWV[^YRQQQV[SLFDGP[cfe]QGBDGILNNNOOPQT\ejmlhc_\]\]`efjnolhc_ZSPPU]hrwvuuvvtrmea]WQONNRZ`dfea_[YUUTTVZZWTU[ajsuqlhdbbdffinkjkhciqu{}vorrrvvgXOFCJNSXZY]bhiijhdccdinpniaZ^edb`\Z_hppibWKC?=@DJPROMLPXafgfb^^]\`deed``^]`ehihc_[]ahiccggghc\UQTY^aaabacfeekmknrrw~~ukb^]`^YSQT[_fmmjigbbb`WNE<9;AJPS[bjqyxpf^XUQKFB@FNNMNIAAB>96523<M_sÅÇ~zsmlnnou{zvqnkggcYSSQVahnuyxwtqpomorpmkifdb_[[`goutpmjhhifdd`[[]ajrwwqi_VOLNSZckqsqnnjdbbchrvvph^YYZ]^\VPKIGDDGJNQNHCCDHLRRPQX]ceea[[aegg`XQMLR[`]ZVTXaijgd`[Z\YTVXW\fmonke_dhkke]\\\be`^cggig\PLKLPVRNKJJPZckplbVLGDBBCDGKLPQT]fknle^WTVWZ`ggjnlhfb_]ZZ\`fkrusrttroke\XTPKLLNRZ`ehifc`^ZZYYZ\YTSV\entslfb``aefgjolnssqx}z|zrknprwwiZNEBGKOSWX_fjjjkiffdcinqoj`Z\a_]YTTZclke_VMGCACEHLNLMPWaikid^XYZZ^bccddfeegijjhda^^_da\^deghbZTPQU\dgikhefefkmmrww{Ä{pg_[[^\VNLPV\golhda]_b_ULB:89>HPT\gkpyzsi`UMGA?>=DNPQUQHEC;6468?L^n~áÑyqjjmnqy|xsnkihf`WRRPU^diquvwvtrrpqsroljhhhfbabflqpkhgghjheea\\`dluxune]UPMNRZcjpqnlmkeb`agrvtmbXWZ]cfc\UOJEAACFKNJD@@AGOUWVY`cddc]Z_glolbXOHHPZ``^[Y\ciifc_Z[_\Z\\Z^gnqplgbfijg_WWWZ`dcgpusrj\PKIIKNMLNOOT]fowwpdWOHA?==AFIMOR[djkiaXPLNOS\dcfiifd`^]^afknpsspnqolfaYQOMJGIKMRZ`eikigdd``a`ac^YZ]cmvxskd_^^`ddehmlrz~ÖÜ|ypjmoqvugXMCAGILPUX`hkiihgfhfdglomja\]^ZWQKLS[cd_\WQOMLLKKLLKPXbkrqjc\WYZZ]__bgjnonnmkigcca_^`ZV\bcef`WQNNQ[gmprnkkklpqpuzyz}ujd_]\^\ULILQXfnkd`\Y]a^TKA:88;FOU_lnpz}xocVJ@:<=<CNRW][RKC945:BN]mzÉáÉ|vnijmotzzuqmiigc[RNPPU]aelrsvvustqpqqnjggijigddfkongddefifcba]^cglstnib]XVPPT\ckonjjmkea_`gqtph[SV\_gmia[TKC>>?BGJF@<<>FPX[[`gfdb`Y[clquqf[PFEMX_aa_^`fkkge`[]a`^`_\^gorroifhiicYRRTX_dgoy|wri_WSOKIDFHNRSYajr|~ynaWNGC?=@DINQU]ekmjbWMGHJOX`^_cdc`[XWZajsvuusnlolhaZSMKJIGJNQV^cgiljifhdceegieadiox~|umea`abecceiksÑäèéÉ}wnhmpqwvgYMBAHLOTX[cjliihhiljhjlonkecb_XTLEFLRX[XXXVWWVTROOORYaluyumd]Z\^_bbcglptutrnlifceb][ZTS\ccdd\TONQVbotvvqmnortusy|xxyogfda``]WOKMPXfmhb]ZY^c`WMC<:88DOVdsuv}Ä{sfWI<68<;ALSXcd\RG;7:BO\jxÄÑÑ~vqjhlrty}{urnigd_VOMORX`bejprtutrrpnllkiggikjjihillib^_bfjhcbb_afilomgd`_^\WWZ`glliefjhda`airrlcUQX^bjple`YND>==@DGB=99<CNW[\cifb`]X\emruri_TJGMU]`b``chmomjd``cccca]_hquurlhhhf]SMMOU]dltywof^[[ZTNH9=BLTY^dhmuy{sh^UJFB@BFJOTX`gmole[SKJKPV[ZY]`_^YURV`ktxvsokkmje^VPMLLLJMQTZbfggjhggiedfgijhgmszÅÑÄwngcbcffdbbdgqàêïëÖ|tnkoqtxuhZMBEOTX]__fkkijijlponnnnmlhig`WQG?@EJPTTUXY^``]YTRRW^fpy{xphb_aeggghlrwz{yupmkgfhbZVSMP\aa`^UNKNS\juxwuplmnqrsqxxsstkhkkgdb_XQPQU]gjd]YY[aeaZRIEB>;DOYhvww{}{tfWH:47<<AJRWbgc\QGEIQ`myÑàÜÄwpkfiptvz|xsqmec`[RNMPT\cdejnqsutrqnkjjihgehjjkljjkjd]Y[_eihdaa`bgijifba`bdc^]`eikidacgfb``cltph^QQ[aempkhe^QE>;<>BD@;66:BLTWX`eb`_\Y_flputog\PJNU\`bbaejpsqngcbdeed_[\enturmkhhdZPLKOV_hqvtl_VRV\]WOE48BP]fmmjikotog_UIFCACHLPV[`flmlhb[UQQUXZXWY^``\XTXajquspnlmmid^WRQRSTTWZ\`eebbgeeghccehlmlov|ÇäãÑzphbacfeb_^^bm~äìïèÇxqnmpqrupcXLFLV\`effjmkklkknsqonlijkjmleZQF=<@EINQSW[cfgc^WUV]diqwwvpkhgkopnlmryÄ{uonmjhibVQMINZ^^\WMIIQZfu}|wtoklnooqouvrpqklpqmhea[WWY[ahg_YWX^egb\VPPNJEIQ\jwwvy{{wiZJ;59?ADMUZfmlh_YZ]dr{ÖåçÜ|qkeelsvw{zupoia^^[URSUW_fffjmpsutrpokihgecbfijlmkiif]VTW]fjhb]^`dhjgdb`acgihddeillgb_adca`aepuof[NS^bekjedd^RG?<<>AB>9448?HNPQ[`aaa^]ahmquxvmaSJLT\beecekqvupidbcefb\XZcmtvsomihcXOKJOXcnuum_QHIS\_ZRH48CR^kttokggje`ZQGDA@AHOSY]_aegiifa\XXZZ[XUW]^^ZUQU]elpooommlgc\VTUWY\]_abceb\]cbcgf`_`bgjkrzÄÜéçÑzpg_^adb_[XW\gzàèêã~soonomlkdYQKIOZbgklklljkmkkmpnmkhdegkooi^SG=:;@CHNSW[dhhe`ZX[bghlnnpnmmnprqmknt{ÅÅ~yqkkkigh`TNJGKUZ[XSIGKVcq}Å~xsollljiljqtrnomostpje`]\]_adfaZVVZbihb]VTWXWQPVakvvttuvthZK=6:BEHRZ]hqtsnlnnr|ÅáåäÄtkebemruvxvsnkcZXYZXXYYY_dedhlnqssqonjgda__`eijmnkge_UONS[fif_XY^dghc^\^adgjhfhkmpmd_^_aa___epslcXMT`cfjf`bc^SIA??BEE@9448>EIKNYaefgcachmpv{zrhYNMT]cfgegmtyyskfbbdd^XUX`krutrnjhbWOLLS]jtxtgVIADQ[^\TJ9=IT]iqpmlhgf`ZTJB@>=?FOV]a_^`beggea^^_^\YUV[[[XQMQW\chijllmjfc^YYZ[\_acccb`[VX`_`dbYWXX\agpzÄàçäuj_WW\`^\XTQVauÇáàÉukjkjifc`YQMJKQ\dimmjiggkoonopmjhd__chlmkbWKA:9<@ENTY^giie`\Z^fgdcbafjnopqqolnqw}ÅÄ|vmgfgffe`WQMIJQWZXRIGM[jzÉÉwrokgd`]aclsrnpqtxxrjc^^`bdfec\UTW\gnkc]XX[_a\X]fmssomlmi]QE95;DJNX_`jtz}}{zÄÑÜÇxkb``cknqrssqlf]TRUZ\]_\Y]`acfknpqpmjhec`^_`bhllmnhb^VLILR\gicZTTZade`[Z^cfikiijlmnh^Z\\\]][]doqjaULUbfijd]_a^UMDCDGIID<758=ADEKWahllgdchlnu{{tl^RNR[adeegmvzyqid`_a`[VSXaktwvsoigaXQQQWcovxpbRF?BLTWVRK@FQX\dgdcggge_YQF?=;;=EPY`c`\Z\`cdec`bca^ZUVXXXWRNQTW[_adfggecb^[[ZZ[]`bb`\XSNS\\]a\TRQQTZco{Çàãá{obVNNU[ZZVQOR^t~ÅÅ|mefhfb^ZTQMMNPT^cgjkgedekprqrqlgd_[Y]aegid[PF;78=BLUZ`ikjgb][_ec]YVU^gnqpnlllquz~Ä~zshb```aba\WRLJNW[[TJIQ_o~É{sokfa\UTZ_irqnrvy~|tja\^beiie`WORX^jqme^Z[_eieadlqtqkged`UI>65=HPWahjr{ÑâçêèáÉÑÇÉÅ|re_`aekkllnpnke\UTY`cff`[]`adimopplheca`]\]`elppokc\UNGGKQ\giaXRRX^bb]XZ_ejlmkhfefhc[Y[YWXWVYbkmf\QKUchkkc[[^\UNHFGKNNH@968<?BDKWclqqlgeikmtxwrj\QMOW^cgikqxyvme`]]_]YUSYbktxxupifaYUVX^gqusj^QHCFMRTTPJJQZ[Z\ZW[dilhbZQFDFFILQZbdd^XRTX\]__`bedc^YXXVWUPOQQSWZ\_a`_^_`]\\YXY[_a`^XRMJQ[\]`ZRONNRZdq|ÉÜâÑxk]OFGOVWXVQPUbv}}}vf`bc`[VRLKMPSVV]bdfgda`ckpqstqle^YURUZ^`ee_VM@98<ALW]dkmjfa][_fb[UPO[hqtokhgioswz|yri_XUUVV[`b_ZRLOY``XNMWdtÄÅ|wpmje^XRSZalttqvz~Å}si_Z^dhkic[RMSY`kpkc\XZ]djjkqvxxtnkigbWLB;;ENV^ipu~ÖåçêíëãàáÜÜÉ}shefhkonnoqsrnha\\ahlonga``adhlmonkfb`^\YWY_fossng_WPJGHMS]hh`XRQV]a`\Y[`hlmlid`_`b`ZYZWTTSQV_gicXOKTahkkd[Y[YSOKJLQTSLD<79;>CGP\gptsnjgjknrsqnh\RMMS\bioqv{ytjb]YZ]^\ZY`fmvzyvphd_ZX[]bhmmkd^TOKMRTUTOJV]a\VRIGQ_jqnh_UMNQRVWY^ed`[UNPSVVXY[^acc`[YVUUTONONOTWX[[YVVXZXYZWTUVY[ZXRLHHQ[]^`XPMKKPYes~ÖââÇufVH@CLRVYXUV[gw|{zqc`aa]WQKFGKQTVV[_`bd`^]bimosuqme\UOKNRUX`ca[SE<8;@LZbippkfa^[_fbZTMMYfoqkeaacinqstoh_VOKIKMU`gfaXPQ[baXPPYgvÄ~xtmifaZTPSZamsrqux|~yoe[VZafjgaXOLSZakmgaZWWX^eipy}~{vqqrqk_RHACMW^eov|ÖãéåãäÜÇÄ~~zsldcfiklklmprrmga]]bglmlgb_]]_cgjllhc^[WURRW`hqusld\UPMMNRW_hh`ZVSW]`]\Z]cjllid^ZYY[ZVUVTQQONT\bc]SLJRaikmh^YYWRONORVYWPG@;<>AFLU_jsusplijjlonmmi_VQNQYaiqvz}zujb\XZ_aa`_ejow{xsmd`\Z[`ccefdb_^ZWTVWXWTNIbfg^VMA=GWeoqle]XY\\]][^d`\YVORUVUVWXZ]aa`]ZVUVVSUVSSVVUWURONPTTWYWUUVWXVSLHEFQZ\]\RKIIJQZgt~ÜäàraQE?BKQUZ[Z\akvyyulaabb^WNIDFLSUWX]^_`_[ZZ^fjmrrmkcZTMHHLNRY^_\VKA:;@KZdnuvnhc_[`he\VONWbinhb]]_eilmlg_WOIDCDHQ^ghd\TT\_]SMPXeu~zuogca^XTRU[blpnnqswztkbWRV_dihaXPMT[bjjc_ZXXX[_eow|~|wuw{}wj\QJLU^ciowÄâçéàÇ~ywwvvvrkgbbdhgfehjmpojd_]^bglnmhe`\YZ]afigd^XTRRRU[elsvslc[WSRSTWZ_gha^]X[``\]]`ejkie_XSPPRQPPQOMLKLS[_`ZRKIQ_gili^XVSPNOPSVXUPIC@BCFLRZbippnnmiighhfgig^WTPQYaiqw{{xtjc]Z]bdedchmqxzwoh^YX[_gid`]XWY\[[[\ZZXRLIhkj`XOA;BO]hmlgbacggfd__d]XXVQTXXWVWXWZ_a`]ZTSUVW\\YYYURRNKHGHMORVWWWZZZWRKFCHU]^^XKDDFKT]iu~ÖàÑ{n^QIFJQUY]_afltzywqgbdfgc\SNIJPTUWZ_`__\WVX]efjnlgf_WSLFDHJMUZ\\YPG@>@IValrtmfa`[`gf^XROU^dje^YXW\befd^UNHD@>@ENZcdb\VUZYUMIMWeu|wrja]]]YVVY^dlmjjkkptng`VRV_ekje\TRW\dkhaa^[\\[\alrw{|yzÖâÇvh]UV]dfinxÇäãá}upmnoooqnjigeegdcdhkoqojd_]`eiopolga[VVY\bec`ZURRVW[`hmqsrjb]ZWWXY[^bhjecc]_b`]`_bfhgc^WSPOOQPNMMLJGHLS[`_ZRLIQ]eimj_VROKLNPSVVSOJFFIKOV\bgimljkmigdc`^`cb\XVST[dkrx{xuqid``cffgddjnqvwrkdZSUZaii`XSOPU\]_`_[XTNIFjljc^VJCELYbhjhfgjnmkf`]`XTVVSWYZYWXYWX^a`_[TQRSW^_]^[VQOIGDBCFINTXZ[^^]ZVNIFN[__]RC>@EMW_jt{ÅÑvj]UQQU[^befimrvxvrkcbgkkhaZTPOQQQUZ`a^\XTTW]cdgid``[USLDBFGKQUWYYSMFBBHS\fmpjc_]Y]ef`ZTTV\bge_YUPRW[]]VMFB?<;>CLW_a`]WTVSLEFKUetyvqi_[\]\ZZ]`cihfcb`ehc_\RQWagnnjb[Y\^fljbc`]]^\[`inrvwwyÄâêäÄujbcgjghmwÄÖÇxkb_^adcdhjjlkhed`_adinnkf`[[_dinonkf^VONPU\a`]XRPRX\`eklnomga^]\]^_afjnpkigccea^bbcge`[UNOTUUUQMIIIGDGMU^ed^WOKQ[ekomaVOJGHLOSUTQNJHJOQW^bgihjhhjlhda`[Y\^^[ZYVU[ahntvsomgeefiigdabhmossojcYRUZbhg[QKIKSZ]ab^WSNHEEdggec^VOMPX]bfhfhjkf`ZSQVQQXYVZYZ\YZ]YW]ba_[SOPRW_aaa\VQMGEDAAGLPX]`aca_[WPLJR\^\XK<:>ENX_jsy~Äyoe\YZ]bfgijklmoqpnkd_bhmmic^XTQOKJOW^_\YUQSX^cege_^\XUTKDBEFJQRSUVRNHDCEMT^gmjd_\XZ_b^YUVVY^cc_ZUNMQUXWPGA><;=CJR\`^]\UPOJB>DJTdqwupg]XY]]\^_``cb`\YWZ\[ZXRTZdkrqnfa`aahljdda]\_\Z]bdinqqt{ÖåâÇzqjkllhipx~xk]VUSUVTTX\`dfb^[WVWZ`eeb^ZWX]cglljg`WNIILRY\ZWRMLPW^ejnponlga``aabdipsvvplliiidadcefaYSMIOWZZXRKFFGECFNV`hgaZQLR\gornaSJEBFKORUSPNLJMRV\bfihefefimieb_ZWYZ[[[ZWUX]bgnokhhghkmnib]Z\djmoomke[TW[bgdVLHGKSZ]ab[RMHCCEY]adefb\WV\\_cgegge^XSPOURU[^YZVVZZ[_ZW]cb`[RMMOV^aaa[UQNJHFDEKRW]chijfbZSMKKU^^[TE88=GPX_jrxzxof_\_dimonnnlkjjigec^[ahmmje`\XTNIGKS\]YWRNQZ`ehgaYZWUUUKCBGHKRRPRSPNKGEEHMV`ijhc_[Z\^[VTWWW[`a`\WPLNQTRMF@>>;@IQXcd_]ZRLHC<;CJTamqokcZUX^aacca_`^_ZVUXYXZYUX^houtrkhgfeiljfeb^\^[WWYZainpru{Å~yuojlllimu|}sdWSSPQQPOTY_cda\WSSTX^ba_][Z^cgjmmjd\SJGJNSXYVQLHHMW`gmqqomkf```bbcgoy|~|tnnmmlgefdcaZPJFEN[_^\TKFDEB@FNVbljd\SNU`mssl_PJFEINPRVVVTQNNPV^ehifa`acfjgdc`ZUWVXY\ZVSUY^bhhc`bejnpneZTSW_fijjjkh`Z]_dfaULIILSX\aaXNHB>@CUY_adffb__b^^cfceea[VSTTYX\]^WUNMSWY]\Y^cb_YOKLNU[]^[URQPMMKIJQX]bgjkkgbZRMIJV_`]UF::@JRZakrvvph`\]djpturrpligeda_\XV]gjifb`][VNHFGOWXURNLQ[cgkg_X[WVVTIA@FHLSURSSONONLJIHP[eklid_\ZZXSTZZZ^abb^XQMLMOMJEAAA=BMU^knje_SKD?::BJS_hkjf_VQT\adikfb`]][YXYYXYXX\altwuuomlifhiiggc^[\YVUVX_hnppsuvrnkgeijkmvÇxm^TSSMNPOOSX^abb^XTUVY_cbacbbfiklmlic[SMKOTX[ZVOJEDJU_gloolkje__`aachtÄÖáÉyomlljgfgc`]ULFDEO^dc_WMFEEA@FNXdonf]VRYfrwum`VSSV\^^]___\WPKKQ\diid][\^addbc`[USRTW[XSNOSY^ca][^djnmg]RNPW_deddfkkfbcacb\SNLLNSVZ``WMF?<>@VY^`bdda_afbbficca\VSSXY^`c_]TOEBJRV[]\`dc_WMJLQW]^]YRPQRQRPPRX_dgikljfd]TOKKW^^\UE=?ENU\dlrtqiaZX]flrvwsrqkeb`^ZXWSS\egfa^[YXTMHGGMSTRPMLR\chmf]Y[WWWUH@@EHLUXVUTPOQRQPMIOZdkolgb]YXVRV^^^bbceb\VQNLLJJGDGG@BNVbrvrlbTJA<89BIR[dfea[SNPX_elpjc_[[^^^^]ZXWZ_dowxttpmlheeeffeb_ZYVUUVZaimnmonmjfdaafilsááÇyoaZYWPPTUUVX[\_b^ZVVVX\abcegijkkkljgc]WSSW[^_]YRMIFJQ[bgkljjid]\]__dm{áçéÜyoljkjhfe`\YRJFDFQ_dd_XLGFE@@FLXdoog_[Yaoxzwnc[XX]cggfggfaZOGELXaff`YWX[]`bcec]VTRTWYTNHINTZ_^[Z_ejjf^UONS[_a`^^cknkihdb`ZTQNMMNQV]`XOHA<=>Y[^____]]aighllda]WPMP[\cgib^SK@:BNTZ^`aba\RJHMTZ__[TNKMQUVVVY^dikkkmieb\TPKLVZZYPB=AGOW_fmstnc[UT[ekqvvtrqmgeca]\[XXaggd_XUSSPKHHGJNPOMKJPY_fke\X[XXXUI@@EINVZZYVQNORSTQLR]emroid]USQOT]]]`_^aa\YXTPNJLKJNLABMVdu|zsgXMA;79BMT]dc^ZTNIMV_fpskc]VW^beed`[Z`dhryvrpmihedcbaca`]YVSSUY_fknljkife`_]^chmwÑäàÉzsjedaYY]]ZVUVV[`^ZVUUW[`cehjkiiiikkhe`ZXY\`aa_ZVRNJMS\aefighie]ZZ]^eqÄâéçÉtkighihfd^ZUOJFGKT`db]WMJJHCCGKWbklfbbclz~~xod^ZY\aegglnnh_PECJV`ed]VTUVX^aejjc]ZWY\ZSLFFLSY^^^_dhid^VPORY_`_^YY_hmmmkfb_YUSOMJKMS]a\UNF@>=__`^[ZYVW_jjlpnd`[TLHLY\dkmd_UL@:BOUZ`db`^YNGFMV[^_YPJGJPWZ[]`beijijjfb_ZSPKMWZYYQB?CJR[ckqwvnaZTSYagntwwwuqmmlkfdca`hmje^UPNONLKIGGHJIJIHMU\chbZVVTVVTKEEHLQX\^^[UQPQTVURXaglqohc]TONLRYXY\ZY]_[Z[WPMKNOPTPA=EO`sÅzl\OB;89COU^d`YTNIGKU`hrtjaZRS]ejlke_]cgksxuqnjfda`___aaa^ZVSUZ`glnljghfec^]]\bhnxÉáÖÄyuqpojbadd_XTSRX^]ZWUUX[afklnkgffhkmkgb\[\]`a`^ZVSPMQW_bcbdbeih`[ZZ[etÇàåà|ngdabeedb]WRLIGIOXbca\WPONJEEGJV_hjggjmuÅÅzpf_ZWY^bejquunbRIFMX`b`ZRPQRTZ^ckke`^\]a^TLFFKRX^_acghd\VONRYadb_[TT[djmomhb^WTRNJGGIO[a]YTKDB@fb`[WUSOQZhloqnd^ZTJEJW\enogaXRHAIUZ^difa^WKCCKTY\]XPKHJPVZ^adefhgded`]ZXUTOPZ[[ZRBAELT^hqvzxna[XVY_cjqvxxvsqrrrmkiednpmg^RLIKMNKJFCBDEFHHLSZaf`ZTPNPRSPMNPSUZ^aa]WQNNPUVV]fikmib^ZRLJKPWWY\XVY\YZ^[SNMPRSVN?8=GZn}Ç|n^QE@=?HSW_c^UPIECHS_gppf[TLNZelppjb_cfksvrojea_]^^^`````][X\bgmolhfceeec__a`ejov|}{xssssrmgeggaYVSSZ_^[WTUX\dkoppldcehlnmid_^^]]]]\YVUSSY_fhd_a_dkld_[Y[gxÑáâÇugc_\]`a`_\WRMKJMT^ffd^[UTRNGEFGS\ejlnrt{ÉÇÅ{qf]TNOT[biqtrlbVPNTZ__]WQQRQTZ]ckkebb_aeaWOIHLRY`dgijf]UOLOW_hje_YQOV`gknmga[TPOKFCDFMX_\ZVOJHEhc^YUSQNNXflopnc\XSHBIU\fppkhda\W[bddgmjb]VHAAIRUY_\VSONQVZ`ejiihd``^YVTTVXUY`^\YOABGOXdpy|}ymb]\Z]cgmrwwwsrqsttqnkghqrpkbTNJKLNLJFB?ABCEFJPYbhc]TLIJMRTUVXXYZ]`a]VOIFHMRW`ggfd`ZXVOHFHOVWYYUPSXXZ`_WQSUVWWK<47CViwztgYNGGGKT[\`a\SNGDBGQ\cig\RKGLXdmssngefglrrnlfa]\[\]^_`acedb^behmohedbbefdbfhiknopsrrrqstsrpmkliaZXWX`c`[XUX\`fmppojdcgkopmic_^]ZYYXYXWYZ\flpog_`^ckoid^[^k}ááÜ{la_][\_`_^[WSNNOT[dkiea_[YWQHEDDNXajqux{ÅáááÄrcSD:8=HT`jnlgaYWWZ]^[XTSTUTW[]dllfefdfkg\TOLOU]eilmkcXQMKPXajke^WMKR\djmmg_XQKIFB@ADLW^]ZVQNMLf_ZUQPQOOYfkmmj`[WRGBIT\gsrpqoliefiihinjb\TG@@GOPT]]ZZXUX]`fknlkha]\ZTPNNSWX`fa_[NBEJR\iwÄÇÅ{mcacadhknqsrqnmmprrqnlklrqojdXRNMLNMLGB??>?@BGNYdie^SHCDHPVY\^\[[[]^ZSKD>>CJS^efc_ZUUTNHGIPVWWVQMPWZ[aaZUXYXXVI;58BTeqtlaUKHLOU^cabb]UQLGDHOY_d_UKGFNXckrspkjhglppljd^ZZY[^_acdfihdbddflldacaagieelpprrokigiijmomnnmjicZWY[_fe_ZXW[_bgmooplhimoqplgb]]\YWWWWVWZ^covyuj`a^cmsnid_boÜÖÅug__]]`ccc`\VQMMPW`inlgeda_[RIDBAJU_juzz~ÉàããÇo]H8--4@LYdhgd`\\^__]WTRTVXXZ[]dlkfegehmlb[URTZbjopnjaWRNMQW_hhc\TIHOYahllf]TLECB?=AEMX]\XRNNQR`ZUQNNNMOZfklkf^ZXSIEMV_myvvxtpmjiihhjold[SG??FLNU_ccfeacfglprnlf_ZZXSNKKOUYdicb^QIMQYbo|ÉÑÄxkdchhilkjkkjhedfgiiihhghmkhgd^ZWTRPPPKEB>;;<?FMYdic]PD=>BMV\`b_]ZZ[[WPH@96;DQ\eea[UQRRNJILQWVVTPMT\_abaYVZZY[YND>?ESakkdZPGGNU]dea_\[YXTOIJNV[^YPGFKT[cinqpnkheimnjid^[Z[[\]behlnlfdecdig^\`_agidelqrtrlea_aadgigiigdaZVV[`dif_[[[]bcfknoromnpqqmic_\^^\[ZZZXX\afry|wk``^cmtqngbeqÖÑ~pa\][_dghhd]UNJIMV`inmjjifb[QGA?>GS_ly}z}ÅÖããÅmW@0'+4@MZaca_^]_aa^YSOOUY[\]\\bifa`cbdjld]YWY_gnrpkf]UQNMOT]gfaYPFGNYahlke[RIB??==CHPX\YSLHKOS]WQMJJKKOZflmib\XWUONW_gr{vuwtolifeehjoneZQF?AEKOWbilqplmmknpqmjd]XWVQMKJMRYeibb`TNUW\er}ÇÅzncackmmlidca^[YXZ[^____]_ca`bdcb`[WRSRNHC>867;CLYfic[N?77<GPW\_[YWVWWSLD<526AO[de`WQNPQPNMOSWUTROP[ejljd\YZ[[\]WPKKLT^cb]VNHHQZdifaZWXZ\\WOMOTXZUMFHPY`gikoolieachjhhd`_^]\\]cjmpqkb`cacif\Y^^_df`aimnpmf_[YZZ_dfbdb_ZXRQU\chjf_]^^_badikmpnmmonlfc`]\`bbbbbb__dgkty{vk``]ajrpnhdgr}ÇÅyk^YYX_flmmg^TMHGKT]gmonnmhbYNE?<<DR_n{~yz~ÑããiQ:-'-9EQZ^]YXYZ]__ZUPLMV[]`a^[agd_\_^`fkd^]]aflqrnhc\VSOKKOVab\TLCFP]fmpldZRHB?><=CKRY[WPFADIOZUOJHFFHO\hnnh_[YYZYYagjouonqpjhea_`dhmlcXOGCGKPSZbhouussropqpkha[WVTQMJJLQWfg_^_SS[_ait}}rf]^ajnmje_\XURPOQRVVWXYWYZXX^dhjhb[UVTOJE=6337@JXfic\O?758AGMSVSRRQRSPJC:315AOX_a[SNNPQQSRSUXWUTQRakrtpe\XXXZ]_^\[YUW\]][XQLLR]gjf_VRV[`a]VSTWZ[VNJNYbhnmlnokie`aceghecc_]]\\eprrsiZZ__dlh]Z\]^ce__eihjhc\XVVU[ac`b_[VSLNT[ciifcbcba`]`fgimmmnomh`^\\\bfijjlkhgjlnsvwrh``]`honmheit|~vh\XXX`jqtrk`SIDBFPYcjnopmhaXNF?;:BQ`o|}xx|Öåã}gM8,)1=ITZ[WSRSTWZYWRNJLV\^bc_^che]Y[[\bhc_achloonic`^ZVRMJKS\[VNF?ER_iqsmd[SJEA?<=BLTZ\XMB;=AGTRMIHEDGP^homg^\[]acelnlkmggjia\WSSW^eklcXPIFLPTW[^entuuvsonmkfc]YUSRPMJIKOVde][^UWaffmtzyti]X[_hmia\VRPOLKJLNQQRSUTTTRQYajnmf^WXXTQJ@7316?JXee^WL>767=BGNPNMNKMONHB9305BOV[\WPLNOOPSRQSWXVUST`luxre]WSRTY_dfie\YZXZ\[UOMQ[dfa[RPSY^`]XX[]__XPOUainrnikkhec_`adiiffe^]`^^jtsrqdST\_gpk_[\[\ae`_bc`a`]XTQPNT\`^`]WPLEIOU\bbbbdc`[WTY_bekllmnkd[YYY[agmorsrnkjjijmqnf``\^fmllgdity}}tg\WVX_jtwtmaRF@<?JU`iopqlgaXNHA;9BQap||vvyÇâÜwbI5++4@KSWUQLLMNPSTSPLIKUZ]cc``dgf]WXWV]da`dimpokifa__[VRMJKR[YTLC=DSbltvncZTMJFB=<BMU[\VJ>668<PPPPQPNQXdmrndZXX^ekosrmgd`adc]XQNOSZbjmeZRMMUY[\]^eouuvuojhfda^YVQOONKIIKNTbaZV[V[flkoturk_TTZ]ejcZUOLKJIIHIKMMLNONOPPRZclpnhb\\]ZYPE<738AKYec\UK?::=CHOWYVSPKKLLHC<65;GPTWVPJILKKNOLIJOSSSRQ[gswsf\SMKNU_hosm_YVRV[]YSPT]cc]VMLMQVYWVZ_`b`XRSYdkpqlggeccb_``bijhkh`ad``ktrqqeUV]bkrmb]][Z_d`^_]WWVVSOKJHNV\[]ZRKF@DJNU[Z]`b`\TNLRY]agiijlh`YWWWY_fmquwuojedbbflleaa]^hmmlgchrvyyqdZTRU\gsvskbRHA=>GR^hnpoje_WPJB;9BQ`q|{utu~Ép]E4-0:DLRRNIFEGILOQPMJHJTY]dfabeff^VVTRX``ahnqpkdb`\[^ZTQMIKT]\VNE>FUcnvxpe\VPMJEA>BMTY[UI>5336OSVY]]\^dmrtncXWV\forusj_ZVZ_b_\TPPTZajnf]VST^a_][Y`lrrssmhdb`\ZWSMJIHGGHIMS`_XUYV]hnnprqmdXQSY[bf[ROJHIHGGEFHIIGIHHJMPU]dlolfa]_`__VJB;7=DM[eaZTMD@ELS[elnib\TMLJGD@=>FRVUUQGCFIHJLLHDCINOPOLP[gmkaXOHEHO[envn_WSOU\`]WVYacc]TKLKMPQPRY`bebYSUZckqqkfb^\^__`__ghhli_bfccmtqopg[[aekplc`_[Z_c_]\VONMNLHECBGOUTVTNFB=AFIPUTW\]YTLFDMUZ_giijlh`[YXWW\cjntvupjcbabfmmfdc_`inonidgoqsrj`ZUSV\fqsng_SKFBBIR]fkmkea]WQLD=:BO_pzxrqqz~yl]I<8>FMSUQJD@@BGKPRQNJGJTY]egbbddd_VTSPT]adkppmf^\\WUYWSQNLNXab[TJCHVbmvzti_XRNKGB?CMRVXSF=6224TZ^chiilotvvne\\[ajrttoeYSQW_edaZSSW[bknf`\Z\dd_ZVS[fmnpqmgdc`[YVPIFCCCCEGKP\\WTWW_ioppolf^TQU[\aaWQOKJIGGEBBDEECDCCFJOU]dlpmhcbdffg]QG@<BGP\c_XTPJKU`js|ÄÅzqg\RMKHGFFHR][VUMABFHHJJHC>?EMPQMGELW^`ZTMFBDLW`jqgYROLRZ]\XX^dcd^UMPNNPPMOY`dgd[VW[ahmkfb]WV[^`a_^eefjg]bhfgptoorkbceehkg``_\[bc`]YQJHIKJFB?=@GLLOOJDA=?BEKNMPVVQLE>>ISZ`ilklnjd`][YW[agkrstqnhghhkqqigfabjnpqkfhlllkd\ZWVZ^gopjd\SMJGFJS^dffd^\[WSLE=<EQarzvqonuyui^QGFLRUUSLC>;=AIPWYWPJFJU[`iia`b`a_WTROS]cgklid\UTTPMRRNNMMQ[df`ZQIKS]fqwvmc\UPMIDAENQTVPE>977;]aflprtwyywvne`a`fmqrqk`VPNVahhg_WWZ\ckmgca`ac`ZTQRZcjklnlgdfc_]YQHB?>@ACFIMWXUTVW`hoqolh`XRQV\\]]VQNKHFEEC@@BBA@@>?BFKRZaiomhfehlnofYNE@EIP[_ZTQONTdr}Üéêêàsh\UPMKKMOYb]WUMAEJKKKHD?;?GOTTNE>AIQVVTOJEEKT[di^QLIGMRUVTW_gdf`WRVTSVSNOY]bfe]YYZ]cdb^[VQQV]cdddhffkg`dkikqroornjhfcdca^``]\cb_\VLEFHKLHB=:<ADEHJGB?<>?AFGDFKJFC=8:GT^fnnklnkhea^\Y\bhkqrutsnmllmrrjhgabimqrnhggdcd^XXXX[agmmgaZSPNLJNU^aa_[UUXWSLF>?IVetxtoljoqme_YSTY\ZVQI?:9<CNY`b\SJEJW^dlj^[\Y\]XTSPT^eghe`ZTOOOIFKKHIHIOZeie_VNLQYbmvyqf]UNKIECHNPQRMD?>?AGijlqtuy{{ywupiefeioqpoh^UPNT_hije]\`agllgfgfed_YSRTZ`fghmlhfhfb^[QGA=;=?BDGKSTSSUW_flomhe^WUVY]^\YUQMIGECDB?>>=<;;9:>CGNU\dlmjgefimoi]SJFILPY[VPONP\pÄçïöööìäÄxkbZSNNPT\c^XVNCHMOPOKD@?DMTYWOD<<AHMQTSPLKNUZ`cWKEB@CGKPT[elhhc[X^\\`[TSZZ]bc]\[YX[[YVUQNNS[acddgddihcflkmqspqurpmgb`]^^ab^]b_ZWOEADINRNHA<9<>?CFEB?=>>?CB==@@><957EUbltpkjkhgfb^\Y\chkprvvxutqposqjifaaehnqnhfb][]YTVXWY`fkkg`YTRQOKLRZ[ZWQLOUWTNGACMZiuwrligijfa`aacfe_XQH?:;?FQ^hibYMEIXagpl]VVSVZYSRQT^cec^YTPLJIC?CDCDCELWbhfaYQLNT]hsytj_ULHGEDJNMMNHCBDILSppprrqtvutssqnmmkmppnmg]VRMP[dgjhb`cdhllijlifb]YWWY\]`bekkihjhe`\SHC>;;=@CEIORRSUV]cimkeb[VWYZ^`]YWTMIGDCCA=;:977877;?CHMS^gkjhcabfie]TMLOPQWVQMMMQbwáìôòîìèäÜÑypeZPNOQX_\XWPEINPSSNGCCJT\`]RE<77=DJQUURQU[]``TG@<:<?DLS[elhgd]\bcdhc[X[Y[_`^_\YWWUTTUTRQTZ`bdcfcagjegnmorsoorqolf`[Y[_bc_^_YSOG?@FLTYTLC<779;AFGDB@@?@B@;9;=;8736FXgryslihfggb_]Z^cgimpvy~}zwtqroifd^]_cinlhd_XWZVRSTSW_eiie_ZVVUPIHNUUTPHCISVVPJDHR`lutnhfddca_bgknokbYPH?;=AITcnoh^PFHVagpl[QQNQXWRSSV\_]\WSQNIFD>:=>>??BJT^ggd^WOMQWbpyumcWLGECEJMNNLGEFKRW^usonkijkkjmoppqpopsqnlf]VSMLT]cikhefeikjilmjf`\\]^_^[[]`fgfgjjgb^UKFB@@CFHHILOPRTV[agihb^XTW[Z]a_Z][SLIDBA?;86535789=>@BFKVbjkjd][`cb^WPNRRRVTNJLKQdvÉåéàÉÄ~ÄÑâÜteVPNLPUTTTNFIKMRTPKHIP[dieYK@747=DNUYZZ\`a`\QD><:;@EKS[digec\^dfhke^Z[XZ\]\^[WTSPPSXXWWVY_dghhebgkihmmnpqlkllkhb]XVY]`a^\[TNIB=AIQZ^YPE<5357?FIHFDDDDEC>9;=95415DWiv|tkhedggb_\Z^chilpv{ÇÄ|vrmmjeb_ZWX[bimjgb[Y\XSQONRZbgfc_]Z\ZSJHLRRQJA=DOVWSNJNZhptqkdcb`][Z_gmqpkbXNHA=?DKUdprlcTHGT`gplZONKOVVRSSVYYUSQPPMHDA=;;:;>=AHOWaeeb[QLNQ[jutpg\QIEBEHIKMJGINT[afsokifcca``ejmpqnlmpolhc[TSNJMV]flmhedfijlmlhc]]`bcc^YXZ^bcdehifb]ULIGGINPPMJILLNRSX_def`[VUX\Y\a_^cbYPJFDBB@;898;?ABEEFFGIS^hji`WUZ^``ZQPRSQSPJFGGN`nxÄwrqszÖêèâ}lZSOLNRTVVPIHGHMQRONRYaini^RG<536>JU^a`aedb^UGBCDGLOPUZbfffb\^cgjmg`\[WWWXX[XSOONQX^]\ZVX_ejlmigilkikklkkgefhif`[USV[^_[YUNIE@?DMV^`ZPE:3115>HMMKIGHHJJE=<<72104BVhv{sjfdcff`\YX\aefjovzÄ~yqmhgda_\XTSV[djige`_c^WRMKQYafdbaa`daXMKLPPNF<8?JTWVSRU`mssngaba]YUV[ckonjc[RMFBBGKQ_knkfXKHS^fokYMLIMTURTTUUQLMNPSQMIFB?<9;??BIMS]cdd_TNMMVequtlbVNGCEGFHKJJPW]bfiligedba]YZagmqqjggjlie`YRSPKLSZcloidadfiklhc]Z^bfgg`[XZ]`abbcd`]YSMLLNPVWUPKGIIKNOT\acd^YTTX\Y[`__ef`VOKHEFE@>@?BEGHKLOOOS[ckmi^RMRW[]YRQSTSRNIEDCJXenttmihmxáïìã}kZURQSV[_^YSMGEHMRSTX\`ehc\TLB9338DQ]cdfkifc[LGJKPVYWY[`bed`[]afjlga\YTRPQRTRMJJJPX``^\XX]cfhiihjmmjiiiedb`aefd`ZSPSWYYURMGDB@BHOV\\ULB91//2=HORQMJKKMOKA=<50/04ASerxpheecdc]WTSW[`bhntx|zuokeb_^^^ZVSSU^fghiffhbZTNNU]cgdbcegki^SPOPQMD<8=GQXXXZ\epsqme`a`\VSRW^fkljf`XSMGFHHKVdjlj^OHOZcmjZNJGLSUTUUSOHFINSWURMJGC<7:@ADJNQ[behf[SOKRaovxrh]ULFFFCFLNQZbfghgebaaaba]YX`flqphbacge_ZSMOOMNU[ckmf`]`bghgb\WU[_dff`\X[^_aaaaa^[WSOMOTX^^ZSKDFGGJMQX^ab^XSRVZY[_`_ehd[RNJEGGDBECFHJJLLOPSX`hpqk_RJLQVYWQPQSSRNIFCAENW_gjheekxÜíêÜxi[XXWZ^bgfb]VNJIOUXZ]]]^^YTRNI@946?MZchmrqlg_PMQTY`a\YWXX\^\X[`ejlf`YTQOMMNOLGEDEMYbccb]]bedffghjmmjfec^]\ZZ_ab`[SONOQQOKGA@BDIPVXXTME<51-+/:ENSTQMMLPSOD@=52227CScmrledgffe_WSQRUY]dlrwzwrmha]Z[]a_]XVU\egjmmkkd\UOPX`ehcacgjqpe[WSRQMD>;<CMTW[`aiqqnha^_]YSOPTY`eghhe_\UNJJFGP^flkbSJMYbli[OJEJSUUUTPIBAEMTXWWSOKF;58AEGMPQXaejjbXRMR_nw|wof^TLKJGKTX\ekifeac`_]^`_\XW\dinpib`bec]WOGILMPW_fmmf_]^`dd`ZUPOTY]`b^[Y[]_`abdca_ZTPOSZ`fd]TJACDDFKNT[__\WRQU\\^bbagjh^UPJEGKHGIHGHHHIHKMRX_hqsmcUJIMQUUOMMOPQNJFB>?DIP[bbaciuÅåâ|pe]^^_bdgkjfc_YSRW[^_a`\YWQMNPOJC<;?JWahouspkdXVZ]ahic]WSQUY\[_dilnh`WRNLJKJIE@>?AKX``ab]_cdbdcdfgiif`_\VVVSRW[]_\UNLIIIHEB>>CIOVZXRLGB<74/+,6AKSVSPONQUPFC?87759DQ]dgd`bhjihb[SQPQU\clswwtpkd]XVY^ced^[Z^gjmpqmme\VQT\bfhdbfjnuume_YUSMFB>=AJQU]dfkomhc\[^\YTOORV\bdfiiec^VOKECJXclmfXMLXclj^QJEJTWVTRLD>>DLSWX\XSOI;36@FHNPOT\agke\WRU_mx|zunh_XVVRV^aelojd_Xgd`\\^][XVZbgmrmfbcdc]VOFFLSZdmsvrh`]]_dc]VPJIMRW[_`_]^`abcdgeba[SQQU\che\SH?AAADJLRZ]\YUQPU]`chhgjlh_UPIDHPOOPNHFECBACFMU\eorkdWJDFJNOLKJLNONKGA=;;?ES^a`bfnxÄ{maZV[_bgiklkgedb^]`abcdb\UPHCGLOOKECEKT]dlrrqmg^]^_ahhc]UNJMTZ^chmoqldXQLJIKIFC>::>IV^acb^`aa^``cddfgc]\YRQSPNRWZ^]WPLGEECAA@BIQV[^XNECA=;92+,6AKTXUPOMQTNGFC@AA<>FPZ^^_^bjnkjf`[YTSW\clrvusnia[VUZailkda_ahjlnoljc[VTW_egifehlpvwqke]WTMHEB>@GNS\dgijfa]XY]\XTPPRTY_`cgihhf`XQHBFS^hjeYNMYdlj_SKELVYXSMG>:=DLSVY^ZTQI:23<DGKOOQY_dif_[[\bmvywwsokecb]]cfkpoh_WOojd_]\ZYWV[bhmqme``ba\VNDDKU`lv~Äzpga]_da[VQJILPU[acba``acdgjgec]WWY^cghbYQF>AAAELNSXZXVSPMR[_bgeaaca[UPHBEPRSRMA=;:978;DOV`lqjeYJ?@CFIJIIJMPPOKD>957<M]babbciomaWSRUY\adfgfbbcdddecbaa`\TLD=>EKOOLJIMQX^floonjc_\YW\`_ZSKFHPZ`dimnnkbVNHEEHGDA<769FT]cge__][YZ[_^adgebb_XUUNILPU[^YSOHCBBAFHJQY^bbZNB?BA@=6.-7CMV\XRONOPKGJLJMLDDJPWXW\_emqmkjfc_ZY[_elrusqmg_WSSX_hnnifeeiklkkge_YVUW^bdgffilptvtpib[UNJHEAAEKQ[dgfe`ZVTVZZWSPPQSWZ\_cefhhf_WLDDNZegdYOMYdkiaVNLT]_[QH@97<DKRUX]YROG9107@CHMOOV\`dc`_bcflstswvtsokhb^bejome[QGwsjc^ZVWVW\cinqnga`_`]WOECJTamwÇyrkcac_ZXSLJJMQY_cca_^`bdhmihf^XZ]chllf\SIABDFLSTWZZXVTQLPY^`da[Z[[XUPHBDORSQI:5421/-.7CJXhpjg\M?<>AEFGHJOSTTPH@:447K_ddd]WY^^XSRPOPPTX[\ZWVY]`dfda_^^]VOG><AGKNMMKKOSYailnljea\YUVZ[WRMIJR\cdgjjig`UOJFGIEBA<659ET_fje^ZXWVXZ__ciljge_YVUMGGKPX^[WSKCCDEKPQU\bee\PC?CEDB<56AMV]a]VROMKGHOSTXWNMPRUTR\chptommmjea]]`ekptrojd\URRW]fmolklijkjgeba]WTRRV[^bceiknrtusld]UNJIFAAEINYadc`YROOSXYVSQPPRUVWZ^adhiif_SIEKVadbZQNYelkf_[Z_edZMC;66;CJQRX]XQNE70.3<BFLNMQVY^__afhghmmnuwwyuokc\]`dkle\RG|wmf_ZWXWY\_dinmida_b_ZSJEJS^hry}~|xskhhc][UMJKNS\adca][^`binklka\^^cinojbZPGFGJRY[\^\[YVQKLUY\b`ZZ[ZXVQIDGRTTPE61000.+*2?GVgqkg]N?:;>BDGHKQUVWSJB<746K_dddXLLQSQPQMJHGJMQTTPNPSU[`_\[YZZWRLD@BEIKLLJGJMQYafiiifb]YTTVXWUTSSZbfdefeca\TQMJIIDCC@;8;GVbjjb[USUXZ]``djlhd`ZVTRLFEHNX`_]YPGGIINUTV\bed]TG@DGGEC@CMYade`YTPLHFIRX[_\TSSRTRP]hlrwplopolhdbcfjorqmib[TSTX_flmkknkiigb`__[URONRVZ_adilortuuog_VMHFD@BGKQ[aba^VOLLPWYVTSRQTVTTXZ]afhjjdZPIKT^a`\TPZeklkfeefheZKA:56:AIOQY^XPLB6/-09@GMPOQTVYZ]`efcbfgksvwzxrk`UTU[fljc[Pytnic[WWVVY\_dhihdbac`[UNILT\dlrvxywuqppkc^VMJMRYadfb_ZXY\]ekjlja]^^dimpnhbZRMNOW^``a__^[VMKQSUZXSSTUUSOJGKTUTMA658885.,4BKXhpkd]O@99:>ADGLRWXYULD@;78L`ddbTCAFILOOJFB@BFMSUSPNLLOTUUUUUVTQLFBBEHIJJFCEGLR[adefd`\YURSUUWZ]]aegaaa`\[WTSQMJHDEIGB@BLZgnjaXQPSX[^aaejkfa[VSRQMFDFMVaed`WNMONS[ZY]cdb_ZMBEHGHLORXbgggd\VRKFFKSX]a]YZYWXTQ`mqvxojmorqmiedfimqpkf_XRUX\cjmljhjgedc^]_^[VQLKNRV[_cimoprstpjbWMFEC@DKPU^ba^\TNKKOUYWVWVUWXSPSVY_filmjaWNLS\`a`XT\ejlnlmnlkfZKB;679AIPRZ^WOKA6/-.7?GORQQRSTVZ^aba`dfjquwzwocUHHJS`knlg_tqmkd\WUTTWYZ]`abb`ac`ZUPJLRUX\`elrvvssrmf_UIGNU[dda\YUQRUU^ghki`]^]bhlpoje^UPQSZ`cegeghc[QKMLLOLGHKOQPMIHNTSPG=8>DGF?508GR^kqkd^SE<:9;=AEKSYYYVLEB?;:M`ddbQ=;@CGMOJGC??BJSXZYTMJHKMOOPQRQOKGCBFHHHF@<?BGNX_ccda]YWUQQRRV^fglmkb`][WUSSUUPLHDGMMKIJRaknf\RJKOTY]_afihd^VQOPOLGCCJUcikh_TRURR[[XY_`_^_UGEIIMV^`beiggg`YRJCCJQVZ_\[`b`^XUbnrwvjdfilmkgccehmqpic\UPTX]djljfdec``a^^aa\VPKIJMRZ_ensrsssurng]QJEB?DMSYbda][SMJJMRWVVWVUVVPKNQT]gikmkc[ROT\_bd\U\dhmqqstojeZKC=868?JPRY\WPKC81019BKQTRPNMNQUY\_``befmsvxuk]LBADM[jqrqmjhec^XUTRSUTTVX[]`_`caZXTNNUVUUTW^fotttrmf]PDCKU]db]WUSMLONXcgjja[YV[ahopje^UQSU[aejpqsslbVNLJILJEGKPPOKFFLQNJB;=GPTQH<5;KWblqjd`XKB=::<?BIRXYYULECB><M`ccaO:7<>BIMKKIDBCHSZ_a^VPKLMMLMLLKJHEBCJLKIE<69>EMW_ba`]XUUURPOPU_kotsofb\XTROQXYVUROTZYXVW\gnkaWNGINRW\_aegd]TKDDFHJGBAGSbkpneYUWRPYZUV\]\]a[MILNT`kmhfgeehe\RI@AHOSX][]fjhe^Zeptxtf^`dhljd``bgmqng^WPOTZahmmic`_]\^bacfd^WNIFEGOX`irwuutssssnf[QID@EOY`ggc\XQLJILQUVVWWUUUMFHLQ[fkkjje]VQU[^bf^W\cfmrtvumf_WIC?957?JPSY[WSPH?956>GPYZURMIJNSVZ^_^acflrvwsj[KBADLYhrx{z\[[[YTRQNNONLMPSW\]_b`ZZWPPYYXWSRT[emotsme\MCDOZbfaYRRQKHIHS`fkkb[WRUZ`ikfa[USTUY^clvz|}tg[QLHGIIEHLQPLHDDIMJF@=DQ\_XM>6;JXailgb`ZOF?;:;=?DMTWWTMFDC?=M_ba^L75<?DMTVZYSMHIT]dih`[USQOKJIHGFCA>@JOOLH<33:CKU]a^[XTQQSRNLMR\hnttpif^WRNLPW[\^^]cgedcdfnoi]ULFHMPSXZ[\^XQIA<@CFIGBAEQ`krrh[VVPQZ\XY\\]`daUOQV^jush_^]^fh^SI@@GNQWZZ^jqold`hqvyrb[\`fkhb]]_flpkcYRLNS\empnh^ZXYY]bcfie]VMFDCEOZcluywutsrruqk`UKEAGR^ejic[VOJIHJOTUUVWUTSJBCGMWdkkiie^XTW[\`e]VZ`cjpqpnf^YUJEB>89BLQSXZXVTMF?:<FNYcbZUMGGLRVY]][]adiorspi]OFDEKUanv|ÄOQSTRNKJHJLMKKLPSXZ\^^XZWQQ[[ZYVQRV_ehonhb[MFLXaef^UNPOHDDCN]fhh_WRPSW\ee_[VQSUVX\akv{|~vj_VMGDDCBFMTTPLGEHKIFCEN]fg\N>59GS\aec`a^TKC=:::;?GOTVVRKHGB?M^a`]J67BJR^gkolaVKGPYbilge`\XTMKJGEC?;9;GPRPK=1/5>FPX[XTQOMMOOJDDJS_hqsokg_WRMKPW\`fhimpkijkjole[ULFFGHLQTUVYTMGA=@CEHFCBFQ_jstk]WUQT^`[[[\^bfe\W[aiszrdXUV\fjaTJBCHNQWYZ`nxwsmhlsyyp`YZ^ejf`\\^floi`UNILR\fmoleYUSUX^dfiicZTKFDCEP\dmuywvtsqrusofZPIDGP\chhcZSLHGGHLQSSTUSPPH?>BHSajkgfc]YVZ]]_c[SV[_ekmkke\WUKFFD=@IQTUXYXXXRKC=BLVblh]ULFGNUXZ\[XZ^aejnomg]QIEFJR]jt|ÇHJLMLJIHHJMLMNPTWYXXYZWYVQOY[ZYWRPT\_`hhb_\PMT`efe[QLPOIDDDN]fgf]TPMOSYa`ZUNJNRVY\alw}}~vkbZPIDDEGNV^a^ZVSRTSOORXcheXJ;58ESZ^aa`baYPF?:987:BLSWYUPKID@M^a`]M=BP\gs{ÅÑ~p`QGLR[bhikhd`YPMKHEC?;79DNRQL?1,08AIPTQLKLKKLJC><BLXdoqnkf^WQJINU[bkooqoighhhjga[WOHDDDGKPQRWUOJFABDFGGFFJR]fptk^WURWad^]]^`dhic`djpwzpaTRT[fndVLDEIPTWYYap|}yuqrv{xn^WY^dif_[Z\dkmg]QJGLQ[diif^TQRSYaghjf_VPJFEEJVagnsvuvusoostqj_TLFFMX`fgcYQJFFFFJNOMNNNLMG@=@ENZdfcb_[XW[^^_`YQQV[bhjijd[VUKGLNHLTYWWYYXYZSLD?FS_mwqeZOHINTVXZXUXZ^bfjjgd]SJEFIPZgqy@EJNQRPMKKMMOTY]]\YTTWVXVPMTXXXYTOQVYZcc`^^TV]gjhd[ROSSOJIJS`ghf]SNKLPV]]XRKIMPVY\aksxyytld]SJFHKRZckomkjfege````ed]PD:7<HV[^a`_aa[RIB<9656=HTZ][UNJFCM]a`_SHQduÇçìóóç~mZLLPV\dglmkf_UQNKGEA<99BMRPMB2+-3;BHKIEFJMMOLE?=BJU`jmlke_WQHGKQXaknnnib`b`_a^\\[VNGCADINQS[\UPKDCEFHJKMOTZalqlaZVT[egb``bdgklhgkoruuk]RQT]gphXMHGJPTWWXar}Ä~|wwy|xn`\^chlh_[Z[bjle[OIGLPYacda[RPOQYbfijf^UPLIIKR\dfikmoqrqmmpqoj`UNFEJU^ceaXPIEDEEHKKIHIJIJGA=?CJS]a^][WVVZ_`__YONRX^ehfhe[TTLJRXTW\]YXZYXYWQIB?HVcs~ymbWMJMQSVXUUY[^cdeeda\ULFFHNYclsx<EOVYYUPNNQRTZaba^YQQUUWTNINSTVYTMMPSVaa_ZZTXblnjf^VSVVSONPWaghd[QKIKOU[ZXSMLMOTWZ`glpqqpke^TIFIMVakrxzyxustqmkhdd_VJA:;AN[^_`_\^^YRIC=8533:FS\`^YRMIFO^b`a[Ud{êù•ß©§òávbSPQV\bejkjfaYURNIFC>::@JPPMD4*).4;@CB?CIOQSPJECHNV^fiiie_XPGDINT\ceca]WVVTRTUY]_ZQF@>@FNTW_a[TOGBDFJMRTUWZ`jpmd]XW\dfba`dehknjjnoopodYOPU^irk\QOMLPRTSV_q~ÉÑÉ|yyzumc`cgknja^]\ahjbZQLKOQVY[]\WQOMPYbeghd^YURPRU\dhfddeimonljjkid\SMECGPY`b^WOGDCDCFHHEDEGHJID@?AGNUZYXVTSTX_a`^XNLPV\cfdfdZTUOOYb``ba[ZZXUTQJB;=HVfw{qeXNIJMOQSRUY[\__^_`^[UMGFFMX_flm?JT[\ZUPORUVY_eeb^XPPTVUSMILRSVXSJJJMS^`]YWSXalomkd\XXVTSRU[cggbXOIKNRX\[YUPNLLRV[diikjghfa\SIGKQZgpv|~~|yxyvtrmeb[QH@<?GR]_^^\Z[]ZSLF>9422:FT]ca[SOKHQ`dcgeduç†¨∞Æ¨§óáwfZVVY\_dgghfb\YVSLHE@;:=FNPNG6)%)/5:=<<AHPUWSOKIMSY]cfghfbZQGDFJMRVWTTSQOOKHINU\`[QE>;?GOV[ad_ZTLFHKOTXYZZ^eotskc^[]bb_]]bcdimijlihhf]VNRW`ipk_XVSOOOPPT_r~ÖáÜ}xwupjdbfinomeba`biib[UPQTRQRSXYVROLOYacfeb_\YYXZ_gkkfa_aflnmjhggeb[TPKHLSZ``]VNGDDCBCEEB?@DGNQNGDACINUVUSQPRV]a_\WOMQW]cebccZTXTU`igfec_\[XRNJC;8=IWiw|zqeXMFFHILPQX\[Z\Z[]][XTNIGGMW[`dbEPY^^ZTQQUY\`ejgb]ULNRTTRMJMTTXYRGFDHNZ_]XVRS\gklmg_ZXUUVWY_ehf`XPLPTVZ[YVUQOKJQW_inmkfaa^ZVPGFMU`ltvy|{zxyzywumd^XPKEDGNV^`]ZYWWYYTNHA:4118DS]caZROLKTcggmpsÉó•´©§¢úëÖxlc_____`cdeeb]ZWTOLKG@=<AJNMI:,%(,2588;BIQWYUSQQUZ_aceghgfaVLHFFGJKJGGIKLLHDDIRY\VL@97=GQX^cfb^ZTQTX\aa_\[]entunfb]\_^\[Z_a`ekgfgb_]ZVQMTZ`jojc_\XQMKKNU`q~Öáá}vtrmidbfjnpogedbdiib\XTVWRNMOUWVSPKOX^aefffea_]^bknnhc`bgmnlifcccb^YXUSW\`eb\UOHEEDCCEDA<<BHSYWOIA?CHORSRPMORX[ZWTNPV^dihbba[V[ZZdjheca`\ZUNHD=78?KZjuyyrfXKA@ADKRU\_][]]^`_ZURNIGGMUUWWRLU[][WRRUZ^aaefb\VOGINQQRNKOVVZZPFDADLW[[VSPQYdjlokb]XTUWY[`fhe`[URX\\]\XUTPNJJQYakolhb[[WROKDEOXalsrrsrnnqrqrog`[VRPLKNSY^_\WUUUWWTOJD<6105AO[bb[SOMMWfjksuyÖîù†ùòïêá~vnkikjhedddddb^ZWTPNPNHB=>FLMK@1)),0346<CHPVVUWY[`ehijkmnkjeZOKHDDDCB@AGKMNKFDHOUXSH=66<EOW]beec`\Z]bglje^\_hpuwogb^\\[ZZV[\Z_gb`_ZVSPOKJTZ^fifcd`ZPJGINW`nzÅÉÑzrolgc_]afmpojhgeehga][XZZTMKLTXYVQKOVZ]bdhklhc^]biklga_bgnomie``adb``^]`cdgb[WQJFFDBBDC?98>HXaaXNA=?DLOPOLKNQVYVQOKOV_gmkebaZW]^_dfd_\]^ZWQJD@;8<EO^kqruoeWH=;=CMW[aa]Z\]_a^WQOMJHHNTQPMDRVUTPMMS[add`_\VRNHCEILMPNLQXY[YNDA?CKV[YVTTT[ejjmjb\VPQSVY_dida^YX_c`^[WSTPMJLR[dmqmh`YVQMLJEGQY_hnjghe`_aabcb[UQOOQPPQTWYYXTRTUVVTPLF>72/3<IV`b\UPMMYhmovvv~ÜâãàÜÖÉ~vqnnnrqlhgecbb]YVTRSSWVPH@=DLLLF8-,-/025=CFLPNOV]dkoqommoolli_UOJCBAA@>?GLNQMFDGNUYWLA:7;DLTZ]^abba`bfknle^]blrvuleb^[ZXWWRVXV]fb_]WQMHGFHTZ[``^aeb[PHEGNW]htz}Äwpmjb^YTV]ejmkigeegd`]\[^]VMLMV\_\WQRUWY\_fmplf^\`ehid^]`glnmic^]_cccfffiiggbZWTLIGEBACB=75<K_ikaSB:;AHMNMJKPTXXSMIHMV_hnmfcb]Z_a`aa_ZXZ^XRLF?=;=DMVcmonpj`SF<:>FQ\ada]Z\]`_YRMKKIHIOSOKF;USOMJJNX_dec]ZTOLJD@@EGKNMMRWYYUJ@==@HRY[]``^agggjg_XRMLNSV\djfeea`egb_\XTUPLKOVagnpmf^VRMKJJFHR\`gjd^]XTTVXYZXQLIJNTWWUVXWWXTSWYZZXSOIB;4017AO[`^XRNNYhoqvsnorqrqqsrplkkorusmgedcba[VRSTW[__YPGBHQRSNA40.--07BFGJIDHR]hquurnllmknnf[ULC@?><;<DILPNGDHOY__TG>8:BIOUWX]bdcefhlold]^dmrtrjdb_\YVVTNPST^iheaZSJCCDITZWXVU\caZPIHKQX[akqvytmkg^WPJKU_ejjgeefgda_\[`]WPOPY`eb\XWVVWX\elplcXW[^be_YY]cimnke^]^ceioqoplgfa[XWQMKIEBCA<52:LbmpgUB98>GKMLIKQX\ZSKDCJT]gljdab_\ab_][YVTX]WOHC=>@GPV]glljke]RH?>AIUaefa][]`a^WOJIJIIJQSMHA4UPKJINV_bdb_YWTPLJD>=BEIMNMPUWUPG?<=?ENW]bhhdcecaca[UQLJLQSZcjhiigfhgb_]\XXQMMT[ejmmiaZTNJHGFCGR^bjjbZXRPSVWXWRKEEHNW[]\^__]\WUY\]][XSOHA93/29HU\^\UQPZhortnd``^^_acdeddflpsplfcab``\WSTUZ^deaZRLPXY[WI:4.+,2=IKIGB>GUdr{|yvojkkilnh^WOEA?>:78=BFKKFFKR]edXL@9:@EKQTU]bbbeceimlf`adimmjea_^\WTSPJMQUamnlhaVKAACJUZSPMMU]^YQOSUX[YYbiotqkidZQH?AMY`ffcbdegdc_\\a]YTRQYahgb_]XXYZ_jprl_SQTVZ^YSTY_elpplfccfhnsurqlfeb\Z[WTSRMIGB:308NclqiSB:8<DHKJJNU_c_XNDAFOXbhga_a`^bc^YWUTRW\VLFB?BGQX]bikjgfb[SMDBDLWcgfa^\_bb\TLFFGGHJQRLF=/TNJJLU^cb_ZVQRQPKIE??CFIMMKMQTQNG@<?@DKT\cklgcb^\]^YSOKHIMPWahillhgfd``_`\ZRNQX_hjihc[UPIFEDCBHT_cig]URNMRW[\ZUNEDGMV\^]_bb`_[X[^^^\ZWTOH?71/3ANW^^XSRXelnpfZROMNPTVXZ[\afiljgb`^][[YWTUV[_eihb[VW]_`]Q@6/*-5BNNJD@?L^p|Çztmjkkiije]VRJEC@9449;?DDBDKR_gfZQD;:@BFLPS\a_][VW]cec`cfikid_[[ZYUROKHMS[hstqmdYMCCFLVYQJFHNVZYTX`aa_WSYajoojhbWK@79GS\dda`bdfeea_`b]ZURQYdmmhfaYX\\`kooj\QPRPSUOIKRYajrusokhhgmqrnlf`bc`_b^ZZYSNJB91.7PbkphQB;8;CHJLOS\fid\PC=AGOYad``cc`dd_YVTTRW[TJGDBFMV\`fjigb_^ZVSLIJQZehea^\^_\VNFBCEGGKRQKE<0VPOPU]cc\VQONQRQKIGFFKLMLKIKOSQNIA>@@AGPZclnf_\XVYZXROJFEILS^fimmhecaabcc^YSPT\agged`WQKEBBA@@HT\agbYSPKKPX^a`\SIFILU\_^_bca`]Z\_^^[YXXUPG=5/0<IS\_ZVTYdjlldVMHEEFILQUWZ^`ab`]ZXWWUUTTSUW\`eijhc_^bccaVG;2,/8FPPLFCGVj{ÇÇ{tia`babdda[TROLIF<43569=<<AIR`if[SE;<BBDKNQZ^[WSKKPW[\]bfghd]XTTTUQNJEELT`pxyvpf\RIKMRX\SKGHJPWWV_jkhcWPT]hmnig`UH=24BMV``]]_aegheded]YROOXeqrnleZY]^dnpok^TUSNOOGADJR[grxyuqkfdhnoomg`dhfehd_`aZSMB70,7QaineNB=9:BIOTY\cklf]PB:=DLWbeccedaec_YVSTQVZULJFDGOX]afgec]Z[[[\XTTY_egc^\[\]XPIB?ACEFKQPJD;0WUVY\aa]RJFGKRVUPNLLNRSQMJIKPUTPKD@A@=@HT_hi`ZUQSXYXROJEDGIQ[bgljecbbdffd^YTTY_bda_^ZSNGA?><:;EQY_d^WSPJJOYbgge[PLNOV\``adfd`\[]_^]YVUXYVOF=409DNX_\XWZdjkkdVMHDCBCFLPTY[[[[WVTSSSQQQRRUWZ_dilmjgdfgfc[OD<79BNVVQMLRbr~Ä{ri_VTWXY\\ZVQPPPNKA84336979?GRaicYPC9;@@@GJOVYXUPHHJOTX]begg`WRMKMPLJEACKVesxxvne^XRUWX[^WPLLIMTUWfsspgYPS]hllig`UH<14AKT]\XZ]_dikhiid\VMJLUdqtpneZX]ahprqnbZZUKJIA<?ELVcpx|ytmgdhnqpnidimlklidficZQD70-:R_fi`KB>;;CKSZacinme\O@9<EO\hjfeec`dc`[YTURW[WOKECGOX\`dfdb[YZ]bffc`abdc_[ZYYXSLE?>?BCFJPOJE=4VX\``b]TH@<?EPX[XWWXZ]]XRNORWZYUPIED@<<CNW_`YUPNQWWXTQKGDFGPY_che``behkhb[VSU\`_^ZXWVPKD>=<978DOV]_XROLIIO[flonbWQPNSX[]_add_]^`a_[URPUZZUOF=7=FMV_]YX[eikkfZRLGCA@ELSW[[WTRNOQSUVSQOPNPPSW^ejnmjijifd]TJFBDKSWWUTX`mw}zpe]SLKNNORSQOLMORSQH>:535756<CN\d_VPC:<?<;@ELSVXXRJIHINU\bfff^SLFBEJHGC?ENYhuvsoha`][^]Z\`]WTQJJRV[n{{ul\TW`ilkhgcYM?46@IR[YUWZ]chlkmjbXQGFJSdqspmbVV]bjtvutjcaZNJG=9;AHSamu{zupkfglnnmjhmqqqrojlnh_UG91/>Vagh\IC@=<DLU_hkpqnf\OD?ENXeooifda_ddb`]XYVZ[WOICBFNVZ^cffc\Z]bjrtpkhec`_[YYWSMHA<;=>@DIOOJF@9Y]adb]UJ?869@JTZ]_beghf`XSUY_ba^YRLIB<9?GOWZUSQNRWUVTPJGCDFNW^bfdabfjkke\URQW^_ZVRPOOLF@<==:9<GOTXXOJIHGHP^jqvtgZTPLPTWYYZ\][\`cd_XOJHOVXVRKE?BJPV^\YX\eiikg\WQJEBBHS[_a\TMIFJQWZ\YTOKHFFIPXahmnjhheb`\VOMKKNSUUWY`hptvocXQHABEDEHKJIGILPTUOFB;646226=IXa`ZSH=;=96<BIORXZUNLGEKS[bfff]QIA;>BBC@?FQ^luqlf_]````\Y\cd`]VKKQV_s~}xn_Y]dklihhf`UG<<BHPWTQSVZ_fjlnj`ULAAGQcpqnk]RRX_juxxwpkiaUOH=8:>FQ_hputplicdgijjikpuuvurlklf]VI;33CXafeWGC@=<DLWcmptqjaVLFGOYbmroieb]\`___`\]\^[WPHCEKU^dfhhga[Z_fq{{smhcab^\[WPIE@<;<=>AGNPMKFA[begbXLB9447=FQY^dimmlh`XVZ^dggc`[VPH@;>DKSWUUTQTXSUUQKIECENW^bffehnpnjaXRRSY^]TNIIHIGB<:=>=<@HNQSOGDEEFHR`kqvqcXQMIMRUWVUVXW[afhbXLD@FOTWVRNIKPSX^\YY\ehijg^YVNHEELYbee]QGC@ENW]a_ZSLGB@AGOYahkhffc_^ZUQPONPRSUZ_ekoomfZOHA:9:;<AEEDBBDJORRLHB:54003:GV`d`WL?:9649@GLOW]\WTMHKRZ`cbc[PH@99=>@@CLV`lqkd_ZZ^`_]YW[dhfbWKINS_t~}yo`\`djjgfihe]QFEGJNRNKLPV\bfkli`VJ??EObnonj[QQV^juyyvqnmg\UK?89;BN[cjomjhfaabdghinsuvvsplmnkd^QB78GYbebSFCA><BJUbmruph^SLLQ[elqsngb^ZY[ZZ\_]`ab\VNECJUbntrpnjc[Z^gsÄáÉxpiddfca_XOKIC??=;;>EOVVUPIYafhaSG<4125:BMW_iopmid]YZ_beedb`_[VNG@?CHNTUXXTWXQQRNIJGDFNV]begimrqke\URTW[^YOGCCBCA=66:=<>CIMNMG?=?BDHT`jntk]TOIHLQTVTQQSSYcjmh\NC=AJQWZYXTTUVW[YVW[cfggd\XVOKJKS_eeaUI@;9?KW_dd^WQLFA@CIR[cgfegc][WPNNOOQSTX]bfkkhc]RHA<6459<AFFB?>?CHMPOMG>63..27DS^dd\RD<8526=DHKT\`__XQQTZ]_^`YQLF><>>BFMV_elle]YUVYZXURT[dihbUIHLRbwÄÄ{pc_bdhhefjjidZPOONOPJFHMTZ_chhf^SF<=DM_kjjgWNQW_lxzwrmlli`WL@9::ALZ`glieec^]\^abdjnpqqomlmpnjdWH<?L\ce_RIFEA<@GP]inokbYQPU]fmpplf_ZXXWXWWX[\`dd\SJCFSany|wsplf^[_epáÉxohbcgfdbZQONGEE@:9<DQZ\]XPYahjaSE91/148?KV`kpojc]YY]`aa^\[[\[WRLFDGIMRUYZWYYQMNJFIJHKRX`dgjorsog^WUUY\_]WMD@A@?=700489=CHIJF@:9;?BIWcimqgYRMFEJNRTQNMOPXckpmbVKDDJPUY[][\\YWVTQSW_ccc`XUSOMNQX_a^UH=7339EQ[bea[UQKFCFLT\dgddfb\XQHDDFHLPSW^abeea\XMD>:644:@CGHA=<;>BHLNNJA82-.27@MX`c`XMC=968<BFHP[bfie]ZYZ[[[\XSRRKGEBDKU`gikg`XSRTUSPMKP[dgf^PGGLVh}ÖÑtgccceffhmnnkc[YWUUSNKNSY]^`dea[QD;<CL]hghdUMSZbozyrliikle[MA99:ANZ_gjgcc`\ZWXZ\_fknoonljlnnli]MCHR`fe\RKJJE>?EMYdiid]XTV^ejmmib[UPOQRSSTTV[aff^SKGL\kw~Äwrnjf`[_emzÖÄulfaciihg^TTSONNF=89CQ\`b\SYbjleVG:2/158=HS]inlf^WUW[\ZXTQQTVVTRNIHJLNRVY[XZ[QJLHCHJINTZchjnsuslbWQUX]ab]WMD@@>;71)*.259@EGHGC?>?ADL[eilncWRLDCGLOROKJKLT_fmme[SLJMQTWZ]^_]ZUROOQV^bba_WTSQPSWZ\ZTH;3.-/4<FPX_a_[WSMJKPV]cea^_\WSMC=<>@FLRVZZY[[ZWSJB<:877>FGKNF?=<;>AEHJHB:3-/49@JR[__[UKD@=;<AEHP]gnroh`\YXVWYWUZ^ZTMFFNZfllke]UOMNLJGDEP]egdYKDHO\pÇàÜÅugb`_beimrrrngba^ZXSMKNT\``acb_ZPF=<BL\ffgcTOW\eqwsledgjmh]NB:9:CPZ`hic_]ZVTQTWY[djmonkgehmpqncSJPXbgcWPMOOKCBELWacb^[YWZ_aded_ZUPKJLLNNONPXahjdYPNTcqy~~tniec^Y]civÅ}unhceiikkbZ]]Z[YOB:9DS^cc[QXclpk]N@9569<>GQ[fliaYSSUXWRLGCCFJLMNMJIKMNRUWYWY[RLMICHLLRX^djlnstne\RNUZ_bc]WNFBA=93,&&)-06<AFKLLKHFDFO^fgkj_TQJBAEJMPOKJKLT^elnibZSPRUY]`ccb^XSNLORV]a__]VSSQRUVVSMD:0,+*,.29DMYaa_^YSPQSX]ab_ZZZUTOE=;:<AIQSTTQRTVRNF@:9:::CMNSYRHD?::<>ABB?:3.07<@GMRWZZYRLIFABFJNT_iottlc\WSRSUVZdjg`UJHP\inlid]UNIGDB@@EQ_ee`THDKUbuÖâáÅtf^[Y^ekqutrohffb[XPHFKS\bbbb_\YQH@?CM[eegbVT[ahqrmfabehkf[NB:9;DS]cjib][VRPLOSUX`gjlkgbaflrtpfXPW`hkeVPMQTQIHIMU\]\[[[[]^\\\ZXWTPLIJJKMNLLU`gki_WTXclqsqkhgggb[^ciu}wohdefhkngafhddaSD;<GV_b_VKXepuseUE=;<>@BIS_hlhaZWXYYTLD=868<>BEGFFIKMORTUSV[TNMHBGLPW]afklmqqh`YROX]acb\XQIEA;60(%&),/38=DLQVWSNJITaggkg[ROE==BGKOOLLMOU^dknlga[WWZ]beggd]VOJJOTX_a^\[UQPPQRQNI?6.))))**,2=GT]^\\WUUXY_deb_XVXUUTLC@=;>GOPPPMLOQOLFA;;<>?FQSX_YNHA9889:;;:83.19=@EJLQW[]YTQNJIOSUW]chmoiaZTOOSUX`ltpi[MIR]hmkgb\VMGC?>=?GT`fe^TLMU_l|àâÜ~obZUV]dlsvsqnhiid\WLCCJT^edc`[WUOHCDGN[cdeaWX`ekokea`bfgjcZPE=:>IXbhmjb[XSOMKNRSU]bfijgb`cilnkcZXcmvyo^UORWVQPPPTXXWWZ\\\ZUTUSWXVRNJIIIJLJJT`imnf^YY_dedb``bfhd]^cit}|wpiecdflplhnnjjdTE=?JV[[VLCYgrxxlZJBABDHJNXbilic^]^][TJA9312469=?@BDGJLNPSSV\WQPLGLQV^cglonmpof`\VT]abbc^[UOHA94.'%),/1469BLT]_YSNKWdggjcWPM@98>CINOMMOQV]agkmkhb^\]_dgjie]UNIJRWY`a\ZZTPNNNMKE=4-)(++*)((.:FT\ZWTPPTY\dhfb]SPTSVYTMJE@@FMOPRNKOSSRMG?<=?@EORXa^RKA7554443442/2:?BEJKMT[]]YVTPOV[\]`abdfa\XQLNSV[frxtj[KGNXcgfdb]XNFA=;<AJWbfd^XTW`juÉãâÉxh[UQU]dmsspokgihbZTJCDLV_ged_XSQLJGIKR\cdfb\^fjome`^`chihbZQGA=BO]glnh_YUPLKILPQS[aejkga_aehigd`er~ÜÜwcULLTXXYYVVWWUVY[ZZVQPQPX[YUQIGGGHIGJUclqrlc[YY\\\[\\adfb\\bjt|}wpjfcdgmqnmrsomeTE=ALUXVOD>WcnvyqbSLLMOQPSZdjmkgddfd^VLB94012359:;=?AEILPUX\ca^]YSTUY`glqrnlnngdb[X`dbbea`\VNE:4.((-146768ALVab[TNLYeecg\PLI;55:@IORQQQTW^behkjhda`bfkooke\SLJMW[\a`[Z[URPNLKE=5/*),//.,*)1>KW]YSNJKOSU^da]YNINQVZXSQMIGMSUXXSPSWYXSKB>>ADGOT[bbWNC72110/012213:?BEJIKQXYYXWUSTZ]_a`^[YZWVSOJLRU\juwqfUFDKT^dddda[QHB<;>EOZada\[\`iqyÖäÖ~p^RNNT]cjomjkjhkiaVPE>@HQ\efd^UNMKLNQSW_ccfebejloi^Z[]bhhf`YSLFCIVdlnle[UQMIIGJNOQX^agie`_aceggilvÉåèäxeUKJQXZ_a`]\ZVUVWWYVSTSRZ^\XSLJIIHFEIVdortof][YYZZY\]bffc][ajsz|wojhddgknmouvpkaOA=CNVWRJ?9T]hpusj^XYYZ\\\ahlmjhfhkibYMA93001346779;=CIMRY^cjljie_\\_ejprpkjlmihfb^dgdbcaba]UJ=5.().58;;99AJT_`[VRR]fc`bWKHD5/04;ENSTTUWZbhikmkhdbcflqusmcZPJIOY]^b_[[^[ZXTPKB80,*-3997410;HR]_WOKFHLNOX^\YUJEINTZYUTQONT\_a`ZVWX\]XPIDBDGJPV[_aXLB70...-0234437=?BHHINSSTTUTTX\]]\VQONQRRQOJMSV^musl`NAAJR\bbccb]TLE@?BJS[^_\Y]dhouyÇÖxiWMMOV]afhgfilmqneZQF@BIQ[dgd]SKIJMRXY[acdhighklog[WXZ_ghe_ZVPKIP\honjbXQNJGGGJMMOUX\bfdbbaa`dgnxÖçíêáxk]OKPUZbkjea\VRPPSWWXXVT]a_\WNKJIFCBHUeoqqmc\\ZYZYY^bhlkga]`jrxyslihdfihjlouvnfZH;;ENVVQG>9MT]elpka[[[^behknomihhiljcYMA9301245668<@DJQU[agjmmnonifeehmstpllmpponlgjkfbcbeeaXK=4-().7=@A@=?GPZ]]\\]ejd__SGE@0+,19EPVXXYY\elmnqmifdeinrtph^WQMOV\^_`[Y]abdb]VOE:4249BHGE?;<GQ[a_VPKHJMMNU[ZVQGBFLSWVRQORU]flmib^\\ad^XRJDDHJNTUVXRG?7/,,-.4999944:<@GIINQNOOPPRWYWURKHHINQQQPLQX[bosoh\JACJR]aa``_\UOJFDHOW[[ZWW_jnswzÅÅ{tfVQSV\^_abbchmsxulaVKHKPV_gie_UMKMQVZ[\behkmjjjknh\XZ\_hjf_[VROOValokd]RMKHEHKPSRQTUY`fdccb`^bhräééá~smaUNPT\httld^UOLOSXZ\YVT]ba]XPKJHD@>EVfproi`[\[[\[Zadhkkga^aiottniihgjjghjouukaTD9<FOWYRJB=DHNW`ije^\\`ejnnnnkhihfhf^VMA82/036899<CKQX`chlpnljmsurolghnttnllmqtrrpklleaaadfc[M?4-(&*4>BEFA>DMTY\^^bhkd\[OD@<,)-3;HTZZZ[\^gooprokhgiknppj`WSPQU^``]]VV\bdjje^WNE@?@FOUVTMIJRX_a^WSPNNOMMQVWTOEBDKPQOKIJS\htzwpgc``gkd^YOECFGJPPOROF@8/**,.6==<<527:?GKLPQMLLMMOTSOLJCDGIMQQRQPTZ]dmokeYIBEKS]`__^^\WROLKOTXYVTRS]hmptw~{vpbUTY[^]\]]`chox|xodYPNQUYahie_VOLNQTXYZbfjnokjiknk`[\]`hjgb\VSQRYcmlg`WMIGEEIOTXURSSW_dbbcc`_ejtÅàáÅvmhf`YSTXbozxnd[RMLRX]_`[USY]\YTMHGE@<;DUgprnf\Y\\]`__ehklkhb\_gkonjhiijlhddfkqpf\OA8>GPY[UMF?=>BIS_ffb_]^binmmligigdeaXRK?61,-38:<>BMWbluvwutmgektwtrnfekpokkllpusrpigf`]]]bfc]RC6/)&(2>DHJE@DMT[_aafjlf_]PD>9+*2:COY\\[^^`iqqqqmiggjlnoldZRQQW^ggc^[TTZagprme^VNJJMQX_`_[XV[]_`_[YWUTSQQTX[ZTLHHLPOJFBEScsÅÜ}pgcacjmgaaXLGIGIMNLQPHC<1,+,09BDCB<6:>DLQSXXUTTUTTYTMGC<AFIMPOPQSY]^ejjfbXJEHNU^^^_]^^ZTSQRUXZWQMLMVagkpv|xsm`UX\]]ZYY[aejs}Ä{sg[RPRUYciid^UPNPPQTUXchmpojhfhkia\\\^fjge`YUTTYclje^UKFDCFLSY\XTTTV\a__bdabgks|}wma[]a`^^^blw}ymaXPNPX^acb\UQUXXURKECA<98CTgprmcXUY\`ffgmoppnib[\cgkihhjijjb^_cgnlbWJ=8AKT]_XQIB><<?IT^ba`^^binmnmihigeb[TNH>72--4:?AFLZixÇàÖvocYV`kqrsoheikjfjnnrvsqnfa^XUVZ`ca[PA5.*'(1?GKMHCGPXadfejmnicaUHA;04>FMSXYYZ__biqppniedehjkkg^UPQV^gomf^YPPWbkv|wne\URSVX`ghhfcab`accba_[XWTTX[`b_XSPQROKGDGWiyáà{ndabelplikdXROJILLMSTPMG?:9;?GPRQQJDGJOUZ[_`^^_``_a\SJC<BIMQRPNPV]_`dfda_WKIMQX_][]YZ\YRRSUY[[WPKJKR[cgmv{uqm`X^`]ZWVW\cflu}~ypdWONPSYdihc]TPPPMLMNUcjoplfffiljb]\\]eigfc[VUUZcigd]TLHDDIPX`d`]^\\_a^_bedehjmpkcZST[adefglu{}vi\UNPV_bccaYRMPSTRRIA><877DUhsumaSPV[bkmlpqstrjaXX_dhhhjlkif][]agli^SE;:EPYbc\TLDEB=<@HPVXZ\\bjmlmjhhihd_VOIF@;5007=CHPZk|ãíïçÅshXKHUckqurmknnkgknptvspj`YTONPV]_\WL?50,*+1>HLMJFIQZceddgjmlhg\OGD<BOVYZYVVW]`adiggdb_`cfgigc]VTW]fpupg\ULJOYdqxyrjb\ZZ\]bgiklkjiedhhhhe]YXVX\^dgfa\XVTOKIGK\oâáykb_bgosonpi`]ZTQRSW^``]XQMKLOW^a``[VWY\aefiihfddccc]ULC>CJPTTQNPW_`acc`a`YPORV\`[X[WX[XONOQVYYVPKHHMT\agrxpmk_Y``YVTSV\cflv}zsj\PJJMR[glgbZQMNMJGHKUcknlgabeikjc^\[Zaeefe\VUSXafed^UPLGHMT\fljghebab__bgghifd`YTRQX`cehinv}}sdXSPU]ffed_WPIIMOOPH?:8568GYlvwl_OLT]fpqnooqrpg\TT[cgiikkifaXXZ_eje[OB<@LW_dc]WSMOLFA@BGLPV[[aikijhdfgda\VOKJEB>98>CIQ[hxÑêîíà|m_NCCSaipvsrpqmhcgknrsqlcXOIEEHPWZZWMB:73103<GJIHJKR[ca]\^chkjjaVOOJQ^dda[SSU[_aaa^]ZZZ_ceeea]ZXY^dlstneYPIFGOYfqutnf`\[]^bfhjmnnlhfjlkkh^[[[]`adffd`\ZWPMLKQasÅáÅuh`]`fnpmmnjfge`_`bgmnnkga_]^_cgiijgccdejnoqrojgda`_[TKC?CHNTTQPTZ_]]^\\ab]VWY\`_XUXVX[XMJJNT[^\TMGEGMUY`mrjig[W]XQPPPV]cfnvztlaSHEEJQ\hke_TKGGGDCFLVdiie`Z]bgihb]YVTY_aee]VSRW`cde`ZYTNPSW^gmllmjfedbbcgiihe`YSSTZbhhjknt|ÅÄ|qcWUUYbihgfaWOGEGKMNG=7556;K\oxvj]MLW`jrrmllnpmdYQRZdjlllif`ZRSTZbf`XL@>DQ[bda][ZXWVRLFBBDIPWY^fihihcca_^\WTPNKKJEDHIMWdp|ÇàáÇxnbUG@EUbhotrttslc]afkqrpj]QF?<=AKTWYWOHCBA@>>BJMJJPSV_e`YXZ_fjkje]XZX^gkicYPORY]_][WTRQT[`dcaZWWY]ciotqjbVMHEDIQ]hoqnf^YY\_dhhikmoomkpqoola_aaddcaa`a`_^[TPOOVdtÇ{pg_[[aghgjkjlstrqrtyzwupkggfffilmmmjfdegmqtttoiea][YVQJC@CHMRSRRX^a][ZXZbd_\__ad_URVVY]ZNJKR]imi^RHDDGMS[hoigeYVYRLLNPV^dhowxrj^PGDEKT`lle\PFAAAABGNWbfc_[WZ`ded`[VSQSY]ac]UQRW]`bb__`\VVWY_glmopmjgfdccfikllf\XY[cknmnlpu{}yqf\\[^ekkjibXNFCFLPRNF>:98>N_qxui^RS]eknlffgjmlbYTU^ioqokd`YRMPQW`c]UJ?@HT^cc`]^`b`b`YQHBACIRY_gjijhc`^\]][YTRRVWRQQMP[gsz{ztmc\TKA@HZdinrorrph]V\birtqi\NB:67<GPTXWPKJKMOONNRTQRY[\be_VUW[bgijhdbb`dilicYPMPW[]\XROLMQZ`ca\TQTX`gmrsoh`UMHDBCIU`ioof^WVY^dhhhikpsrsxvuuqgdeefb^XVTXYZ[[WTPOVamvwrlhb]Y]aa`ghjr~Ä}|}~zunjgiiihhhhhgda^_cjptsqibZUPNOOLIC@BFJOPRU]cd]XWUXdhbadacd]RNRUY]]URW^hrtnbVJC@AELWcjgebXVWNHKMPY_eiqxxsl_QJHIR[gpne[MB>>?@CJPW_`\YVSX^bcb^ZVSQRUZ]_ZSORW\]^]\aec_^[Z`hmprrnkhgedcdgknpja^`bkrtsqnorwzxvrh````fklkhaVLDADKQUTNF?;9?PasztjbY]eiif`Z[_chi_YX[cnssoia\TOMPPW__YRHAENYac`]]_chbhhd\PE>=?HS]ejihd`^]\^aa^YVY_c_^YRT^gquohc\RNJC=AM_hjmolonlbUQX_gsvrj\NA7339EMQVUOMQUY]_[X[\Z[ab`bb\SQRV]dijkifdaacghe^TOPUZ]\XPKIMR\bd_XPMQXaipssmf`VOKHC@AJS^imgaZWZ^cggeehotvx|{z{vkfdde`YQKGJMQTXXUPNU[dlmgddb]W]a`ckmmt|{yxx{~{uoe`^^_a`_^][YXVUX_goutof[PHBCFHHF?;<?BGIOXagh`YWW[gkgfhded[QKPV[bd]Z[_enqlbWKA<<>FQ]dd`\SQPIFJMRZafksyywocWQPT^gpupeYK@<=>BFLQUYYUTSQV[]^_]ZWVRQSWXZVPMQUY[ZX[djigd]Z`gknnkhfeddcaaejnqlfehksyzxsonorxwuqjbabbeikjf^TKB@CJSXZVNF@;BRcvztmgafjga[TQUZ]ab[X[`hrtsog^XPLMOPW][VQJFKS[`_ZXY]em^glmg[MC><ANXbhheb^^`_`bda^]bjnki`WX`elj`YUQKIFA>ETdkjjided`VMLW`isxvnaRC7207CKMSRKKUZ`fidaacbdhjgeaZQOPSZafgihc^[YZ`cd_XQRWZ^_[SMJNU]ce^SKHLU^gotsmgaWQNKFA?ELU`gea][[_ceecbdkpuy|z{ztjd`^`\VNF?@CHMSVVUU\_bee`^_`\W`hjovuppqmhhjprnhaUPOPQUWUSQOMNPRV_gpvumdYMC@CHKKH@9:;<?AJUahh_XVW\imklnihd[QKPX^dhb]]^bjnjbXLA;99CNZab[UNLKFEINS\cgmtxxxrh`\[ajpvwobVH>;<>CHMOPRQOQTTX\]\[ZYVWURSUUURMLQUZ]\Z_hllje\Y^dfhhda``_^][Z_fmqpnopqwyzytnmmovxuqkcbccdfhgd]SJB?AJU[`_WMD=CQbsxtqokmkbXPKKQW[^_[Y^dkrsple[TNKLOPVYWSPKIMSX[YTRTYakZdlqofYLB=@KV`fgfb_`b`_``_^`hrtrmb\^begaUNKJFFFDDL\jliie]\ZUNLP]flt{xqeWF9208DIMSNGIUYaimifeghknplg`XPLLNU^dfge_YURSY_b_YSUY\ac]TNKPW^cd\QJHLT]emrqlibYUQNJFADHNW`ba_\ZZ]^^]]`gmty{xxvof_XUVUQLE=:<@EMSVXZaddeea_bdcbltvz}zrmh`XVX`d`YSGCDGINOLJHDBDFJQ\fousjbXKBBFLOOKB99<;;=GQ]gh_VWY^jommnhfaYRMS[bgic^[[]adc^VMB:77BPY_aXPIGFDDJPV^einrvwyvpigglswzwm`TF;9<?CHKKIJJLQVX[]\YVUUUYXUUURQOKKOU]``_chkjibYVZ^ade_\[ZXWVUTZckprssrruuvuplkiltvrnib^_aabcc`ZSJA=>HT]dh`VJ@DP`rxwwupogYNFCENUY]_ZZ`einlhfaXRMKKNPVWTQPMMPTVXTNKNQYdW`iqsncWKEFLWaefheccd`_\[YZ_kuwumc_ceec]RKIHCBCDGQakjggcZWVQMQ[gosx~|uk[J=42;FJOTLBDOS[ekfedfhlqtrkaWOIHLS[bddaZSPNOV\`_\WZ]`dd]UPNT[adc[QKKPW_fmqokibZXTQNKFFGJQY^aa^ZXWWWWZ_fnuzzuusjb[QLMNOMG@;89=CKQW\ceeeebbeknqzÅÄÄÄ|sj_QFBENTSQLCBFIMRSPNLGCEFLVaisvqhbWKDFLSWTMB98>>>?HQZdh_VX[_kqnmkd`\WTRX_dfga[TOMMQUWTND;77CQZ]^TJCAAADKRYagiloqsvvrpprv{||vk^RF;9<@DHIFCCEIQWY[]ZURPRTZZYXVRPMIKQZbfffhjkjg_VUX\`ec]ZYXUTRPPW^ejnrsqqqpqrnjhhkrurle^Y[___^\ZWRJB<<FQ\die]RIKSaryxyulg]ND@?CLTX]_[[`cdge``^XRNKJLNSSRQQOORTUVPIDFIS^QXblqqk`UNLNXbeehd`ab^[VSRW`lwyxphehgd`ZQKIHDBCGLWfljfgc]ZZUSXeqwz~Å~yo`OC;9CLMRTJ>>FKS]b]\\]`hoswqeYOGFKS[__^XQMKJKRX\]\Z^_bfe^WSRYaffcZQMOT[`flnkgd]VUSQPNJIHHMTY]_\ZWWXWX^dltz{zrome[TKEDHMLHC;656;AIT]ehhffccekpvÜÖÉÄ{o`RC87=IPPNLEGLPSY\ZYYSNOPU^gmssnidZPKNSY\VL@67@EGHPUZ`d]VX\`lqokia[XVVV\chfcZOD<9<BLSSNF;56BQZ\\QF=;=@DMU\bfhjkmosrqqtw{~}yrh\RF;9<?BED@<<@GQWY[\XQMLMRZ[Z[WROKFKR]gmmnponkeZRTW\bg`ZXWUQQNLOV]ciossrqnlmmjecehotrje]WY^]\ZWUURLD==FQ]dhfaYSUZgtyy{sh`TE=;<@KSX]_[[`a`ca\]]WQNKHHLPPQRRPPQQQQLD?AFP\NS\fkomf\XTS[eghjd_^]WUNHKWcq|}zrkiieaZSMIGGFEIOV`mniggea`_\[dnx{}~Å{rdVMFENTSWWJ><@DKTYVTTVYaktzuhZOFFMT[\ZXRMKJJJMRWXXZ^^`dd]WTU\dhgbXPMPV\`fjjec_WRRPPPPNLIHLQWZ[YWUW[]`hov|~}yoge^UOHA>CIJGC:20249AMW^cecbddfjqv~ÉÇ|vnbSH?89AMRRQOKNSWZ\__`b_[ZY]cgkoljif^VRTW\]UH=47DMSW\]\_aYTVZ_lqmgc[TRTWY_eid]RG<436<GQTPI>77ET^_\PE<;>BFPX^cffghhjnnprwy{zyuof\QD;:<?AA@>;<CKSX[ZZUNIHJPY\\]YSOICHP\hoqrromg`SLSX]eh_WVURONKKPW^ekpsqqpljigc^^cgnvtlf^UW[YWVRQTTNG@?GR^ehfc]Y[_ktx{~ui`RA98:?IRX^a]]a_]`^Y[]XROLGFINORVVTSRPOOJC?BGQ]KNU_djje__\Y`hjjme]ZWQNGCHWetÄ|rlifa\SKFA>?ACJU]gplffffffecektyyxy|{zseZTOOX[X[ZMB??BHOVTQQRRXcnwuhZNFGNUXVTQLKJKKKLNRSTX\[]`_XSRU\ehd]TKKPW\_ehe_]WPMNMMPRQPLJLOSVVTUW\dinv|ÇáÖxnc_\VRLE>?CFDA90,-.29CKQV[[\adhlruzyulf_XNIC@@HRVUUTSV[_`aabfifb^ZZ_cfgdehga\YWX[[PD:37GT^dhfa_`XSV[`koi_YQJKQVZ_dgaXOE9214:FRXUOC::IYcb]RHCBFHKRY`dededefijlqvyyxtpjbZQF@?@AA>>??CNSWZZVUOIDCFNVZ]`ZTPG>DMYdknnnmjc[NHRZ_gi]STUQNNKLT[bgmoqnomjhgd^Z]chnuske]TTWSRRMLRTPJECIR_fhge_\^alty|~sg\M=67:?KV]cga_c^[_`Z\_ZSPKEDINRW]][XUPMLICADHQ]FGMUZadc`b_^cjlmmd\VRNMFCIWeuÄ|tkd^WPHB>;;=BGNYcknideehlmmlkmqrpqswyztg`\XX``\]XMC==BGMUTRRSPU_kvvi]QGHOSSPLIFFGIKLLMPQSWYWXWVSOOT[dfbZPHINV[^de`[WOJIJJKPSTTPLLMNQPQV\epw|ÑäçëçÖ}sf_]XTPI@<>BA@:0)(),2<BFKOPSX\adhimkf`^YTMJGFFMUXWYZZ]`aaabdjomiea_bdeb]aiiec`[Z\YM@728GWcknia]]WTW]bjkbVPIDHPVY\`a]UNF:2/2:FT\\SG=<K[dc]TNJKMLLQY_defgfddeegntwwupke^XPIEFHGD@@AELX[\\ZSQKE??CKSW]a\XTI=BJT^eggikh`VIDQ\ckl]QTUQOOMPY_ehllmkligeda\Z_glouqjc[RQSQPOKHMPOJHHLS_ffec]\^cntw{{ocXI;58<CN[chke`b^\bface_WQKEFLSY^a`^YUNJIGBCFJS]FEGLPX]_^a__cjmmj`WRPOPLKS^iyÅÄ~vj`WMG@<:;>BKTZcjomhdeejoqrqonmjghkpuyukedbahfa^WNG@?FILTURSVSW^itui_ULKPQOKEB@BDIKMNNOQSUTQQOOOLMRZdfaYNEGLTX]ab[VQIEEFHKQUWXURRQOOMNV`n|ÖãëîñòíäÇyi_\YTPKA98=>=90(%&)/9@DGJKMQTXZ[\a`]ZZTPKKILMSX[Z]`aceca`adionkhfdege_Zblommf^[\VJ>617FWdmpj_YYVV\bgli^RLGDJRVWYZ\\VQI=2/2;GT_aYLA@M]ee_XUSTTPNQX^cehlkigebfnsuuqkf`ZUPLMPRPKGFIOXacba^XUOG@?BIPV]d_]YK>@FNX`ccfhe]RE@N[dmnaVXWSQRRW^chillkjjgfec^[[cmruvqiaYQNONNMIGJNNKHJMR^dc`]WW[cmsw{{qfXG<69@HR`hjkd]_^^elhhibYRMJLT\bdeb_YTLHFEBFKNU^LGDDIPV[Z\[[_eikiaYTSTVVYagmz}}wi\RF?;76;AHVbfkooiedediprrtsnid__bjqwvnjhfejgd_XRLDEMNOWXSSWTV[enqhaXPLNMIE@>=AFLOQQOPQTSQNLIJKIKOXac_WLBEIQU[^\VSMFCDDGKRWZ]ZXXVQPMPYgwÜêñôôôöíäÄvf\ZZXUQG;7<>>=820148AGJMOPRTUXYWV[ZVUVQOMNMQSVZ\^aegiifc``chmkgedcfih`[dnoooh_\\WK@869DS_ehcYSRRU^gkmh]SOLKPVWVVUX\[XQB405?MZce]PGGR^eda][[[YTQSZ_bejnmjgcbgostsmfa\XUTUZ^a^XRQT[clnmkhb`WMDBBGMT]fcd`RBBGNV]a`ac`YNC>JYbjlcY\\XVWX\adeeghghheffb^\^fpvxvqj`XQMLMNNLKLPQLIKNP[ba^\TRW_ipwzyrhZI?9>FPYekkjb[\^`hpmkjcZTQPS\dhigc`YSKEBDCJQUY`PJDBDKSYYYYWY`egfb\WW[^ahmmpwyx{vhZN@:754:CL\jkmolfefgdhmnptrkd_ZZ^gnstoljhgkhfbZUOGGNOOVWQQVTUY`gmic]TMKHC?<;;AHMPRRPORUSQOLHIHFIMW`b]VJ@CHORY[WROHBABCEIRY]aa]\YROPUaqÇéïôõöôôèÑyn_WW[\XWNA;?CEFDA@ADHOTWXYZ[[[\ZVTWUQPSQQRSQSTVY\_dikmljfdbdhkhcaaadjg_]foonnf]\\WOF?>>BMVY\ZQKKMS^hmlf[TQRSX\ZVSSXadaXG727BQ^dg`SKLU^ccda`a_\VSV\^aejonkhdcjrutrjb]WWVX_gimke^]^djrttrokhaUKGDGKQ[ggjh[KIMSY`c_`b_YOD@JV^ef^X\]\\^]^``_]accedacc`^_airxywrkaZUQQRRQQPQSTNHJMMW_`][ROT]envvqkcVJEBENW`imjf_WX^cksnif_WSRTZclnke_[TOHB?BFNW\_cVOFABGQZZXWSRW\__`^ZZaeisvrnopqvvk\N?6333;FQaonnmicfijdhlklsph`\WX]elqtronkjljhc\VPGFLNMRRNMTSUX]bjjgaYPIEA>:;>DJOPPQOPTWTTSPLLIFINXab]VIBDIMQXXSPLE@ABCEIQZ_egdc`ZWY_kyâëñôôóñîäth\UTYZXWRGBDHKNONNPSW]`a```aaaa^ZXWUQPTTVWVSSRTX\agknpnljhghjmjecdcejg`_ipolkbY[]XRLGHECJNOSSLFDIR^hnld[VTUW\_^\Z[akni_P?:?JWbehbVOOV\_bgd`^ZXUV[`_aekpomjffnttspg`YTVVZbjkqqokhfimruwvuttnbXPJLQT\ggllcURV\_df`_b_ZRJFOZ_cc[UY[]_a`^^\YX\_^a`]^`^_adjrwywrlb\YWWYWTUWWWWPFHLLU]^[YOLR[dmtogb\SNNMPU\aghb]WQT^fmsld_ZTRTX^goojc]YTNG@?FLU`bbd^UJBAFP[\XUOJMRVY^_^_flrzztmgilrvpaRB6223<HUdonliecfjkdgihjrnf_[WX\cinrrqpnkljhd]WPGEKNMONIGMNPRVYbhgc]VLGDB@CGLPQNLLLNRUUVWTQNIFINY`a\VJBEILPVUNMLFDFECEJRZagjjjhc_bgrçìïóïêéäulcYTSWXXXVMIJLNQTW[^cgkjheabcceea_][WRQTVX[ZVTRUX\cimqrqponnnnokhffegjfabkqoljaY\^XVRNPMFJMLOQJCAHS^glic]][[\`bcbbciquodVGCIR_gghcXQPU[_fmh`[WVV\bc__bhlmmjhksvusnf^WRUV\ekjorsrommlpstuvxzxpg`WVYZ^gfkmf\Y^dfijb_`^YUPNWabb_WQVZ\_a_\YXUSX[[]\YZ]\_achmtwvsofb`^^^ZVX]]\[REFLMV__[XMIP[cmsi_YRMNQTWZ^aaaZTONS`jnph\URPPT[ahmlfb`_ZTJBCMT\efcd`XNFDHQ\_[WQJKNQT\_`dkotyvrjcejoutgZJ<545=IWemnlhdehlmgijhjqlc\XVX\afjoqsrollifc]ULDBEIJKIDAEFGILPXaec`]TNMMLNQSROLJKLOSWX[ZWSOHDHMW^_[TJDGJKPTQKLLHHJIFGKSZ`gklnljgjnvÄåíìïëâÉ}rid^VTUWXXYYTQRQRVZ^ejortqlgbaabddaaa^[URSUY]]YTRSV[binsuvvutsrqpnkhhgggc_cmrrojaY\^[[YWYULMOLNPKGFOYafifbacaabbbcbcejruodXKHNWbjjgcYPMRY`ioh^XVY\dhe__`dgggfhmstrnjc]VRUV]eheimrsrokgkmmnpswxtnf^\^\^ddgkibbglmlja]][XVUV_jie^SLPTW\]ZXUSQNQSSVVUVYZ^_adgmqrqnhggghd]XZ``^\RCEKOXab]XOLS_hqqcUMFELT[^_`_[ZTNLOUdnpneWOMMNSZ_ciiccgga[OEGR[`eebd_ZRNLMT^`^]YPPQPQZ^`fnorsomf_bhkrtj_QC<::CP[gnmjfdgjnqkkkhing`ZUTX^`chlnsuqmkfca\SIA>?CEGEA>@@ACEHOX`bcc^ZY[YYYWQMIIJNPTWZ^^ZUNFBEJTZ[WQHEHKLRTPKJHFHKKJLOSY^ciloooortzÅäèêëåÅvmd^]\XVUTSTWYWWYXWYZ[_dinqnhb[ZWX\\Z]a`]XUSSW\\YTRSUY`glqtvxxyxvsqnljigba]Zanssqk`Z[\Y\]\^[SRSPQQNMQX`cba]Z[^]]^^^`bbdgnoh_VMJOXbijhbZPKQX_ine[XZ_dkkc]\]`bbceinsrnifa\UQRSX]][^ckponibddbbdglqqnib`a]^bbdihddiopmia[YYVUUW`klicWMNNQVWUTSPMJKLMPRSTVX]_aceilnnkfgijmiaZ[__][REFMR[ega[UT\hrxr_MA9=HU_a`\XTRMIKQYgpoj_PIIKMRY^`efbenojdWMNW^_`^[\[YWVVVY^`__]USSQQY]`gmnnlhheaeijptlaVH?<=GT`komhedhkoroonkjkc\WSRX]]^dhjrvqlga]\YSKC??AEGDA=;;=>@CHP[bfjjecea_\WOLGHKOQTX\_`]YRKGIMTXXUOHHKNRXXTOLHGIKLLOQTVY^cioqsvy{}ÇáåçåÖwh^WVZ][XWTRUY[[]^]ZXWSSW\bff`XROKLQRTY^a_ZVQMPUWVSRSSW^djpsuwxyywtqokhea[YXV^mqqrmb\\[WX[[][VVWTTROSYahhc^YWXYXVWVUZ^_`bggaZTMKPYbhkhbYOHMW`jkbXY_ekoj_ZZZ\]]`ejornhdb_ZSNMNRVTSUZellje\[XVWX\dillhcbb^_```ecaaflnkf_YUURQQS[gjieZPOLLOPNOONKHHJMRUVTSV]_`bcdgjjfbcfhljd]\^]\YUNQW]dkmid_`grz~s^J;27ET_b^XRNKHGKS]kqnfZLGGIKPV[\adbguyvqdWUY][XSOQUXZ\__^_`^``ZXXVTX[\dklkgccdchkkpsme[OD@ALZepsoieeikpsrpokjg_XSOQW^[[_ceoupje\WWURMGCBDHKHD>:9:;<?DKXcjqtpmlhb\UMIEHLOQTW[\[YTOKIJMRUVTOKMQU[ca]WRMMOQSTWWWUVY]dmqrv{}ÇÖâàÑ|n]SMNT[\Z[XUY]]]``_\ZUPLNSY^`\TNJEFKKNSZ`_[VOGGKOPPQRQV\bhnrtvwwwuspmgb]XPPQQZkpprnd_^[WVYZ[YVWWWVSS\clqmcZTRSTSRRPNPSUW[aa\TNHGLU]cgf`XNGLXcji_X]ekoodYWWVWWX]emprlfa`]XPLJKPTTSUZchig`VQMKLNT\`deecb`]^_bbd`^]agkgb[VRPMMLMT`ded]TRLIJJIJLLJGINSY][WSU[]]^__bee`]^achgc_^]YWTPMQX`hnpnkjlr{ÅÇt`M=37ER[][TOJHEHNXanpi`VHDDEIMSYZ]bagv|zuj[VUVRMIFGSW\aeeba`_bc_]^[VXYX_hiigcdhilnoruqi_TKFIUbmuwqkgfhkpqqqpkicZSNLPW]ZWY^amtrkcYTTSSQLIFFKMKGA;99:;?ELXfptywtrng^ULHFILPQTVXVSQNLIHJMPRSPLJQW\dkfa]WQQSTVX[[XUTVX_inpv}ÄÉÖÜÇ~wjZOIGLTYZ__\_a]\`aba_ZPJGJOV[ZTPJEFIGINU\_\VLB@CHKMPPOTY_fmruvvutsrnkc\WPGHJJUgllmia_^\ZWXZZVVWWYYVZelqri[PJHHJIJKHDFJOTZaaZRKEBHOV\aa]VMGLWbgdZXblqrm]TSTRRRT\gopoib__\VONNPW[XVVX^ddc]SKEDEHNVY[[[ZZYXZ]cee`\Y]bfc]XSPNKJHEKW\ad`XTLFFDBEHGEEIOX^c`ZUW]`^]][[`b][^`aefcbb`[VPMKPW_fmpopsx|ÇÜÖweTF;?IRXXVROLJHJR[cmlcZPC@?@DJQYZ_dcgv|ytj[SPOJFA?>RW[`egcaa`bda_`_YXWTXcfhjhgkjknoqtri_VMHLYepxypieccgmnoonif_VNIINV\XTTX]irrlbVPONQRPNKILNMKE?<;:;@JP[irtz{xtqkaXPKFGHJLORRPONLMLIKMMNNMIIRZ_gnieaZUSSRUWYYWTSVX\ekmt{}{z{{xwsiZOGCELSWadced\Y[]bdc]RGBBGNVYVRMHIKHIKPX]\VL?:=CFILLKPV\ckpsttsrqpnjaYSI@ACBOaece`Z[]][XWXXVXYY\\Y`imok^OD>==?@ACA>CJPV\bb[TMEBFMRV[\YTMHMV_c`Y\hprqeUMMNNMNT]jpojc]\_\WRSTX`b][XVZ_`a\RIC@@DJQSUVWVVUUW\dfd_[UY]`]YSOLIGHC>BNT]fd\WLDB@<?BA?AHQ[chd^Y[`c^\ZVV]a__aaacedfed^VNJINW^elnptz}ÄÑÖÑzl]PFGMRUTUUUTRORX^djf]VMA><<AIS]_cfehuzysj[QLJEA=:8OTY]aec`a``a^[^_[XVQR]chnmkomknpqtslbWNGKXdpxzqjeb`bijknmgc\SLFGMUZWRPTZgrsmcUMJILRRQNKLMMMJEB?<<CNV`ltty|zvsoe[TLDCBDFJMMKKKLONLMNMLLLHIR[_gmjfc^ZWURRRTUUTUYZ\chjpxyvrqponleZOGBBFMS`fgifZUUV]bb_UKC@BIPTTRNKMQMKKNT[\WM@89=BEGGGJQYaipssrqonnmkaXQE::<;GW\ZZWRUY]\ZYZXWZ\[_^]dlmleVH?;;;<>?A??FMSZ]_a\VPIDFKOQUWWSNKNV_b^[alprl\LGGHJJKT^jnlf_[\a`\Y[[ahha^XTV[]^ZRJEDBEJOPRTVVUTUV[cgc`]XY\\XSMIFCCGD?BLQ[dd]UKCA><==<;=EP\digc^_de]XVRRZ``bdcbcdegggbYPJIMU]fllpv{}~Ä~yocXOKNQQQVYZ[ZW[^bcg`ZUQFB??CLYdghhehtywoeTKGEC@=:9MPRUY]]^`__`^\_`\XUNLV^fooknkhkoquvqg\TLNYdowyrjd`\\cdfihc`YSNGGMTWWROSZfqtndUKGDFMOONLLJJLJGFC?@GT]fmrqu{|zxsi^TJA>?BFJLJFFFGKKIJJHHGHFGOX[bigb`]ZVSPNMOQSTW[\[`cflsroiedeedc^UMHCDJQ_gjjfXQOPW^a^WOF@AEKQTTRQTWSNLLRZ]YOA86:=@BBCEKS\eouwvtqonmjaVOB7453>MRQQMIMT[^^]]YX\]]babjrqlaOA7569>BEGFFLRWZYY]ZURMGFIKLNQSQNNQW^a]_horrfQD@?BFHKVajmkd][^eec`bbglke`YSSWZZWRNKLJLMNNORVURRTRW`c``_[]][WQJFC??FFDITXaig^VJDD@>?<879ALW_ehhddfdYTRONW_aehfba`abdfd\QIFHNW`eeiqyy{|{yxqh^SLKLLMV]`acbfggdc[WUTKEACHSblmkgcgrurh[KDBBA?=<<MNOPSVX[`^__^]_a_YSMIQZdoqnplgjoqvxuk_VMNYcnwyrke_XW^_afe`^YURKJOSVWUTY`jsuneVLFA@GKKKKJGFHHHIFCEM[dloqot{Ä|wj]QF==AFIMNIDDEFJKJKIEDDFDFNVW\bb\ZWTOJGECFLQUZ^][]_agmje_ZY]``baZSNFCIP]fihcWQRV^ehcZSKCCGKPTUUTW[YRNMQY^ZQC847;=>>??CKS]jty{{xwuqkbUMB711/9EKLLHFLT[ab`^[Z]_^a`ajqqm_L>5248AGJORSY]_\TQUVUUQKGHKKMORQPPRW\^]eotvsbK?;9?FHMYbhhe_ZZ`hkifffjmle_UONSVVTSRRTRPLJILQUSOOPMQY[Y]`_``\YUNHC><CEHO[`hnkaWKEGC@@<435:BNW`kokjg_TONMMU`fknlgca`_acc]VOLLPW]`afpxyzzywyulaUKFGHMZcgknmnmjc_YWWXQJGKQ\lsqmgaeprndWG@@AA@??@QRPOPOPU\\\]^^_bc]TMGKU`kolmkehlnrutmaVNNWbnxzung^URXY]cb]\YXVONPRTWWW\ckrsogXMHA<BEDFIIFDEFGJJJMUaionljpx~zrcSI?7;CJNQOHCEFIMOONKECCFGIOTRV\^XUPKC>;;<BJPW[__\\\]cgc\SKKRXZ`c\WTLFJPZadb]SQU\fmpi^WQJILMQUTUTW[]WSRUZ_\SD8137:;;<:;AHP_ku{ÄÄ|ulbUKA81.-6?EHJHIOU[^`_^[[^`^_]_fmpnbSH@<=?GMQX_agif\PILOSVTOJIMNNORQPQRW[\^kswyr]G=98?HKP[abb`ZY\dlnkfbbfgfbZPKLPTSSTWY]XRLGGKRVSNMMILRSRX^adc_\YPJC;8@ELVaflplcYMHKGCB<2014;EO]owroeXMJLNOVbimnlgb`_]\^`\XTRQTY]_`fpxyzywuxul`SHCFJR_hlqtruqlc`YYZ\VRQU[erupjc\alnjaSC<<>@?ACEXWSOLIILTXZ\___be`WOFFOZekjjidfjlnqql`UOQXcoxywqkbWPTUY_`ZZXXVQOQQTXZ[`emrspj^RLC<>A?BFIGEDEFJNRW]elpmifkszxtkZIA94;FPVXTLDDEGJNPOKFBCFGKOSRUZ]VRMF<779>FOUYZ[ZXXXY_da[SIEJPT]d`\ZQHKNU[]\YSSYcnwxqg`\VTTRRSRSQSX]YXX[^c_VH:11579:;757<CRbp{ÑáàÇxl`SIC=50/5:@GKMPTUWYZ[\YXZ\[\[_flqri]UOKJJQW\clmpok_SLMPUXXVPNQRRRTRPPRXZ[aovz|r]IA<<DMPT\`^^^[]dkooh_[]a`b^VMLLOSRSX^`e_UMHGKRVRLLJEFLJKRY^dd``_VNG<5=FP\fjkke_WNJNKGD>2../4>I]wÄ{scPGGLQSWbhkkic_\\ZYY\[ZXXVWZ[[\dowxywuuxvn`RHBFMWbinsuuvpja^ZZZ]YWZ_eltrke^V]ijf^N?89=?@CFI`]WPJDCEMTWY^__aebXOFCIS_fgffbdhiknnj_UQSYbkqqqmkcXQRRTZ\WVWVTPONNQVY[`fmpqqmcXQG=<=;=CHIHFGHKQX]afknlgchovsofUC:53>MYbc[PFA@ACINLHEBDGILQSRSWYSPJB97:?GOUVVSQOPQRU[`_ZSG@CJP[gd`\RHJMRWXWVSU]iuÅzpkgba`ZWTRQPPSYYZ_cegcYL?7569:;;61139FWiyÑäåÖug[NFEE@869:AJQSVXWVUUVXUTVXVXY`flswogd_ZWTX[`gpoopncZTQPTXYXTQUXYXXTPMPVWYdqv{~q]NG@AIQUY^_[[\]binoj_TQWZ[_[RMNNPSSV^def^RIFFJQTPJIE@@D@BJQX_a_bd\TL?4<IUcmnjf_ZTMINKEC=1---1:Ga~âÇxaJDGMTVYbgjif`[XYYWVWUVWWUVXVVXbltxyuruwwpbSJCENYbjpvxwvph_]ZYY[XZ_dhloja]WQWbe`ZL=67<?@EILhd\TLC?@HPUW^```dd[QGCFNZbdcdabfghjjg]URSV]dhhjihbYPQPRWZVUUTPMMKKORUY^dkmorpi`XNC??;<CIKLJKLOV]`bdeijfbflrqneT@96;GXeli`SH@<:=CIHFECFJMOTUSRSTPOLF>=AGNSVUTNJHJKMQX\]ZTI??FMXee_[SJJMPSRPOMS]jxÑâÑ}zvqnlc]WROLLMTX\chkjf]RD=98;;<;60-,0:I]p}ÖàÅpaUICFKHA>>?FPVXXXWTQPPRQPQTTTW`glu{tonkea[[\_eljjnme]VOLQVXXVTX]_]ZUNJOTUYgpsy{o`WOHHOVY]a^YWY\cjnlcVKKRVY\TMKMOQUW\difaUIA@CHPRNIGA<;<9;DLT\`^cfaYPC7>N\hpng`YVSMIMJC@;0,,-/8GeÖèâ}dKGLRWYZaeggd^YWYZXWTPQSSSTURRW`kquvqnsuwrdVNFFNX`houwvsle]ZXXWYY\bfhiiaZWRLR\_ZVJ>7:>ABINSmjaXND==CLRW`deded]SIDEKU^a_a__cedefd\VTWW[^_\`aa^XPPQRUXURSRMKKIILNOSX_gjmqqmf_UICC?AHMNOOPQV^cba^]bfdaehnolcUB=@HUcknh^RH>868>DEGIJNTVX[ZVSRQOPNKEEGLSVUVSJEDEGLQX[][VLA>DJUce_ZRIHILMMJJINWbo~ÜàáÜÅ|wsjbZSNKJINUZbinkg`VIC>;===<82.-.3?QdqzÄyhZNDAHOOIEEFMUYYUPOMJJMMLLMPRTYelpvztpppkf`__`didcec\VOIHNTWWWVY_b`\TKGLQS[inotti`[VOMSY\_b]WUY_gnqk`TJMSVXXMGHKOSX\djng]MA;=AGNNKGC<87647BJRZ^[_daZTKBHVclqmd[SRQNJNLD?<411238HiâíéÄhOLQUXXZ_`bda[XWY[[ZVPOSSRTTPOT_hmrrmjpsurg[SJHNV]fntutpic\YWWVXZ`effeaZTRNIOY[WVNFACEFGMTZmkd[QF?<BJQYcijhfd^ULIIMV_`^^]\`ccddb\VUXVWURMPSVVTPQTTVXUQQNIGHHHIHJOU[dhkpspibXMGGFHNQPQPPU[`a_[UT\bccghmpleYIEKT^hjjd\RH=514;DINRUX]^^`_\XVUTWURNMLOUWUVSICAAELTY\^]ZSICHLUcf`ZSIGGIJIFEEKSZdt~ÖåèàÅzukd\UPMLKMRW_gnkfaZPLHBA>=;952024;J[fovp`SG?AKUWSONQY__ZPFFHGHKKHHJLPT[iruyzqmmlifa`aachc^]ZRLFCDJQUTUVY_dc_UJFKMQ]jmnpnc]ZWQOU[_bb\VW\dlrqk`VOSVVVREBEJPV]cmstj\J>8;?FKJGD?854104?IPX[X\aa[WQKP^hoqkbXPPQOMRPGCC=:9978IjäîëÉkRPUWVTVYZ^b_YWVY\\[VPNRSSTSNMS^gkpohgnqtrj_VKFKS[empqpje`YUUVUW[`cdda\UQOLJQZ][[WRPQRRPTY]ijf_UI@=AGNVahkifd`YQPQRYaa\]\Y]bcdeb\VUWUTPLEEHJLNMPUUVXTPMJFEGGFEDGNTZbdgmpojbZPKJJLQRPOMPX_a^YQLKT]`dgfjokf_QJPY`gdb^WOH=427?JRX]behhffc^YWUU[\ZWUNNQQOTSLHGEIQUY\]]^[UPSU[fic^YRPONLHCA@IPU]luãìåÇztke^XRRRQPTV[blic`\UROHD@=<:76589=GT]eni[OF?DOX[YUTXac^WJ??EHJLKIIKMQT[irvwtlgfdb_Z[]]agb[YQH?97:@KPNPSV^ffaXNJMNR`iiijd\WTQMLT]bdc]XY^hputof_[\XUQI==AGOX`hquuk[H>;<AHMHCA;421.-1>HNUXTV]_]ZWSWclrrjaXONPNNSTNKJEA?<::JjäîíÑoWUZZUQRTUY_^YXY[\\[TMLQSSSSMLT`hkoledlpsrl`VKFHOYbgikida]VRSUTV[^_``]XSPOORX`ccda___]^\\_bgkjcZMB=@DJS^fkkgdb\WWYZ_fe_]\W[`bcdb\USWVVTQHEEDCFGLSVVXUPLHEDFEDBAGOV\aadinmh`YPLLNQVUPONS]ca\TKFGNW]cecdkhebXOQY]`[WTQLG?55;DPZ`dhiiheec]XTQQX\\ZVLGGGJTXUURMOVXZ]^^bc`\]\_gida_ZZXVQJC>=GOS\hmxáêãÉxqje^YSSUVSWVW]hf`]ZUROIC><;;<>@BCBEMV_ig[OHDISZ\[WUZa_ZRF;:@FILLLMOQUV[hpsrnf_\ZWUQTY\ahf]WL?4..3;FLKOSW]dd_UNLOPVbiihf_XROMIIQ[adc^\^dntutoiecc\UMB67<DMXbiqtqi[JA?@BIMG@>820/-,1>GLSUQS[``^[Y[dlqne]ULJMLMRUSQOJEA=;:JhàëêÇnXV[[UNNOPU]]YXYZYYXQKJPSTSUQQZgklmhabjoqpk`ULIKS\bccc`][XQNQTSVZ[Z[[YUSRRUZbhkllijljggd``bimlf[NB<=@DNYbgjgdb^[^bdhnkc^\VW]aadb_YW\[ZZYNIFC>?BFOTWXUOJECCCDCCDLTY\^\`ellf]WNJKOTWVTTSWbc^WQHDEIQYac`_eddc]SOQUUNNOMKI@77=FQ[`bdccb`ba\WSNNUZZXSIABDKX___[SU[\\__^bfda`^^ceb`_]^\YSKB==FNT\efn{ÑÉÄyqlh`ZUSUXWZZX\ge]YWTQOIB;::;?FJMNJFIR\gg^TNLS\cdd`]_c_YRH=:?GKNQSSTVXY]gnolg^WSQOMKPX]enoeYL=0*,19DKLQW[`fe^UOMOQZfklniaXPIECDNX_cb__birvuqkfdef`XM@449AJWahnpmf]QIGFFKME=:4/-.,+1?FJQSQT]bc`_\^chkf^WQJGHHIMSUVTPKD?<;JhÖèéhSQWYVONNMRZ[WVYYWVUNHIPRSTXVZdnomkd^_glnmg_VPPU[ab_^]YVURLKPSSUXWWXXVTTUW]djnoonkmqqoold`^jmmfZNB::>@GPY_ddba_]`gjmrofa]WW\``aa`ZY_^\^`WPKD=:<@IQWXVQICBCFHJLNUY[ZZY_ekkdZSLHJOTWVXZY[b^VPMEBBDLU^b_Z_bdeaTHDEECHNNNKB9:?FOVZYYWUTTYZVROIHOVVTQH@@DKX_cb]TTY[[__\adbaa^^ab`_]_a_[VLC>?GPV^c`dnvy|ysole^XTTWY\]\_he]XUSRPKD<;:;?GMSURMMT^hid]Z[ahnpoiedd`]WNEADLRUY\ZZ\[[]fiid_VPNMJIGLV_hpqi]PD80029AILU\_afd\URPPR[djnpmg_VLEACMW^cb`dimstnf_ZY]a^XN@659@IV_dgifb_XSPNLNNE<72.-/.+1>CGOQPR\bc^][Z^beaXRMHFDBCFLSXWRLD=:<KgÉéå|cOLSXXTSRRTZZVTXXTSRKGIQTTVZ\bmtrlia\^ejjib\VTW]`b_YWVRQPNIINQPRTSTUUUUX[_djnpqplgjoqqtriecikkeZNB858:@HQW^a_]]\^glnrphc`ZX\_]^``[Z`^]afaZRI?89;EOWYXQGAAEJOSVY_`_\YYbgmldWQKHILORT[abbc\QMJDA?@GQ\a^WZ_dfcUF>>A@HOONLB9:=AFJKJIHFEGOPMKH?=DMPPOIA?CJV^dd^TQTVX\\X\_^\[WX[]]\Z\`_\XPHEHPVYad^^cinvxwuqjaYSQSW[\]`fd\UQPPPLHB@?>@HNUYYUV\fmomhfhkosttnied`_\VNKLTZ^bea_`^\^dda\XOLMNKIHNV`hlje]SMD;67;AGNY_``b^VTTSQU\agmpolf^SICCKT\cbchklnkaXPLLSY[YQD;89?HT\^^_^^_`\XUSROE<64358846?BEMPPRZab]\ZYY]`[SMIFD@>>?EMRROJB<<BQkÑéäzcQNU[^[ZZYX\[TQVWRQPJHMTXXZ^bjtwrje^Y]cgfe_ZVX\`baZSRQORQMIHJLMPSTWXYZ[^acfilnnlfachklonifffhhdYMC8578<DLS\_]YXXZdlorqlhe`]]_[Y\_YZ_][`fd`XNB978AMWYYSIACJOW^cehea[XZdjpndWPMNQTWY\clnid\OIIE?==EQ]caWW^efg^QFEFDHOONLC9778:;;976558DIJJG<9=FLNOMD@BHS\b`[PJKQTXYTTVUSQMMQUWURSVWUURMLOUY[bd_[\_fqx{|wne[RPPSWY[`ed^XRPOPNNIHDA?FMU[[Y[aiorqmmmmnqrrnjgfeec]VUU[afhidaa^]_db^YUMKMPMKLQYbed`\WSPI?86:?EOZ_^]\YSRSROSY^emrrqkdXNHINU\aachhgc[OF>;=FPWYVKA;9=FRZZXZZZ_da[XVSNF<5469?A>?FFIOQQRW\]Z[ZYXZ[TMHDDD?><<?GLOPMGEGLYoÉãáyfWUZaedbba__]TOSTPOMJJPX[YZ_enwxoe_YWZ`a`^YVV[_bb_VPRRQUTOJHHJMRVY\\ZZ[^_`abcege^Z\`dghgede_ac`XOF=7::<BJPY^\XWXZcjnpollifb``ZVZ]WY^[WZ_a`[RG;77@NZ[[WKDGPW`hmnmhaYWZdkqndWPORY^dgkr{zpf\OIIE<;<ER_ge[XajknkaTQOHHMPPOD:510/..----.4BHLPNB>AIORTPFABGPY^\VLDELQSSOLKKIGCEIPUTNLMMNQUSRUXWY_a_[YZamyÅ}tj_VSQRVXY`deb]XVSTTUQPLF?BGOW\\_diostsrqqppppollmmjhb\^_cjoolfba]^afc_ZULJLPOPSY_dc\VUUUTNB958=COY]\[YWTTURMQUYbkquvoi\RPSW]bb`bdc_WK@8214?HQWWOGA<=FQZ[Y[\\agd^[ZWPH?659>EIFGKLPWXURSUWWZ[ZXYWPKFCCEA?>?CMV]^\WUUZcrÄáÑzl_Z^dfijlmkhcYQSSNLKILT\`\[^dmvvma[UTY]][YUUV\^`_[URVVWYWRNNNPSX[\^\YXZ\]]]\\^`]WUX[`deccehTX]^YQLE@BBBCHMV\\YXZ\bhkkjkomjgc`[UXZTU[XTUY[[YSJ>97@P\_`\OGKV^hqtqnh`YX\dlqncWPPU]cjotzÉÄvj`RMIC::=GUbiha_hstxyre`ZPJKOQOF;4-,++,,,--.3AIOUVKGKRVYYQG?>BJQVVQIB@GMOOKGDEECADFMUTMJJJKQY[YZYUUZ^^]Z[akwÄÑÄxnd[XTTUVW_cfea^][[[^ZWSJ?@EMV^`cgknruuvusplhfhhmprmjc_bfjpusngb_\^bfd`\VMKNRTX^cdfd\TUWXXTG<559?KUZZ[YXWWWSNOPR]emtuqncZY\\`c`]^_]WL?5/-/4=EKRUQMHA@HSZ]]^__bfb^\\YTLC:9>ELROMMNS\\XSNMPSX\\YXVOIEBCFDEHKQ[cllhfebfjow}}xqhabffjmqvwtoe[YWOKGHMW_d^YZajrulb\WV[^^[XTTUY[\[YVW[\]^]YWVUUWZ[]]ZVVXYZZYWY^a^WUWY\``]^cgKQX]ZTROKKKHEHLUZ\[]adfjkhfiomjgc^[WYZUSXWSSSSTUQKB<:DT_cd^QGKV_hqrolhb[Z]cinlcYSUZ`djmpwÅÄxofXQLD;>BMZejiffo||ÄÉqkeXPOTURI<3+-/1230/./4AIPX[SRYadebUG>;=CJQSRLFBGMMKGB>ACCCFHMUWRNNMNVaeca]VTX\_`_^dlv~ÑÄypf_^YVUUTZ`decccbbdhda\QFFHOW]]aeginppqqolf_]`ckpqkha`cfjotrngb^\_cfd`]XONQVZagihhgb]``_^YL@627<GPVX[[\[YWUPONQZbjqrond\_a_ac]WYXUNC60-.28?FKQVUQMHGOX]_aaaadb^]\\ZVOH@?CKRWSRNNT^]ZVPMQW[aa]ZXPJFDCHJMORW_emljknlnlhiotvvrljjhilpv|zwpg`[RICELV]c\UU\emrld]YX\_^[YURRUWXXXZ]bdggd`^\ZYZ\[\ZVRQSSTUXX\be`XSTUX]\XX\aELT[ZUUWTTUTPQU[\^_agllllfbgnljga[ZXYYURVVRPOLKNNID>=EUafe_TKMW_emoljga[Z\_diiaYTV[afllkpyzvql_UOG@DIS^gjkjlwÑÉÑÖ}nhaUNOUXVMA6/27;=<84237DKQY]Y[eorrl[I=88<AINQQOLOSQLG@;>BDGIILSVRPOORZfjgb[TUY[_caahpu{Å}wpg``[XXWTW\aaaefefjmjid\QOMPUYWY[]_cfhjkllg_]bemqphc\]acgkopnkgdabdgd`]WNMQV]gmljjjkjlifc[MC705:CJQUZ[^^ZYXTPNPX`hoomlc^bdaabYRTTQKB84137<BGMRVWVROOU\_adb`a`[XYZ[ZXRKEEFMRUPPLMT`_]YSORY_eec`]TNJHFKNPPRV]cjhilqpph]X_irxyrnkhgkot{{yunf_TI@BJS[`[RRYbjpmha][]]\YVROORTWZ\bgklmifca_`abb`]WOJILMPTZ\aeg_TNNQU[\WUX[DIQYZVX\[[]a]]`c```dltrpkc]aihgd^XWWWXVSVXTPNHEJLJHC@GUahfaYQQZ`bgifeda\[[]`ef`XRUWZ_eb`enqqrqg\TLFKQZcjklnr}ãàÉsb^ZSOPWZXQG>9=AGHFB>;<?JPTY\Y_mx}}ubOA8459@IQWZZY[VMGA;>BEILJKPSQQQTX_hkf^WQSUUW]^aiqty}{vph`^[XY[WVY[Z[cefhlnnomf]WQOQSRSVWY^cfimonkdbgktupf_VY^adhkmoomkgfefb^ZTLKQXblomjjnuwxrojbTK=57;AFMQX[^_ZZ[YTRRY`gnmkkebgfcbaZUWYWRMFB>??CFJOVYZZWUUZ^_ce`^^[TSVXXWVRNIJKPRRKKGGO\^^]XTU[aghhebYRNNKORRPOS[`dbekonnbRJP]jtyqkgccimryzyvrkcWJ@@HQY]YQOV`gonkea_`^[WRNLLOTZ^bhlkjjgfgfdeedb^WNHEFLNQW]^acc[PHILQY]YUUVGKPVXVW]__cllkmmd`_dnvuri^W[bdee`XXWUUVSVYUQMGFMQRQJEIT_ggd^VR[]]cebab`^\]]^ac^WRWXWX[RLQ]chmpjb\WSTX_ekllqu~ãàÅ{l\YXUTUZ[ZTLFDGLSURNIEEGORTUWT^m{ÅÇ{iVG<4129DP[cd``YOHF?@EHMQNKMPOQU[_chhaXSOPQOPVY]horvzxupi_[XUWZXTTSRT^bfkopsvtof]RMLMMRWYZ_dgjoqqnjgkpyumc[QU]_bfiloqrqnlihb\XQIKU^gmmjhjr{}|uqoh]TG<;>AEINSW[_]]a`YUUZ`glkiidada\\][Z]a_ZUQOKKKNPSX]^]][XX]^]abZVWRLNSUUSTPNKMMPQNFFA@FSW\^][[^cikjhe\SRSQTWTNKKORSSZbijj\J?ERcpysngdbhlnrtusrng[NB@FNV[XPNS\dknlhfddb`\VPMKNU^dilmigefhjifba_\YSKGGJPRSW[\^`_YPGFJOU][VSRLLNPSSTY\]dsy{|xja_cnvwtl]UV[_deaYWTRPSQTWUQMFGPVXYRKMV_gfebYTZYX^a_``^^\]\\\`_ZY``ZYWJADPZ`gmicccbcefhiggkp{áÉ{raQPQQSTXYYVPKMOSZ\WSPMMPWWURPMYiwÅÑ~p_QD8117DRakmfc[QJHB@DHOSQNMOOQWadefcZRONNNKMSX]hnorurqpi_YURTWUOMKIN[^bhllsyxtl`PIEDGNTVX]bfhmoonnmpu{si^VMQ[_`chjostutrpng`ZRKOZcikheehottspqsog_UJFHHGHKMQW_beki`YX[ahmjfc^\^[Z[]\^bfe`[ZXWYY\^`bea]ZWUX^]Z`_TQRKGKQSSPPNLLONONH@@=<@IOW\`bbbfijigc[TTWWYZTH@<=??CPZaffYI>BL]kvsoiecgkkiikijli_SGBGNUZXPMQX`gjjheeecc_XQLHKU_gmpokgdefhfc^]]^[UMIKPVXXYZYYXXVRJILOS]]WRONKIILMNRUYdyÜäãÑthbfouwxo`WUW\dge]WQMKMMQVURNIKT[_aZSSZagiki^WZVT[a`_^\[Z[ZXX[][]ed[YVG>@KV\cjgdglnppnkgdaejwÅ}ukYMLLKKJMPUTSPTRUZ\WVTTUW\[VRNKWfr}Ç}uhZL@749GUdophc\RLKEACEJNNMKKLNUaeca[QJIIIJIMV]cknlmpmmnh_XROPSRLHDAHVZ]cgfnwxsk_ND@?CKRTUY`ceijiilmpw{tkaYQS[`_bhjnuwwxvtqkc]TPU^cedbacdhgaadjpqlf^WTTSOKIHJQ]emssh_[]cjole]WVVUVXYZ`eihe^]]^dhklkif^VSRPS[ZU]]RQRJGKPRQOMKJJMMLID<<;;<CGOV\aa_adedd`ZSSY[[]UG=:9;<BOY_edXJ@@FSbnnlgdbgkidba]_fgaYPJMRX[WOKMSZbegfeddab^VNJEJUaipqnid`acfda[Z[^]XRQU]efb]XRPMNRTPOQQS[]XRMNIC@DGJMPT`uáçéàykfjsvxzrcYUUZbhg_WNIFIJOTTTPLOY`gkd[[^bhlpl`X[VU\a^\ZXWUVVTTV[\`ig^[TF>@IU[_dcahqxz{wpga\]dryvqiZSRPOMGGJPQSRWUVXZUTUXZ]`_ZSOMYfq{Å}xpeWK@<@NZhppf_YROOKFEEIMNMJJKMXdfb\RHDEFHKMU_hmsrnmnkjlibZVQOPOIEBBLY^`egfmuvpg[LB>?BIPSTX^bdfgccghluysng_YX^`^ahiovwwxxxungaXU\cca^]^__^VNPXajnmid]ZZXTRQOOUaksyynb^aemroe[TRPPRTTV`gkkh`]^clsxyvoh\RNNKOZWS^_UUWMKOSSROKGGGIJGD?89:99<>ENW_a^]^__^[VNOY\[_XIA>:<=DPZ`dbYLB?AJWcghfb`dhg`]]YZbfb]WRUZ^_ZPJILS\bcdeecbdaWOJDJVaglmidb_`dfdaXRSXYVUX_gopi_TLHEIRYWVVUT\a^YTHB<7:>CGJO[oÇâåáyicgqswzseZTSW`fh`XNGDFHMSTVSOR\ajqkb``afkqk_XZTV^b]ZWVTRTTPPSY^dkh_YPD>AJW[]_]\er}ÅÅ|qd\VV^npoldWWWVWTLIIMNPPUSSVWPPRUZ_a`[UQR]jry|xtqj`VLGJV`jola[WSQQMGEEJNONJIJMZdd_WKDEHKNRV`ltx{vpmlggigc]XSONMIFDGR^behiflrqkdZMEBCDINQQT[`acd__cdhqtomha^]``^`hjovvsuxzzsle\Y_da^]^^][TG@EQ[fkjif_\[ZWWWUV\gs{Ätfbcfmsqg[RNJJLMLNV_efd[WXbp|ÇÉ}sh[PLNKOZXR_b[]_URTVSRNHCBCEFC@:5699899>IT_a^\Z[[ZVQIJU[Z`ZLC@;;=EQ[_a^VKC@>BMY_efb_adc]YYVU]b`\YX[_ce_TMKLS]ccccca`daYRLEJU]afhecdcdfgd`VNNSUUX_fnvtk^QHEDIT^^\\XV]dc_[B<6037>DIMWgzÅÑÇwgbfptx{ug\USTZad]UMFCEJOVX\XRRY]hqnhdcbejoh^[[W[ab_\XXTQQQMMPV]djf]WNDADJW[[ZVS]lyÇÑsdYSS^mlhcXNSX\_[PIGIKNPVUSTTLLPU\bca]XUWdovzyspolf_VPQZdknkaZWUUUTNJJNNPNHFIO[b`ZOEEKQVYY\guÖÜ}smidceeb^ZTPNMLKJLV`dfiiejnlfaYOIEEGIJLKLTZ\]\WY]^dnolmiba`aa_`hloutposwytoi`]`a]Z[^][UK=9COZehfdc^^]\[\[Z[`kyÇÑÇwidgjqvtj^SNHHJJGGNW_aaYRS`q~ÜÜ}qeYNNQNQ\XQ]c`ei_ZYWQOLF??@BCA?95598877;FS_b`]\[[XSLDEQYX_]NDA:9<FS]`_YRIC@<=FS]fjfa`ba\WVSRW\[XWY_dhidYQONS]dedb`\Z\[TOJEIRWZ^bddffffea]UMLQTSYbkrytj\OEDDIU`aa`[Y_higc>82.4:BINPUapy}vgafpuz{sf\VWX\cd]TLEBELRZ]a]WV[]hqojdb`bgkd]\[X]aa`]YXRMNMJKMRX`d`[VOGDEHSWXWTNVcpz}rdYSS`mkg`TMV]afbVOMLMPSYYYZXQPRU[`a`\YW[gqwzxpmlkhc^WU\diljaYUTTTURNOQOOLFBFP[_`[NGKRYbedgo{ÜéèÑxog````_\XSONMMMLMU_cfkkgjmjdaYPJGHIJIIHIPUVWVRUXZalmnokca_^_^_hmmrsnikpromia]^^ZZ]ab`XK?=HR[dd__^[]\]]___admzÑÉÄwjehlptrj^UOIGIIGEJT[^_\TUbt~ÖÑwkaYPTYTU^XP[baiof`\VMJGB<<=?A@>:549:;;<=EP[___^\[WOG??MVW__ODB:7=IVbfaXPFA=99CQ^jpkfcca\VUSRTWTQRV]dijf]USRU_gihea[UUTNKHEHORUW\_`dgigea]UNLNRRZfov|uhZKABDIT_aba]\bjmol<631:BKRWWW_mv|wf\amsxxpbYVXZ^dd^WPIGKPU]^a`ZX`agpng`][]bf`]\[X\]\\ZUTNHHIGILOU\`][XQJGEEPVXVSKOYdnvxodZTS`kifaWT^dimjaZXUTVY^``a_YWWWZ^_\ZXUYfovyvnhfhhea[X\cimkbYRONOSUTUXSNIB>ES[]_ZLFMT\gnnouÄäíïàyne]]^^]\YTOMLMNNOV`eglmgknjfc[QMKMQQOMHHNSTVUSWZ\bkmooj`\YY\]_honptogglomlibZXXWZ^cdbZPFHRYagd^]]\][[\^aeilr~Ézsheilnppi`XRKHIHFDHS[`ef_`mzÄÖÉre^XS[_ZX^VOZ^_jqid]THEA=88:<>??;98>ADDEDGMW\]`b_\XPG@@MVW^^OCA;9ANZeg`XPHDB=>GT`kqnifeb^XWUTUUQONRZafhg`[YX[ckpokd]USSNMJHINPRSW]_bhkhd`[UQMNRSYfovzqcVG?BEJU^`bb`^ckqtu<657AJTZ^][aozÇzfX[hquuk[SRVX\aa\YVPOTY]cbba\ZcehmjbZWVX^a]\\VSXXXZYSPICCEEGKNU\_^\YRLHEEPXYXUJHOXbkqoha]\gnie`XYcjmolfa^ZYY\`efhgd`^[[\\YXWRVcmtyvme`bdcb]Z\bimlbXNJHGMSUXZSKE=:CTYY[UFCJQYelmotàèëÉqf`XZ\\[[XROMMNPONR\`aff`ejgfe\TQPSXVRNHGLPRUUUZ[\aimome[USW\^_hnlkpldcjnnnldYSRSW\acb]UPR[`fjf_`bdgeba_^chksÉ}xqgcfhijjf_XQIFFFDCEPXaiojku~ÄÉÄm_XTR]c^\]SLTW[gpje\PD@<96679;=?@BEKOQONKJLTZ^eie_YNE?@LWY]^OCB??IS]ee^WPIECACLWbkpmjgfb_ZXVUUURPOQVZ^`b_]\]_fnssme]URROOMLKNPSRV\^agjfb^WSRONRSYensuk]QD=AEJU\^cda`chosw<8:?IR[_bdbes}ÅÉ|j[]kturhWNNTUZ`c_][VV]bglgefcblliie]VTUX\^[[YQQUUVYXQJC==?ADHMV\__]ZTNIEDNX[YVJCGMWbknlhefnplhc^aimkgb^[ZZYZ\bhlnpoigc_^]WWUNR`ir{xnd]\_`a^[\ahmmdWKEA@GPUXYPF=76CSVVXPCDILR]dhlr{Çáâ{i^YRUY[ZZWSONMNNLHKTY\ab]bigff^WUSUZYUOIHJMRVY[__^ahlplbVPNRZ]^fmjgkia^fjklleZROORUY_a`]Z\cfklheglqtrolheinovÄÅzumb^abdegd_VNEAAAA@BNWakurt|ÅÄÅ}hZRLLZba_\PIMNSakhe\PFA=;778;=@DJPTYZYUSOMMU]ckng]TH?;=IUX]^PEEEGRZ_bb[UOKEBAEMWajomjgfb_\ZXWWXWWVUVWWXZ[ZZ\]cltvph^UQQOONOMOPTSV\_agje`ZSQSSSWY]fmrsj\PC<?DJT[`ikifeflrx;9?FPW]^]bcht~~wgZ^luupeSJJPRW_dba`[[`ejnifjiirrjf_XTSSWZZXXTMLPSTURI@846:>CGLTZ]^\YSNIFFOZ_^YMCAEO[gmonlmssnligjmjaXTRSUVWW[clqtvtlhd^[[USQIMZep|zqd[WY]a```chlleXKC<7>HPTUMA724CPRSTLCDEDHQ[cksz}ÄsaVRLQVZ[[YVRPOMLHCEOVZ`a[`ggghb[XUW[ZWQKIJLQW\_bb_`flplaUOLOUXX`hhfkjc_dhijjeZPMNQTZbeffeeiklljkpuz}yvurruxvz|vqi^ZZ[\_b`[SJB?>????KValyyzÇÉ~}ydVNGGW`aa\NGHGN]fgf_TKFA>;:;>@FNV]ab_\XWVUV\bgmldZOB;89FQV]^PFGIMW]][ZWROLF@?DMT^eigdcb`^][ZYZ]]]]ZVTRRTVWWXZajsxtj_WRQPQPRRUUXWX]bcgic\UNLORU[]`glprk]PD=>CISZcmpnidbhnv99BLQVXTT\bit|{woaUZjtsncQGHNNRY``bb^^adileckkksrga\VUVUXYWUVQLLORRPKA71/26;@EJRWZ[YUPKHFHQ\ba[NC=@JXfouuvvytonmmoldWMKNOPQRSZensuwtkgb\XXSSOIN[es{rg\VX]bdeddhkjeZOF?;AJUZXOA4/5CMNOLA<>>=?GR]hqxxwvjYOJEKRX\\[YVTSROJEDNTYac\aihhic][YZ]][UPMNOT[bced`_dkoj`WQNQTTS[dgflmiefhhfeaWLHLPV]efgghiklmkinrv{}zy{z|ÄÄ||}wsqk`][XY]a_ZQG??@A@?=HTan||}ÉÅzys`SKBET^bd]OGEDLZejlf]UNHD?>>BGNW`ege`\YZ]_acdgkjcZNA967COV\]QIKMQXZUPPPONMH@?FNT\`b`\[[Z[\[ZXY^adda[VQPQTVVVY_hrxti]XTTV[\_`a^^\]`defe_XPHGLRYbfhjlmmi\PE@>BIRYdnqpia_dks59DNPQOIJU^enrpkcYQXiutmaQILRRSW\\]^]]_chjcdlnospe]YVVWVXWSQQMKLORPLD;2-,049?DHOSUUSQNIGEHP[bbZOC;>HUbnwz|ysqonldYNGIMMJIJLVdnsttphc`ZUUSSPLS_iwÉxnbXWZ`dhgfhkih`VKFCHQ\_ZO@2,4BIJJC85888;BMXdnromlbTJD>BKSY[[ZZXXWTOHGOUZbf_aiifgd_]YYZYXTSRSSW^eded`^bhmg^VQNOPOKT_egmnlihgheb_VICHNV^effefffikhhmnotwvx}~ÅÜÖ~}ypmnjba^YX\_]WOD;>BCCA=ER]jvxy~zsrk\QI?CQ[`e]QJGENZbkqngbXPJFDEKRZcijf`[XY^eijgccffbZN>4.0<JS[\RJKLOTTNILOOOMG>;AJQY_a]WSSTW[\[YY]afgd_XRONQTUVY`gourg[WTW\cdeda]]_acgfda^WOFGLWbosqnkgge[QKFBDJOVclpnh^[`gn29GQQOG?BMW`gfc`ZSR[kvum`QKNUWXZ]]\ZZ[[`ghcfnstvpe[XWYZZZWRNMKKNPSNG?7.+,/28>CGMOPPNNMKJHLS]gg_WLADLU]gpsw~~zxwsrj^SJHLPLGDDIUdnrpni`\\VRSQQOQYcm|ÑÅ}ufZUU[bhighljjf]QPPU[cc\OA3.7BGIH>43789=DMVaikhhg`VKB;=EOVYZZ[[]\YTOLSZ_ejcdjjefe`^\YVVVUVWZY]cieed`]`ehbZRMIHGEBM[dhpqplhdec^[UHBJR[djigddcbfhefhfdgjnv~ÅÜâÜzpecdcaca\Z[^[UMB:?FGGE?CQ\gsuuzunmfYPJ@ER[`d]TOLKS[aktrni^VQPPTZbiong^TOR[emqmd\Z]^]ZQB6.,6FPXZQHGGILMHDINOONH>9<FMV]b]VPOSW\_^XWZ^dfd_YRMLMPRSX_gourg\ZX[aecc`][\`bcgfa]^XQJLR`p|~yphcdd\URMIJLNTbjmle[X]cj4=KTSOC9;EN[b_^]VRVaoyyo`RMPX\\[\[YWXYXZbbagmpqpkc\YY[]\[WPKIHILOPKE>6/-,.16=BEIJJIIJKKLLRYclkc\RGJPWZaimqz|{{{uqgZOKNRTOHABIVcmpjhbZTTMIKMLNU]eo{ÇÅyiZRNR]ehfhkiihaWW[_cfd[NB609BFGF:127:=DLSYbgfegf`XMA99>HQUXZZZ\\ZWTSY_dimggkkded^\\XRRTTV[aadilgdb_\]bd_XQIC@=;9FU`gqsrpjccb[ZWOHS\dkolgcb`^bebba[VW[cnzÜâÜ~xi\XYX[bda^\]YSKA9AKKLJBCQ\fptsuphgaWROGMY^ac]VSQOVZ^jttupd\XX[`gnrrj_QFFQ_krqgXMIMSY[YM?505DNUWNDA@@CDBAGNPQOJ?9:DLU\a]UNMTW]a_UTVY_ba^YRMJIKMNS\emsqg_aaekjdb_\[\`ddfe`^b_YTV\ixÇÄwjb]_`\WWTONNMR]cde^UTX]dCKUYVOA8;AIX_]`b\W]dpxwnaTOSZ_`][ZXVY[XY]]^dgiihc`][Z\^^\XPJEDFILMJD>954557:?ADHGGFFGJKMNU]emke]UMRWZX\bekty{}{uodXONSWXSKDFOYbjkdc`XQOGCEILQ[dkr{ÅÄ~zjZNHIVafglnljjdZ\beffaXMA83;CGIE8139?FQZ^`dfcchhaYOB858?HOTVWVXXVUVV]cgkmihkkdcb[X[WPOSSW_hjknpkgda]\ab]WNE=9544AR]fopopjca`Z[]XR[chlnjd_^[X]`__[RLLR^kvzÇÜÑzj[USRXbjjgcb\TLC=DNOPNFER]eotsrngfa\XUPV]`_`YUTSQWX[eqv{xphccejpvvpeWG?GVdoqhXH<8>IU\`XJ=68EOTVMB<::=>>AIPTUSME?>FKSZ`]WOOVW\`\RPRUZ^_]YRMHFFHINXakstlghiknmfb_\\\`dcdda`hhdabhs}É}pc\XZ\[WYYUSRNRZ_`aZRQUX]QXaa[O?7;=CS[Y_fa\bhotri_UORX]_^[[ZX\][Y[\_dcba`[\[ZXZ\^\XQICACGJNMJDA>@A@?BAACGEDCCDGILOV_hnkf`YRX\\VVX\bmtz{yrl`VPQUWTOGBGQX^ed]^]UOLD?ADIQ]gotz}xjWH@?L\dhospnme[]ded_XPG>85=BFJG;6:AIP\dfeedbbhidZPD9338@GNRSQRQPQTV]ejlmjgijccaZVXSMMQSWajmmoolhfd_]_^ZSJ@940//=NZclljlia^_Z\baZ_cdehe_[[VRW\]`[QJJP\kuxÄÉÇ~{k[PKJP^ioplidZOE@ELNRSKHU]bltrplfda^]ZU[_^[XPNPRQTSU\iqzzwqooorwxum`QC?L[hol]M?4/4@NZdaVH=<GORTK>6448:;@JQVWVQKFBFIOV]\XRRYY[^ZPNPRWZ][WPJE@?ACIU`irvqmnlkjf]XUUX[`ecdedemmljmqx|{qcWSRUXXW[\[XVTW]aa`XONQRW[cif^M=6:9<NWW^gb]chmplc[QIJMRWYY]^\]^[XY\`d`\YXUY[ZXY[]]YQIB?BGNSVURNLNNKGGB?AEDDCAACFJOWajplgb]X]`^UQRV]hryzvoi^UQQQOKFBBJSW[`^Y[ZRKG@:;?GP\gnrw||yseRF<;HZbhptqmke]]cc]VOJFB><ACHNNECIOSYekkjhdbbhkg\RF<525;CJPQONMLMRV\djkkhgghdeaZSSPJLRUW_gjmnmkheeb^^]XPF=84112=KW_gfegg^[\[_hkdfgedeb[YXRMQWY^\TMMS_nx{ÅÑÅ|yk\OGDJWdmsokh_RIFJMOWZTR^bbktqolfeca`\X^a]XRHEHKLOMQV`iuxywwwusvvpg[MABQ_jnfXJ?5//7ETcfaUHDKPQQG91/1468<EMSVXUQOLMMORXWVTV\YXYTKKPSVY\YUMGA=::<AO\fpwtqsogc]SQTW\^chefhijpqrsuvvrj]RJJMQSTTVXYXXZ]acc_VMKNNSjprj_L;6:8:KST\d^Z_bgjf^WOGEFIOTW\a`__ZVW[`daZTSSX\]ZYY\[YRKDABHQW[]]YX[ZUOKC>?CBBB@@BDHOW`joke`ZWZ_]UOQV]hsxxsle[TPNJFB?>DMUXY[XVYYSNI@::>FP[eloswwrlaPE<:EYcktwsmjf_]a`VMHGHGEFGGNXZRQUYZ_joonlgdcgkg^TJ?:66:AFMPNJGEFLQWaghgedfgff`XOLJIJSVW]bdhighgccda`^YPE<97768@KU\cb``c[XZ\blpjhfdaa^WUUNILSW]^YTTX`oy|ÉàÖ{n_PHDHUbltrmkeZSSTTS[a\[dd`gpnlkfcb`_[W\^YTM@;=AEHHOS\fsw|{{ysnpoh_UF@HV`hi`VNF<4/2=L]ee]QLPTQOC6-,.1248ALU[^\XWTTQOOQQSUZ\WSQKGKSXZ\_YSMFA<777<KXcmvutuod]XRRY`cdjlhhlnotvyyyvocVKD@DINPQPPSVVY^behhcZPMOOUwyxl^L<8=<@OUV\`XRUWZ^\XSMECBDHNS[bca_[WW[^a_ZUTWZ]]YWWZ[[WROMOS\`dfgcaff`WQE>?CCDFGHIJLPV_jomfa[WZ^\SMQV^isusngaYRNJC>:8;EOVYXWUUXXVTPGC@AHS\fmoswuoi_OG>;DYcnvzupljd`a`TKEFJKMQSS\dbZVXZ[bknopokjijlj`WMB>=;>DGKPPLIEFJNS\bdeddehih`WLIIKNVZZ[\]``^`cbceda_ZRG>=<>>AHQX]c_\[_XUVY^gjeb`^]_\UTSKFJPU^c`^^acnvyÜÉ}xn`TMLNXcjpokli`\^^ZX^fbbkjbgnligb`_][VQVWSNH946;?BEMS\epszz{yqijib[RFFOY^caZWUQH=539ETafcZVWWRM@3*),/015?LV`ec`a`^XRLKJOW][UNHCELX^__aYRMG@;766;JWcnxxtrj]TQPS]gijpsmnproquzywpdSF>:<AFKNNMLNRTZchlqqlbZUVW\vxvl]L@<@BFTXX[ZQLMPSXVSOJBA@AEJPX`db_\XWY\^]ZXXZ\]\YUTWY\[YYYZ]eimprnknleZRE>>CDEILMPQPQW_jpogb\XY\YOLSZblsqnha]VOJF>844:DLTXUSTTUWYZVQMHHNV_inpstqlg^QKA?G[cntxspmojfecVLFGLPU\^^eie[VXYY^fimrspnlkljdYPFDECDHGHNQONLLNORX]`ccdgjllcZQJJMQVZYXUTVVUX]_add_]YSKDDEGHKOUY\`\XW\WRQTW]`]ZZZ]b`YXUKGKPT]ccbcdbiptyÅwph\SQRT\`chifikecee^X]eegonefkifd`^[WSNINQNLF7126:>BLS\cjlqrsrleed]WPGLV[^b]XZ^ZSI?88@M[dfa]\YRJ>0'&),./1:HTahhdggf`WMHEKW_[ULEAFO]dba`XQNHA;766<KXdnvsokbVMJJP\gjnttpqppmmrwuqgXG;569=DIKKKHIMQXckpxytlf__`coqpi]RJFGINY\[ZTHCDHNSSQMGA@?AFMQXaecb_\ZZ]][Z[\`ba^ZVTUX[\]`bceknpsuroqmh\TG@>BBDJMPSURQV_hoof`[XVZWNNY`gqslhb\XRJEA9446@LSX\WSUVVX^_^[XRQTZbjlmonjhe]QNEDK\bmqsqnlnjfecXNHKPU^higkiaVQSUTYadiqvurqnnkh^ULLNMMNJGKPQQQRSSUY\_dceikllf^WOMNPSUVTQOQRQSZ_add_[WTOJMPSTVXZ\]]YUT[WROQQUYYVXY]ca[[WNLNQS[abbcc`elrw~{riaWQRSUZ[X[]]affgjib[]egkrpgegeca]\YTPKFKLKJE73469=AKU]ejikkkkgbbaZUMHPWY\_XW]a^[TLDAENZdigda^UJ=0'%(*,-/7FTbkkhjklh\OGBHV`^XOFDJSbiea^VQOJD>866>NZdmqnje^RHDFO]imrvsonkjhhnsog\M=438;>DHHHHEDHMT_hpz}xqiecdjllh`ZUPORW_b`[RFACGLQRQMHBBEHNSUYafdcb_ZY[XVW\^ced_ZURSV[_afijjmmlmoomnlh_YOHGGEDIMSWZWVY`hmne^YVTWTNTafmsoeb^YUQHB>824:FSY^a\UWXVYbfhgc]ZY^ejiijgddd\TQIHO[`kmmmkikhcdcZQJKOUanpopi[OJLOQW]`fpvvtusrqof_VUXXWUPIKPSSSRRRSWZ^ddfikjjd_YURRQPOPQPMNPPQYabbb]WTSSQUZ\\\]^]\\WSSZWQMNKNSTRUW[a_]^[SSSRT[`abc`[_emt{woe]UQRSTVUPPSTX_dhkle^\acfkkdbdb_\WVUQOLGKKIHD9:<=@ACMW_fkhhgedb``_ZUNNVYXZYQT[___^YSNNQXaghheaXL?2(&(*,,.7FTcmnjjklj`SJEIYb`]UKJPXelhda[XXTNG@<<DQ[bkmigc[PEAEO_kpttpjjffdeknh]RB517@DGJIEDECBEKQZfp}ÖÜÇ{ogca^beeba_ZWZ^ehg`SHAAEKPRRNICEJOV\[\adbbb^YWXSOQW[_dd^YTRQTZaejnponmkjjkjkjga\UONOMKMPUZ][[\afiib[XURUSQ[gkpqh^\YURPHA>947@M[`ad_WYZWZdjmpnkgegkkgfd`^ab\WTNMSZ^fffggefd_`b]UONPUcprrpdTKHJQUZ_aeotutvuvutlf]Z]]\YUKKNSVWXWTUX[affghieea]ZYWWUQMMNOMMOQSZdgca[SOSVY]aa_]^^]ZZVST[XQLKGJPRQUY^dcaa\VWWVW]a`_^YUY_gnsoh`[USTRQQNJJLNRX]aegc^[]]_bfbbdb]XRRSPOMJLKJJF?BDDDBDMV_gjfeca`___^ZXTV]\XXSKNTY[_dc^YTQU]dhigbZNC7.++--.09GTblmijloneYPJM\cca[QTZ`jpnkjgffc\TKFEMW^ahhda^UJA?FSakmnlhdda``bgjbWL>46?HLLIE@?A@?CIOZguÉååáÄrf_ZRX^cdhhd__`cff_TJCBFKPRSOJDFLS[b_^`a_``\WVVPLMRUY`a^ZVRQQU]`cgjhgggffgeeed`]XSQSRPPPSWZZ\^`bcb\XUSPRRUcmprnaWUTRQQKC>:6;GVdged`XZ\Z]elqwxwsnmmkeca\Z_b]\[VUY[^edcdd`^]YY\]XTTWZfoojf[OKNSZ[]abdmrrruuxxxrme_aa_\XOLNSWZ\[YXZ^bfffed`_^[Z[XXWRNMNOMLMPRZfkgbZPJMU[`ed`\\[ZWWSPS[YSONGKQTTZ^dgedb[WZ\\^cb^YUPPT[elnib]ZUSRMHGEBBDGJPW[_b`]\[ZYZ]]_cb]WQQSQOMJKIJKIDHJJGBBLT\ejecb``__^^\]Z^b_ZYSLMPRSXbfeb]UU[afiie]TI?7333224;IT_jlhhknoi`WOP]bcd^W]diquroljjjhc]UONW_baec_\[QF@BJWafdc_[Y[XX\_ce_TI@:@HQQMGB;;===AIR^m{áçäÑ{maZTJQYbfjlha^^_bd`VNIHLQVWWRLFHNV^eb___\__[WVSNKKNRV]_^\WSQQRX[]adccddb``^]__^\ZUUWWVUTVXYZ]^]^^\XURPNPSZgnonfYRPQQQSPHB=9?L[kngdaY[^_ahow|}|wqnlidca][aecdd_\\\`efddb\WURRW\ZW[_aipleaYQQV[ababbaglmostwyyuskedda^\USUY[[\[YW[^aeeda`ZZ[ZY[YYYVSSRRPMMQS[ioke]OGHQYaee`ZYXWSSPNR[YUSPINSVW^cgecb^XVY\^aec\TOJMS[ekib\ZYURNE=;:88;>CJSWZ]]\]\YUQTV[bc^WNNRPNMJIGHJKIORQLDBKR[eiedbbaabceehfhhaZYRNPPPQTahjjg[WZ_cgigaZQJEBBC@=>CNW_hjgfjlokd[ST\_ad`\dmry|yuqljkifc]WW_edada\[ZPFCIQ[aa[WTQPRRSY^ac^SLHFKSYVPIC<:9:>EP]jxÉââÇyod[VRSX]begie_\]^bed]UQPTX]_^XQKLRY`dc`^\[^[WVUOLKJKOSY]^]XURPPWX[_b``a`^][WUWXWY[YZ\\[ZYZ[[[^^[[ZXUTSRPQU]gjjg]SNLMOPTUNHB<AN\lof`_X[_cejq{ÄÄzsokhdca_]chhkkfa`_chhfb_XQPOOS[\\bghmnhb`ZVY^aghhfebfhjmqqtuvtsoiiiged`^_bb^^\WTW\^acb]]YYZZY\[[\ZZZYWTPORRXflkg`QGEMW`ddbZXWVQQONT\[XXRKPTWZaeifcb]VSVZ^aeb[PJGLRZdhc\WXXUQMB9653347=DMRUYXWXWTOIMQXad_VLJPLKKIGEFHHIQUUPHHOV^fifecbccdhklpoomf`[UPOOPSVdlnnk^VVY^bggc^YVSRQQLGFJRY_efddgjnmh`XX\[\`]Zcmry}}zwpjhfddb^_egdbda\ZYPHIQW]]YPKIIJMPTZ`deaZUTSVYZVRKE?<;@IR]hs{ÉáÉxme]YXW\^accefb^Z\^aee_XTRUZ`dd_XQQW]bec_^[\_[UUSMLMLMORVX[\XURONSUX]`^___]ZWRNPRQSVVX\__^]^^^^_]YWVTSTUVUTX_eghcYQLHIKMQVSMFBDO\kmd\[VZ_fhmt}ÄÇÄzsojhedb`^djknoidccgjie`\VOMLKOW[`hlople`^[Z]acimmlicefilpnnoqqpnklnnmmjfghe_`_YV[\[^b_Z\Y[^`_`\\]\`b`\YTPQPT^cec^PFCIS[`a`[ZZ[WWXZ_fa\[SKPUW]dhkgdaZSORY_aebXMFELQYbd]VRVXTQOB:985447;CLQRUSPPQNKHKQX`eaVKHLHFFFBACEEEKPQMIKRYaghfebcegimppqpnkgb^XSPMOSVdknpna[XW[`efedbdfea\TLJMUZ^a`^_cgmold[[[WW[WW`jouxxvric`][]_^agifefc^[WOKOX\_ZPE@?ADINRYafgfdba__YRNMHHHEEJSZaju{ÅÇ|od_[Y\]feedbbc_[XZ\_ab]WTTX\bfeaZUUZ_bca^^]ad]VVQKLONOPQSTTWVTQNLOPSY[Z[]\[XUOJJKKNQQSWZ]___^^^^\XURQRTWZZY[_`bc^WOIDEGJOUTOGBCLXgkd\[WZ`hlov|}}yrmkghgfdb_fklopjghiknle^ZTNMLKMSZajpsqkd_\YY[_afkligcefimoljjlmmmnorstusqqpkdfd^\`]Z]`\Y[Y\`ded^]^^chd_[TPNKLSV[]YNE>CMV\ab^^aeddddfjc_\RJPTW]dgjieaZSMOX^`daVKEFLQYaaZSOTURPNA877326:>FLOPRNKJKJIGLRY_eaUIFIECBC?>?@><BHKLNRX^dhhfedehllnpmlkjgd`^\YVSUX[fmoqqg_ZVX\adeghnssnf\QNPVZ]^[Z[^bjnle^][TTZWX_ghllkhd[TRQQTY[_fihiie`\WQPW]^]TH>:8;?CJOU^egikkjgaUMLNOTUQNPVZ`hrw{zrd[YWY^`pmjhca`[XVY]`a_[VTVZ^ceda[Y[adfda`_`fiaZWOHJMNPQPPPOQRQOMLNOQUWVWYYYVRLGEEEHLMOQTWZ]__^]][XURPPSW\^\\\ZZ\XSNGCCCEJQSNGBAGTdjf_\X[ajosuvuqkhggfhfedcahlllmhfjlnrpid`XSRQPPS[binqmgb_\ZYY[^bhjifeghkookiggijknqsuwyyxwvpjmlgdf`\_a_]_]`dgiica_^diea]VQPKGJJOSSKE>@JT[bfffloliheghb_[QKPSU\`cffd`[TMNX\]_]SKGJOT[a^VOKQSQNM@76757=BEKOPPPLHEEEFFLSZ_eaUHCEBA@B=;;<74:BINW^aeihffedfjmmkjebaa`][[[Z[Z]aclqstsjbZTTY^acgjry{wpdWRRUX\\XY[^aimmgaa]VV\XY]a_bbcc_WQNKMPVY]bfgiiea\WTV[^]ZPD<86:?DKPU]bekqqni`QJMUZ`_XQQUX]dlprqi\VUUVZ[wsokeb`]Z[]`b`\XQOQV[`ba`[Z`fgid`^^_fkd]YPHHLMPQPNLJKLMLJJKMORRRSUVURNJDA@@CGJKLLMPTYZ\\][YUROORX]`^\YVWYVRMEA@?ADLPLEB@DQbiga\X[`iprpnjebcefggcaaa_figdfbcimosrmjf_ZWTRRUZadgiea_]ZYWXY\`fijiimmnpnihedfghmqtwz|}zvrokopljha^^^\]^_beiljea]\afda_ZWTOJGFJQSOJDDLU\bjmpwzuokgggb^YOJNPT\`bfhea]UOP[]^^[RKIMQV\`[SKHPUTRQD96;=AIOPQQQQPLGB??CELV\`d`SF@B@?>A<99:2/5<DP]eimlfdccehknmhd]WVWXWVVWVXZ_dhnqstrjd\VVY]_bfkry{wodXSSSWZZWXZ]`gkmiffb\[^ZZXXUVV\_]XRMIIMRVZ^bfgfb^YWY^bca]TI@;7:BIOTW\afltuoj_PJQZ`gd\TTUUW[afijcYUUTSUQqnkhdba_^_aed_XSLIKQW[\][XZafhga[Z[]difb_VMKMNPPNJGEGHHHGGIKLMMLMQTURNIB><<=ADGIIIJLQSVY[ZYVSPORW]a`]YWXYWTMD@@>?BHMJDB?BO`gid]Z\`ipplga]]aefhea____efb_b`cjmmqqnnmgca[YYY\__^_\[\[XWVXY\`ehlmosqookfgebfhimqsuw{|ytqpostqmjb_\ZY[[\afinojd`]`a^]ZWVURMJIMRUTOIGKSY_gkox{xtqlljd_XLHKMR]beknjc^VQS]`_^ZPKKOSY]^XPIJS[\XSD86>CJSYYXVTROLGA==AEMW^`a\QD>A@>=A;8:;314:CP_imnjcaabfkmpmg`YRPQRSRRSSUY^cgmopqoif_YXZ[\^afltxvpg[VUVY\[WVW[]dikhhhd_^_ZYTRPPOV[ZWTNGGHNTY^cgeb^ZWY_diigc]SJB;>EKPTVX]dmssni_SQY^djg`[XVUUZ_egf_WTTRQOJjfda``a_^_adc^VQIFHNSWWXUSW`dfd]WWUY_efhe^UPNLNLIEDBEFFEEDGJJIGFFKQTROIC=989<@EGGFFFHJMQVXYXVRPQTY^_[XVUUUSKD@><=?DJHDDBCP_gkg_]_bjqng`ZWY`fghd^[]^^ce`\__`gkmqrqrpkihdbb`^\YUUSUWWTTTX[`cfhmnqupkidaca_afhloppsvzzuuxyzzvnh`^YUVZYZ^bfmrpkd_^\YWUQRSRQQRV[^\VOKLS[bglouwuqjddb^[TIHKMT`chprld]USVac`]WMJLOTZ\[UMINXbd]SB43=ENX^]YVQMJIFA>>AELV]^]WMB=AB?=A:7:?878;CP^inmhb``bgnopke]VQPPPQPPPPRV[`gmppplec_ZWXWWXZ^ckpsrmc\YWY\[XVUXZafighhdb`]WVQNNOMSXXWTNGEGMTZ`efa]WSSZbhoomjf^SIACINPSSSW`jnoki`YZ`afif`_^\[\`dhgd\WTSQNJEd_][\]``^_afea[ULIJMRTUWWW\cfgc[TSPTY`djjf]UOJIGC@AAFFEDCBFKJGEDDHNSROJD?:;>ADJIFCB?@BEINRUWXURQRUY\ZXUTRSRLEB?<=?BHHEFEGS`flha_bdkpkb[URW_eggb\YZ[\_b_\_`^cehmqstqkjjgghd_ZRLLLPSSPQRX]dhijppsumea][^^[]beilllorvwruz|{zsh_[XRQTXWY\^`hnpmf_[WUTRPQRTVY\_dfd^URQYbikopqqnic\]]ZXQIJMPXcejqrjbZWX\efb[VMKMPV\]ZTMMT_ii^QB77AKQY^\URLFEFECAADGLTZ[YSKB>BCA>B;7=E??@AFQ\ejhd_]_agnnlfa^YUTRPQPOMLLORW_glnnjda_\ZYWVUUX[bipqmf_YWY[[ZVTVY_eihihdc_XRQLJMOMPUVUSLDACJRYbff_ZRKMWaiqsspmdXMDFKQSTRPS\fikiha^`dbdc`^bdddfhkmiaYVTRPLE@_ZXWZ\__^]affc^WNJKNRUWYZ[`efgbXQPMPSY_gjkd\SKGB=;=@FGEC@>CIJHFDDGLPQPMKHDFILLTRKEB;9:?CGKOQTTSRPRUZYYVTQRRLEB>;<?@GHHIJNYdglha`dgmnf^VOOW]cgfa]ZYZZZ^]\`a]_acgiklhddddfig_XNFGHMPPNOQX^fkmmrrrrj`ZUUYZX[`diklllosuruxxurh]UQLHGMRRUZZZcikjf_[WTSRPPQUY]cjmome[ZY`glijjjiiga[\\YXTOPRU]ginrpg_YY\ahgb[UMLORX]]ZUQT]hqm`QC:;DLPX[WOLD??AABCCEGKQXXUPIA>ADB@E?;@JGGIJMSX^b`]\]_cinlhb_``]ZUQRSROLHHJOV`imnle`_^\[ZWUTVY_ellje_Y[___]UPRV\eihigcc^UOMIHLNMORTUSMFBELU^gif^WMFHT_grwurpfYMDGLPQRNKPX`bdcdbdfg`^\[^hklmonqqh^WURPNIA=a[YVZ]_]]Z^efdaYOLLNSVY\]_cfegaWRPLOPTYafkjdZOG@99=BGGEB><AFHFEBACGKMMMPOMPSUW`]ULF;557;AEJNSWZYUUUXYYVSPQQLFB>;>BCHKLMPU^ghlhcbgjmka[SKNX]cie_]ZXYZX\\^ab\]\^bccda]]_aejg^VLCEGJMOLNPW^eknnrpmle[UPPSTUY^diklkklqtrutrok`UNIDBDKQQSYZZcjkjf_ZVSQOMKKQUYdnnqoeY[[bilda^\\`c`[[ZYZYX[[\cjkoqlc\Y\`ejh`YTMMORX[[YVV\gptk\MB=@EIJQSPIF<67;>BEFGGKQXXWPJB?BDCCHD@DONOPTUVY]^[Z\^bglmiaYX]`_\WRSVYYUOLLOVblqrog_]]^`bccabcfkolhb[UY__`_UMOSZchgfdaa]TMLHHNQQQTTUVSQOSY`flic]TICFPYamrpli_RHCFJMNMGFLT\___`afig^XTV^lqsvvsvrfZVSROMG?=b][X[^_\\X[adcb[RNMNU\_cdddede_WSRMOPQSY^eig^UKB::?EHHEA;:>CEDDB@@CEGGJRUTZ_ablh^SK>6347<@GKPX^^[ZXXXYTOMMNLGD?<>CDJNPQU[cikmiediklg]WOGMY]elg^][XYYUY[\``YXWZ_```\VUZ]bge\SIACEHKMLNPV\bilnpmhf^WPMLNORW\afhjjjkprqtonlgZQIB=>BJPQTYXX`fghd^ZWTSRNKIOQWcmlnlaW[^ejj`ZWTTY_[WUTSWZ^bbbgjilke]YY^bfkf]WSLLNPUWWWX\emsrfWKDABDDEKMJD?4/26;ADFFEJQWXXQKD@ADCEKIEITUUW[ZWWZXUX\^ciljdZPNV]^\YVVZ_`\VRRU\hsvupf[XY[^bdfgikmprohb\VZ___^UMNTZbiheccd`XPMIKRVVUUWZ]`a`bbcgje`\RHDEKT]gjhc]TIBAFKMMIBBKU^ba_^afih`ZWY^jnquvtwpbWSRSRQKB?b^]Y[^^[\Z\bdba[SPQW^fhihfdba_ZTQQNOOOORV]dfa[QF><@EGFB>88;@CCEFEDEDCCGRY\fnpqysfZQE<8778<BGLV_b``\XVWSMKJLKHE@<>DEKQSTX_ekmniecfhhaXSKFO\aioi^^^ZZ[WY[]a`YVTV]_`a\TRW[_dc[QIBDEHKNOQTX[^dhmolda[UPMLMMPUZ^cegiiimoophgfaTNF>:=BKQQSYWU\``b`[XXVWWSOLPPVbljjf\V[agif[SNLLQYXUSRRW^digdhihih`ZY\`cghb[URMLMPSTUW\clrunaTMGDB@?@HKHA;1,.39@CEDAHQWYZSMFABDCGNNLNWZ[]caYVUPOV[^ejlhaUJEMW]]^]\^cc_ZWVZ`kvzwqg[UUY]bgjklmoqrohb]Y^cedc[SRW]cihecdig`WRKMUZ\]]_cgkmihfceica^SIHEIS\cfc]WNF@CIMOMG@AMYbec`^afkjd_]\`gjnuwxyn_UPORTRLC?b^]YX[[X\[\_`]ZUPQU^gmmjfb^\ZWSONNMLLKJKNU\ab`XMC@AFFDA;669=?AFKLKKIHINZdhpxzzÄ|qdXMD=:87:?CHR\acc^WTTPJIGIJIGA=?DGMTUUX_ejmmhecddbZSNIGSbgntl`ad^^^YY[]`^VSPR[`acbZW[^_a`YPJFGHJMOSW[[[Y^cjnkc_YURPMNMOTZ^ceghhinoolca`ZQLD<9>DMSRRWVV]``_\WUVUWXVROQPVcliicYUZafd_VMIGEISUTRPOV_gkfbcdefe]Z\acdec\VSQMMNPQPQU]fptsj^TNGB>87;EIGA9/++/7>@A@<COVXZSLFCEHHKRRNOV[^bif\WSLLSY^flmh`RG@EPY]`a_^aca_^^cir{~xqh\TSX\clqrrssrtqjd`\`eghhaYX[_ehgddfmng^ULKS[`cefhlprpnkffhdcaUKJGKW`ceaYRLFCIOSSPF?BN\fheb`afihb__^`eiovxzwi[RLLQUSLE?^ZXTRTVUZ[[\]YURRV\clpnie_ZWVSOMLLLLKIGGHNU[`b]SJEDFEDA;6679;?GPUVWTRTXblov|~ÄÖÇ{pbVKC<979>AEMW_beaXRQMGGFGIJIEABGIOVVTW^bhkligdba]UOLKKZinsvm`be`_^ZY[^`\TQLOYaehhc_`a_^\XRMLLLLMPU[a`\X[`hlib^XVUSONORY`dfggggjnmnjb^]WPLE@?EJQTQQTTW^ba_YSNNNSWWVUUSYfmjiaZX[chd]XQLIFJSWXVPNR[cgb^]^`bb^^bgfc_YSQPQQSSTROOU]fnpmdZRLD>7119CIIC:0*),4<?BA;BMUWYRKFFJNORXWRRX\_dkh_ZTLLSX]fjliaTIABLW\`a^\^`adfjpvz~vle\USX[`jquvyywvsmea^_bfhgc__aeiieaaemqndYPMSZ`dghjnrsplidcfefcWNLHM\dffbXQMHHPVXYTICFQ`jkifcbcdc^^aachmsy{}tdVNGHOUUPJDURQOKMOPUXY[ZUSQSY^dlokfc\USRMJIHHJIIHFEEHMRY__YQIHFCB@:7778<CN[bffcbcdksu{ÄÉÉáÖÅxk^RG>:68;=@ELU[__XQOKFFEEIKKHEEHINTVSV\aeklkgd_^YRONLP`mswwmaad`^\ZXZ]_\SPJNWagkkhcba_][XVSQQPMLNU]eea[]`hkha\XVWVRRV[dmrqokhfhllmjc^\WQMGEDJOVVSSSRU\`a`YPJGGMSWYZXU]gllkb\[]did^]XTQMOWZ[YQLNU]a^ZYZ]`_^bhifaXPKNORV[Z[XSRW]dklg^XPG?80*.8BKKD:1)(+2:?BB>BMSVWQJEFKQQV[YUUZ]`ejg_ZRKLSV\dehidYTNKPY_adb_]]^aektz|}yofa[USVWY_ehloqqqnjda_`agjjhgfgikhb^_ckrtk^UPPW\_bfimpmfa_^agike[SOJP^fjje[SPNPY___ZMHLVclmkfb__`_]`egimsvz|~q`RIACJPSPMJOMLLHIKNTY[[YRPPTZ`cgga][UPPPKHGECFGFGFDEHJOUZ\[UOMHDA?9889<CLZiquurrtsw{|~ÅÉÉÖÑÖÄth[NB<78:;<>CJRXZVROLHHFEHKLJHHKKNSTSU]bgjlkgc^[VQPPQWfswzxmbbfa^\[XY^_\USNS\floomhca^[XYZYXWUOLNV_ikfbadikg`ZWWXXWYait~Å|ulecehhjf`[YUQMJHHMTZZYYWVX[_ba[QGCBHOUY[YW^fknlda__fjdab`^ZTVZ\]ZOILRY^\WUW[^]^eijg`UKHLPU^eeeb\YZ\bfgc\VNC92*&-8CLLD;2*(+19?BC@BLSWXRKFGNUW[^\WW\`chmi`ZRLNTW^dcfjh`_\VW]cehfc^[\`ekswusla[YXVV[]^dhilmljjfd`]\]^gmnmnkijkga\\_fpuocZSOSVZ]adghe_[\adjnpid^WQXbhmnh^WTRU^ca`YNJOWaghfa]Z[[[X[`ciovwz{{k[NC<>CHKJKKIJJLIIJNSY\\YQMNS[_]^\USVRNOOJIIGEHHGGFCEILOTXYZXUTNGC?99:<BKWftzÄÉÅÉÑÅÄÄÇÉáÜ}rfXIA<:;;;;=AHPUWWWROKGCFJMLMMNMNRSSV_dgikkhea]VRQSV_lvwvri`bfb]ZZWX_^YSTOV_inrrqld`\XVY]^\[WPMOU`klhffhiid^XXXZ\_dp|ÜåãÅvjc`bccea\WVSQLKKJNW\\^_\[]_cffaWMGDGLRX\\\cjoqoggc`ficaefe`Z\]\^ZMGKPW[[WSTXZY\eijgaULHOUZdnoolf`\Y]_a_\UL@61+*2<DLMD;2*').7=ABABJSYYTLGGPX[^_[UV[`djmic\TPRVY`d`afgdhjecejhhfc[X[`hrywqi]QOPSW\adfknorqmifba\YWWWahjkligije_[[]cltqh`XQOPRSX]bdb_^`fhntvpng[UX_djkdZTQPU_ca_WNKOV^bca[XVVUUQUY_hovwyzxgXI=7;?CFGILFIKNLKILPVZ[XQMLQVXUTTOPSQMNNJKMNNSSQMIEEHLPSUVWXXYRJC>67:AJVdqzÄÑÑÑÖàÜÖÑÇ}{{{~ÄÜàÇypcSLFBAA>;:<AJRZ_b^YRJCDHLNQQQNNPTUY`dfgiljifaXTSW\epyurld\]c_ZX[XY`^VPROWakoronia[YXWZ_`]YUPOQV_gihijjhf`ZTVX\bjtÅçïïèÉvh`]^^^ab_ZXUQLLNMPY]]bcabdcdggbZRLIKPV]aackqvyullgdikechiid^__\^[MHMQW\\WSTXYY\dfge`UNLTY^hrtvwri`XXXZ[YSLA::78@GJNND<3+')-5=ACCGMV^^WOHHPW[^]YTUZ^bhlhc^XWZ]`eb\[_cgpxupnokjig^\`fp|yoaRGFIOXagklmnoqokfb^`]ZXWU^egikgeghc^Z[\ahqqjd`WQMMLSZ`cc`^bikovvqogYSTX\bc^VROOU^c_[RKJPU[_^ZUQNOPQOSW^gpvvxytcUD86:>@CBEIAFJNNMKKNSWYWQMKLOPONNMOQPMMMILPRU[]YTNIFHJORSSUWY]WOH@89>GTbpy}ÅÅÅÑáÖÑÇÄ{wwwz|ÇáÉ}wm_WQMLKF@;:=EO\fmlf\PEBFJMRTSQRSVW[_``adgghe_VTQW]gpwrmgaZZa^XV[XZ`]TNPOYckopmkf_YXYXZ^_YVQNPRU]ceehjheb_YVX\clyÖêñöîåse^YZYZ_ca]\YSMOOLNW[]cfcegddfea[VQMLNTY^`dow}Ç|qmiejkedghhc]_^Y\YKHORW]]WSTVVWX_abc`WRQX]`irux~zoaWUTX[ZSLEBEFIMNNONG?7.)*.5=ABCGNV`b\SNNRX[[WRNOUZagjfa\YZ_bdf_WSX_huÅwssnmmkdbekvÄxl[LA@CMXckqrtrpoid_[Y]\[[YU\cfijdaaba^[\^bemolfcZQKIHOX^ab_]bjlqvuplbUOOPTZ[XTQPRYbe`XMGHNT[]YSNJHKOQRW\eowyvuum]PA67<@@??CJ=CJPSUSPPSUXYTOLKLMNNOPRSRPONKNSX\dfaZRKGGJNRSSSUX\ZUOF=>EN]mz~{|}~ÇàáÑÇÄ{wvuwy~ÇÅ}zsha[WVVRKD>>DM\kvyugXIACHKPTTSUWVVY\Z[\`cegc\UROT\fpwrjc^XW`_YX]Y\`\RMNOYdlopnlha[YZYZ^]WTPORVW[`abfjgcb`ZY]blzáêïïëá}ri^ZWXUV]bb``\UPPNIKTW[ab`bedded`]YVQNMPTY]er|ÉàÄsmkgllfcfgfb[^\VYWJHQTX^]VRRRSUVZ\^``ZVW\`cksx|ÑÇveZUSV[YRNLMQUWVROMMIC;3,+-4;??@EJR\`]WVVY\^YTMHHPV^eic^YWZ`dff\RMPZes~vssonlibadkv}viXH=<ALYenuvwsqle_ZVV[]`b`[`dfjic`__`^]^`cdjnlhf^SJFELV\__\Z`gjptqkeXLGGHLPSSRQRT\be^TGDINT\]VOJGDGLQRWalw}xtpfXK?7;@CA==BJ9?GOV[ZUQQRUXWSOLJKMNQSUWWUSQMOT]dkoj`WPHEGJMPQQRVZZYWNEFNWfv~{vvxzÄááÖÑÉ|wussux{|zyvoje`^^YTLEBEKYixÄ~q`NCADGMSVUWXVTTTQPTZ_be`XQNJPYblsne^[UU_^YY^Z\`[RLKMU`hmmkhe`[Z]\\]ZTQNNTXXX[\]ahhdb`\]cmyÜèìêãÇule`ZYWVRU\bdca\VQQNJJQUZ__]_cdeed`][YTOMNQV[fvÉäéÑvpokonfbffea[]ZTVUJIRVZ`b\XVTRTTX[]_`ZWZ^bekpv|ÜÜzj_WSW\ZUUVX\_^ZRMKLKG@7.+,2:==>CFLV[[XY[\^_XQJCAJOYafa^ZY]cgie[OHLXdq{yrqqljga]^cju{|tgWIA@FS_hpvvtpkc\[WWY]`egd`bdeigda^^_]\_aefjnmhd\QHDDJUY[ZVU\bhorldXH>;<?DHLPSSTW^bd^SGGMPV]\TLHEBCIOQWdq{Å~wpj_TG@;@EGC>>CK8<CMU]_[TPNQW[[VRKIJMPSWYZ[YUQPT^gouqh_XOJGHIKMNNSWY[^UMOW^lz}wrqsu|ÑáÜÖÑ|vrnmosuvttrpnljge_WPJGJMVds}wgVGBCDIPUUWYVQPNIIOV[^a[SMKHNU^inib\YTT^^[[^Y\^[TOKLT]eklhdb^[[_^]\XROLMRVWVVXY\dedbaaemyÖçêéÖ}tib_[XWUUQT]dgfc^XTRPIIOSY^^]_cdddb\XWTPLKLNQVctÑçíà{tsnpkc_bcca]^ZSUTJIRVYaeb^\WTTUWZ\^]VSW\aglou{Öá~pg\WX[YWY\_`b_XNJHLMKD;0,-18==?BEJQXZY[]]__XQIA>GLW_e`_]]`ejke[OGKWamsojlkggc\\`dltvxpdWNJJQ^eiqurni`VSTUY]`ekkhfffhkifd_]][Z]agikmle`WNEBCGRUTQPPX`gnmdZL=667>DINTWVWY_ab]SJNTVZ^[SMIFDDINPUanx~{vmf\RFB?DGID??FN;=EOXaec[TONUZ^\YOKJLOTWZ[]\ZVSS[dksqia[SMJIIJMOMQVX[b^V[bfq~Å}volnryÇÜÖÉÅysnjhjmmonnnnlklkic]TMJLMR]itxvl]OIFEFLSTVYVOMKGGMUXZ\UMHGFJPZdhe`ZWST__[\\VZ[XTRMNU\agifb`]YZ^^]]ZTRONPTUSSVVX^bbcfkt{ÖåçâÉwqjb_]ZWVUTPU]ced_\ZXVRKILQX\\[[^aaab\WTRNIHGHIN\oÅåëà~usmmg^Z]_^^[]XRRRKIPUW_ee`^WRRSUZ\]ZSQUY`jopuyÄÉtlb\[[ZY[_ccb\RHDDKOOJB6/.15:<=>@DJSYZ\^\]^WPH?<FLW`gca___chje^TKMX`hkeaedcc_Y[]bilmpj`WSQRZdgioqlg^SJIOTZ`belmkkkiklhgfa_]YWZ^ehjih`YQHA?ADNROLMPXbkpk`WI=8::?EINTWVWY]]^ZSOUZ[]\YSOKJFEHLMS^iu{yvnf^THGEGGGA>@HQFIPY`hljc\TOUZ]_^TNNNQTVX[]^]ZVSZciqrjb]VPMKIKLNMPSVYa`\cjnvÅ{uniknuÖÑÄ|tmjfdfihjjjijihiigd`XQNNMPYbinpjaXSPLJMSSUWWQOLIIOVXZ\TLIHFIOXadb^XUSV_^Z[[TYYURSNPW]`ehe`^[XY^_^\\YXVUSWXVVZVV[`dgmv~ÅÜÜÅzskid`^]ZXUSRNT\`b`ZY[YWRJGJPW]\\[]_```\VTUSONLHGLZmãêÜ}tohg`XUXZYXWXUQQRMJOVV]ega^WSRTVZ[\XQPUW`kpnru{~wpg`]\[Z]bedaXMC>@HNOLE:3126:;=;=AFMWWXYYZ\WQIA>HOYbiedbb^agkie\SRY_cc]\_``a\WVY^ceilf]YVUYahikppjbWG>ALS\cegmpnpqonmhfgcb^YUW[bggeaYQJC>>@DMSOMOTZeorlc[QHCC@@BDIOSSRRTSSSRSZ]\[WTROMLGCDFGMU`kstupjbXMKHHEC=>@HPPQTY\bfheaYQSZ\_aZQPPQRRUWZ\\ZVSZbhnpjc_[WTPKJJMMPQSW_abkqrxÄ~zumggjp{ÅÅ~zpkjgcegfhjkiihhiifa_YTRRONV\bejfc_^[WSRVVWYZVTRONSWXZ[UMJJIJOV^`]ZVSRU^[VVWPVWRPSQT[``bea\ZWUX]__\]\]YWTWY[\^YVX^djs~ÑÄyrmkghe`^]YXTQOMT[`a^XXYWUPHEHOW^^^]^__``ZTSVURRPJGKYk~äëá~sldbZSPQSRQRSQOPTQMPVUZdgb]WSRTVYZ[WPQTU_kmjlnqvzvoha^[[\^`cc`WLC<>FLNMF=7456:<=;=AFMVURRRTXWQKB@JPZckhiig_`flnng]Y[^`^Z[^`_]XQOS[_bhjb\[YY_fjjlrqj_Q@5;JR\ehfjmlnponkfcedc_XSTW_ed_ZQID?<=>CNUSQUZ^isuogaYTOLHEBACHLMMMLJJMPV]]ZUOMPNMLGBBBBGLT_glpnjdYQNKID@;=>DJTSRSSW\bcb]TSZ[]a]TRQQQOQTVWYWSQV^fklgd```_[VROONNNOT\bgquux}{xtlgfhmw}~zwpkkjffgfgjkihghiigb^YTTTTRXY[\aacfhgb^Z][]^_[ZXUUXZZ[]XQNNLKOU\^[XUQPS\XRQSLTVQMRQU]ba`ca]ZWUW[^_]_ac_]X[]`ab]XY^hq{ÉÜzqiddhkkhc`\YWSNLMU[aa^XYYVRMDCGOW]]^^___^^XQPTUTUSLHJWi|âëâri`\TNJJLKKLMMOQVUQQVUYad^XRONOSWYZUPRRS]ghghikpusmf`]ZZYXZ_a`ZOD<<DKNNH@:888:<>=?DIOWTONNOTVQKCBLS\emkmmh]]cjrvof`]\]]]^cc`ZTLJPY^bhg`]^\[afhinrpg[J907GQ[gjfhliknolic`cdc_XQPRY^\WRIC@><==BLVUTY_`kuvqlfa^XSNIA<<@CFHIGEEIPW\ZVNFHMMNMGA?>>DGNX`ekkidYRNKHC>;==@ETSPOLNRX^b`YUZYZ]]USPQQOOSTUVUSOSZaegc`]]_a`]\YWTRNOS[cktwvw{yvtmhgiltz{xwqnnnifecdfihfefgggda\VUTTTYYWWZ\`hmolgbbaccc_^ZY[]^^]^ZTPPLJMRY\ZXURORZTLLOIRTOIMNS[ba^aa^[WVXZ^`\`dhed^`aefg`ZZamwÇÜÉqc\\`hnmjfc_\WQLILT[aa^[\ZVQJDEIQW[]`_`a_\\VPNRSSTSMHKXi|âìä~ph^YRLFEFEEGIJORVVSQXXZ^`ZQKIIJOTWXSPSPPZb``bbejonid_][ZXTUZ_a]SG=<DJNOJB><;;;<>>@FLPWUPNMNRSPKFGPV^dlkmlfZ\ckw|vnf_^_```ee_XRHFMUY`ec^^_[Y]`afmpnfWF6-5FPZgjehkiikmjfb_adc_XPLMQUTOJC??@?>?DLWYY_dcmtusohfd]WSI<436;@DFDAAFOTWTNE@ELMMJC=;:=GLS\abcdb^VQMJHD?=>=>@QOKHEEHOV]a^Z`^ZZZQOOQRQQUUTUVROQV\acba__ab_\\ZYYVQQT[cmtwuwywtqkfehkrwyxxsoonifdbbdghffggffeb_ZXUTTXWUSVX]flonlhhgihgb`\[]_``^^[TOOJHKPW\\YWURTZTIGJFQRLEHJQ[ba]_``^\^_]`aZ^dhhgdegjlje^_frzÇÉ{i\WZ`hnmjigb^XPIEJQY_a_^^\XRKFHKRWY\`_`b`\ZUNKNOPPPLHJWgyáìäqi^XPJDABBCEGKQSVVRQXZ[^^XNHFEGMRUVQQSPNW[WXZZ^fjiea\]\[XSRVZ]\SH?=DJMNHA>=????A?AGMPUVPMMMOPMKKPZ_dgkillf\`fmy~ysmebcdeeih`VPECLSW`da`b`YVYY[dlnnfUE6-5EOZgjfgjhghjgc`_aed_XOIHLONJF@=>BBBBFMX\]bfdjqrsnged\WTL>66:?BEFC??ELPPLE<;AIKJF?979AMT[bc_\[ZXRPLHFD@@@>>>MIC?>=@HOW^``ff_ZWLFIMPQRVTTVXSQQTX[[\^^`dd`\ZXWWVSSW^enuwtvvuspifdfiotvxxuqqpkhecbcfhggiigfeb_\ZVUSUTRPRU[cgjjjhijkkhb_\Z]_`a]\YRLKGEIMU[\YYYTV\SFDECOPKCEGPYba\]`abdfd``^W[bgghfhikmkhddktxzzse]]adjnkjigd_XPGDJQY_a`aa^YPIFHKRVVY]\\^^ZYTNIHIIIIHEGTevÑìãÄsl`XOGA<?ADHMRWWVTPOV[\^^XMGCCEKPTTPPRONVWQRUVZcfd`\[\\ZWQPTX\\TKB@EJLMG?;<AABCEAAHMOSWQNMMLLJKNV`eilnnpng_agny}xtogcegiiljaVOFHOSW`_\^a\TSSQVcijkcRC6.4BMYfhdddbabca_^_aeb]VMFEGJIGE?<?DEEEINW[]cfdhmopia^\URSNB<?DIJJID@AEIIHC;57>FJID>96;FSZafbZVUUVSQLHEDBAA=;;JF@>>>AFKPY^cjmd\TH>@FJLNRSTX][WUTUWXZ[[\_`]ZYYZZZXWY`elrtsuutqoigegimprtusqpoljgeccdfhgiihgea^ZVSRQQOMLNRX_bddeeghiig`\ZY\_`a^[XPHDAAFLT[]ZZ]X\_UFCBDPQLDEGOXba\]bdflnia^XQV_egiikjjliihiousqpkdafjikkggihge_UKINRZaccdc`YOIHILQTTVZYXXYXVRMGDEEEFGDFTcsÇìçÉwqcYNG@;>DJOUZ]ZTRNNU]]`_YOHBBDJOSSNOQPQXVONQPV_a^[YY[ZYUPOSWZZSKCBFJLMG?;<DCDHJCCIMNQVRMMMKJILS\fknmomnkeaflszzuqkecdfiikiaWQKOTVX`[X]aYRRPMTadee[K?527DQ\gidca`_`a`]^_aeb\VMEBCEDEFDCFKLKIKOUY]dgghknmc[VSOOQND@FLQQOLGBCEEC@:3/5<DJIC=97<KZbhjaUOPRUTRLGEDCB@;97OKFCEEEHJMU]fmtk`SG89?DGIMPRXaa_\ZXZ[]\ZWWVTSRUXZ]^]]beinqrtttpmhfdfgilnprpnmllkifecceghjkjifc_YSOLKLLKKMQW\^___^`bdfe^[XY^begc^[QFA==CKS[]Z\a]aaUFB@FRUPIHJPYab]_ehnuwod]VNT^efjlmkijikmkoohdggehmokhe`_cfhgcZPNRTZadcdc`WNJJIJNPOQTROORRRPMFBAABDFDFSbqÄíéÖysfYMG@:?FLRY]^YROKKSZ[^]XOICDGKOSRMMPQT[YQLNKQY\YVVY[YXUPORUZZTMFDGILNH?<@HFHNOHJOSPSXTNNMJJLR\fnqqonkkgccjqx{vqmfccbceefeaZUTWXWX\UTZ]UQRNLT``bbYIA:9?KW_fgb_^^^aa`^^_beb\WPIDDDCEIJKMOONLMQVZ_fiihkni]VNKKMPNFCLTXVRLFABC@=93--3;BJKD@>=CTdjml`QJNRUWUNIHIIFC=:8VRMKKLMNMNS[emuncTF759>ACFHKR]ceec`a__]XSQONLJMPSX\]^adfjnqttrolgecdegikmmkjkjlnmjgdcdfhkkljgc_ZRKGDEGIKNRW\^^_^\[]_cd`]\\bgijf`[QE>9;CKS\^Z^dafdWHD@HTXTNMPT[bb]^fks}vi_ULR]efjnokhhhlpnni_Z_cgkoqke^WV[`ege^UTWX]cfcb`]SLJIGFIJJJKICAGJLMLFB@??@CCFSan}éåÖztg[NGA<@HOV\^^XQMIIOVW[[WQLHJMOQSPMLNQW^]VPOLPVXUTUXZXWTPORTXXTNHFGILNJCAGPMOUUMPTWTW[WQPNKLPXclrtsqqlid`bjs{zsmg`abceggeca[YZ][XWXQQWYRQSPPXb`aaXKGDDIS[^bc]YY\]ab`]]^aeb\WRKFEEDGMPQRQONLMQVX]eiihlmeXOFCHKNMFCNX]ZUMFAAA<;84015:?IMGEGFK[hllgZLFKRVWVOJJLLIEBA@YUQNMMORRQSXaiqogXJ:4368:<>BIVahlligb^ZVPMLKIHJLNRWZ[_bdgloqqnkigfedcdegijijlmprpljfccehkkmlhfa[SJC??AFJOSW\`aaa]Z[]bdb`^]chhhe_YPE=89AIRZ\X]ecgcVIDAKW\ZUTVZ_ba]_fluÄuh[PHNYadinojghinroldXSY^dinohaXPMRX`ee^WWZ[`efb_\VLEDDBBDEFFGG@;AEGIIE@=<;;=?DRan|åäÉysgZNHB=CLSZ_^[UMJHHKQTWXVSPNPSRRROLJJNV^`\USOQTVRPRUWWVSPNMOSTROIHIKMOLGEMVQT[WOQTUSV[ZTSQMNT]gnstsqrmg_Z^hr~|qi`WZ^adghfcb_^ab\YVTMNSTPQUUX_fba^VLLMOT]a`_^WRTY[_a_\\]adb]WQKFEEFJOSVUQMJIKQUV[chhimnbUKA?GJLJA=ISZZUMFBA?=>===>?@AJPLMSRTbjkhaTGAHOSTSMKLOOLIHILTSQNLLNSUUWY_emli]P@70/1247:AM[gnrqnhb[VNIIJHHIJKMRTVZ]_bhlomlhfeffedcceghikmmqsrmkfbabfjkmlhf`YQJB?=?CGMRW\bddc\WVX_ccb`]affec_ZQG?::AIQZ\X]ede`TJGFR]c`^^_`cdb__fnv~}sgYNGMW`gmqqkefflpmi`UQUY^dhke\SJEKS[cf_Z\`bgjgc`[TLFEDBA@ACCGIB<@CDFFC=9988:;BQ`m|ãâÉysfZNJC>FOU[\XTOIFEFGMQTUUTRQSSQPPMLIGKT^baZVPOQRONPSVWVTQMJKNPPOLLLLMNKIKUZWZ]WQSTVUW[ZVUTQQXakqutroog`XU]jxÉqfZQV[^adgfccbadd^ZVQKMPQOTY[_eida]UOQTYckmjd\TNRX\ab`^]^adc_WQJFEFJPVZ\ZSKGGIQXZ^fjknrpaSH>>GJKH>7BMVWVOICA?>ADHMOLKHMSQV_a`jnke_SFAFJMONIHLOPOOQTXPRQNKIJOUXZ]adiliaVI=41002249ESbnuvtng^ZPKIJGGFDCDGKORVY]bhkjifcabcdcabcdfhikkoqqmjea_`ehjllhf`ZSLFC@?BDJPV]dggd\TST\acb`[]_aa^][SJD?=CHPWZW^ffdaWONOYbgdcccdfedbchpw|zqfYOINVaiosrhbceinkf^RORUZ`dgaWNE?DMV]`\Z\bgjjfaa^XSMHDA>;;?AHKE>?ACDDA;655446@O`n}äàÇxqeZOKDAHQVZYSMHDAABBHNQRTTSTTTPOMLKGDGP[cea\VRQPMMNRVXXVSNIILMPPOPPNNNJIMY]\]]URUWYY[]\ZYXTV[dmsusplmga[Ybn~áÅqdVNSY\_cfeddbadd`]YRLLNNOUZ\bhidb]WSV[cqz{ui\QKQW[_a^][]afecZRKHFIOTWZ\ZTKGHKRZ\_glmsup_QD;>HKLG=5>JTXXSMFDBCHLU^a^YQRVW_knmsqkc]SHDGHILJGGJORSWZ^aNPQMIEEIQX\adgjnmg]SG=8522116BP`ovwvrkc`VNJICDCA>>AGKOSTV[aegfda^_`````bdeghjkoqrolfb^^cfhkkhe_XRKHGD@BBELS\fhhd\RQR[`cb^VSSTWVWVQJFBADIPZ]\cifcc]WWZ`hjgeedfgfddeipwxtmdXMIOVajopmc`bbekgc]RORSW^ac^SIA<?JS[]YY\bgkha_bc`^XOIC?98<@HLG?==@BCA<743213=M_o~äáÅvnaXNLEBIQVYWQIC?==??DKOPRTTVUTPMKKJFACLWafd_ZUQOLLMQUYXWUPIGIJMPQSUUSRNLP\^^_[PMMOQTX[ZZZYVX]dlqrqmijf`\\frÉâÅpaQKPVZ]acbcb^^_`__\VNMLMNUY\bhgeb]WUW\etÅ{m]PIOVZ]_\[Z\`ded[RKHGJRUXZ[ZULHKLRZZ^eknvvm\N@:@JNNH=4;GTY[WQKHHKPXcnqmdXVY[gtwuuog^[WNJKHEGFEEHLQUY]bePSSPJEABKTZbhkloniaZPF?:6544:ESaoutsroii`VOKCBA?=?DLPTUSRUY_acb_[ZZZ[[]_acefijnpromhc^^bdgjjge^VPKJMLGFCCGQ[egf`XNNPY]`\VLECEJMQTRMIGDDIR\cdjnjde_Y[_eknkigeefghjlotwung`VNOU[cjlkg^]_\^da^[RPRSW_``]RH?<>HRZ\XY\aficZ[cgjkcVLD=65:@HNI@;:>CED?9431/0:J]n~äáÄtk^VMLFBJSWYUMD<99:=?ELPPRSSVVUQOLLIC@AIUaghd]XQMJJLQUXWUTPIGHHLPSVYZZWRPR\^_^XLHFGKOSXXYYZWX]elprqlhigcbdo|äåÅn]LIMRTVZ]^aa\YZ[\`_YQLJKLRUX^dcb^XSQQV_p~ÑÄraPIOSX\_]]Z[^bcd\RJHFJRUXYZ[XOKLLPXZ_fknurfXK>;BLQQI>49GUZ][TMKKOU^juxti\Y[_kw{xskbZ[]VSQIABBCEHMRUX\_`UXYVQMFCJSYbkoopoke`YQH@;99;CNZdnsqqssopg]TNFC?<;>DNTYXUQQSX]ab`\YVUVXZ]_bddfillpnlie_^bcehiec[SNJNTUQNFCFQZcebZRGHKUZ\YQF<9;AGMSTQNKGEJU_ikpqked]VY^eknnjgddehkpsuxysjd`ZW[`chiheaXYYTU[ZYZTSUUYaa_]RG@<>HRZ][]_cgg_X[fmsukZMB<44:AHLH?88>CGHE>85300:J^oÅåàÅui]ULLFDKT[^YPF<9:<?DJQTUTSSWYXTRMLHC@AIWbkmjd]TMIKMRVXURTQMJKILOTX[^_[WUW^`b_VJFCEHLPTTVWXWX]elorqkghffglxÜëéÇnZKIMOONRWY``XSSTY_`ZSMJJLPQSZ`_^ZTNMKNWhyÇÇvdTLORX]```[Y[_`b^UMKILSVXZ[_]UQQNPVY`hlptn`TH=<DMQRJ@7<JW]`]UNMOQXcnvzvj^\^coz}yqg^W[a]ZVJ?@ABFJNSTVZ[[UZ][WSLFKSYcmrqpmied`ZQHA=>CMXbhlmklpsqsmbYQGC?<;>FQW]]ZTQPSY_ba]XTQQUX]`bc`adhinmkhe_^aabfhdb[QKHMU[YWNIKT\efaXOEFHRX[ZUI?86:AIPTTQMHFLYdnpsqlfd[SSX_fkmidbccgmruuvvpjfebaceee`]\XRUSMMQQRURTVX]da^\RG@<<FQX\_a`bb^XSYfqxzo]N@9339@FIE<68@GMNJC<8511<L`qÇåàrfZTLKHFLU]b[RI>9;>@GNTWYWUV\^]YVPLGCBCIVbkonicXPLLOSVXSORRPPQOPRUX^aeb_\]cde_UHD?ADHLPQQSUUV\cjorojggfhkr~åîéÅmYJJLMLKOSX_^UMMMS[`\UOJIJMOT\a^\UMIHEGN\lx|uiZRRRV\``_ZVXZ[]]WPNLNQSVXZ`b[YXSPSV\ehlmdVMD;=ENRRJA:@MX]_[RKLNQYfouxth]_cgr{|vmcYSX`][VJ>?ACHNRUUTWXXTX\\ZYSMNV[bmromkgefe`YQJFHNXahkkiggmqqsoe]TKEA??BJV]bc_XTQQU\aba\UQQUZ^aa_[Z]cfklkhe`^a`aegc`XNFCIS\^]UNOV]ff_WLCDGPX]`^PD;33;DLRUTPLMUbnwvupieaVMLQZahkhbacdhotuspplhgjihhhe_VTTQOTPIGHHLPOTY[_e`\YQFA=<DPX_cecb]WQNWfrz{o^N?955<BEGD;7=FNUUSLD?;42<L_qÉåârcXQKKKJMU_d\TK>8:=@JRVZ\ZY]dge^YQKFDDEJVaiopmh^VQPQTUWQLORSUWTSSUX^djgfefjmlcWI@::=AEJMMOQQQYagmrnjhfehltÇêñékVIJNNLKMPU\\TLIGMV]]ZTMJJLPY`d_XMEBB@AGP_ksqj]VTRUZ^_]WRSTVXZXSPMNNOTUYac]_^WUTV\ddfdZLGB<>ELOOH@>EPX[YULGGKMWenrsoc\`gkt{yqg\TPU^_\VJ>>ADJPTWUTWXYOSWZZ\XRRWZ^imifeaadeb\UOLNWahlkgc``dhjnnhc\SLFACIQZbffb^XSQSX_bc`[VVZ]`_]YUSV]bhjkgc_^a`adfa^VLEBFQ[``ZTSX^ff_UK@@BKT]ccVI<0-4=GOUWURV_jtytrleb^PGFKU\bfd__acgotsojhgghmmlid^VLKMLNVTNKGDFJLSXZ]b]XVQGB=<COYagheaZRNMVfryxkZJ<644<CFGC=<DMUZZXTLF@62=L`qÉåâ~qaVPLMPOQXcg^VM?67:>JTY]b__dlnkd]SJEEFHKV`gnqojaYSRSUWXRKMORUWUSRTV]djihilosrgZK@868<AGMMNONMT\clqnjigehlvÑîñç|hRGJONMLMOTZ[TKGEJR]__[SKIIOX`b\RE=;=<@FMXdlmi`ZWSTWZ[YSOPPSUYZUROPLMTUZcf_caYUSU[caa\REC@<>DIKKD@CKTXXRME@ADITbjmmh`]biovxsk`WQQT\^[UJBBDGLQSTSSVX\HLPTWZZVW\^ajkd_]XY_cda\VSW^fjjf`\YY\`cgkjhc[RJDEIOW]`cba]XSSW^dggc_]_`a_\WQMPW_dhiea^^a`_bc^ZSJC@DLW^`^[[^bih`VJ?=>GR^ik^PA2,19CLTYXX^hqxwomg`_ZMFHMW\`ba^_adfnrpjd``dhmmle^XPGFJIPYZXUMGFGJRY[\`ZUROFC==DPXbhhd`WPNMVgsxtgWG9657>EHGCADNUZ\ZYXTME;8CRfvÜçâ|o^TONPUTSZei`YO?447<IRX_ecejqrmd]QGEFHJLU^dlpnjbZTRSVZ\VNNORUVTQPQTZ`eghkorvuj\M?6359@GOPPOLIQX_jqmjifcehrÄèèáwcNFKPNMNNOU\^XOKGIP\adaXNJJPX^_VJ>88;>ELPXafhhd^YUSSVYVQNOOSW\_\WSRMMUW\dg`ebYUSTZb^]VLBA?<>CGIHEELTZYVMGA>?BHS^ehgd^^cjousme]USSUX\XQJGJNQUVTQRTUW[AEIMQUWVY_bcih_YUPPW^bcb^\_chhd_ZUSSUY^cijie^VNHHJPUYY]]_][VTX^chjgdcbba]YTNIKQZ`efb][\`_^`_ZUNG@>@GQY_```bfkiaVI>::CO^mqeVE4.06?HPWY]epx~ymjc[\[PMPU\_aa`]_aegorpja\\bhonibYRLDCEGPZ_`_XPMKLPVXY\WRPMFB=>EOWaedb^UOMKTequqeYI=;==CIJGDELX]^\YWZXRJ@?JWjxÑäÖxl[PNORXVTZbc[TI:0/19FNT^edipsqlcZOFCEHJLS\bhjhd^XSRSW^a[SPNORSQOMNQW]begjoswvl]M?525:AHRTTRNKRW^inigfcabckyÜÖ~q^KDKQOPSRQW]_[TOIHN[afd[OJIOW[YOC946;AKRTY`behe`[UQPQTRONOPUY]baZUTNMW[_ef^baZWWY^c\XPE>?>;>BEIIILV\^ZTHBABCFKQV[__]\]bhnqme_YSUWUW[VRPRV\\]ZRORTSTUEEFHKPTTY`baebYTRLKOU\bedddefe_[XRPNPTZ`gjjhbZQKLNTWXVXWZ[[YX\afkmjgcb`_ZWSNJJNW]bda[Y[__^_\UPIC?<>CMW_deccfig`UI=87AN_nqeVC4003;CKTZbmw}ÅxkhbZ\]UUZ^aa`^]]``dgmsuog`^`inlhbWQLDACGS^flmh`ZUQPUUUWTPOLGC@AHRY`ca``ZWTPUcoqmd\NHHJGJMKGFKT`c`ZUUZ[VMDEP]nzÑâÑwkXNNQTYVSY__XQD5,+,6DLS_ffmsspkaXLC?BFKNU]beea\WSRRSYac\VPKKMMKIHJMQX]afjmqutk^OA758?HOX[ZVRPVZaimhgeb`^_epyyshXGBKQPTXURX^`^ZSLIKV^dc[PLILRTQH>735;DNVX]abehd_ZUPNOQPNNRTX[^`a\XVQPX\acb[^\XWW[bc[UK?;<<;>@CGJLQ\`_YRFCFKNPQPOQTUVWZ_ejkd]WSQUYWX\XWY`eigd\PNRTRRROMLKLOQRY`a__[SONJGINU]bdeecc_ZWUOMKNS[aillje]RLJMSVVUTQTWYXZ^chmokgb`__\ZVPLKMUZ_b`[WZ]]\\XQKE@=<=@LW`hmihjlhaTH<65?M^klbSB64336<DLVbnx~vjg`[]_Y[acdc_Z[^_`cdjsyuog`_hljidYRNFABIVblvvrh_XROSSRRQMMKHECELU[^_^]_``[TXbkmjc_URUVPONKGHP\ge^WQRY[VNGJUap|ÑÜÅtgTMNRTWSPW^]VO@2+)*6DKS`ffnrnlh`XNC>@GMRY_cc_ZSOMPRU[bbZTMHHHHFDDGKNUY^diilopi]PD99>ENTZ]\YUUZ\bikgeca^ZZ_fmmh^RDBLQPV[XUZ_aa_XPKJQV[\WNJHILOLE=624<GQX[^bbfhc]ZVPNMMNNPVZ]^]]_]ZYWV[_a`\VVUSQTYbbZPE:89::<>AGLOT]a_XRJIMTVTQLGGJLNQU[afd]UOMOW[ZZ^[\cnruqi^RORRPQP[YWTSSUV^de_ZSLHIHEFJQY`deea]XSPPMLKOS[bikkjg^TMHFLPOOOLNRUVY^bglnic^\[[[\XQNLKPU[^^[WY\\\ZVNHC@<<>?LXdntpmnnh`SG<76AQ_jjaQB986337=EO^lw|~tjhb^_a\`efec^Y[_aacdis}|vlb^dijkh^WSKEFNYbkrqmf_ZVQVWTQPLLKJHGIQX[[\[]bhhaXYajkiec[\aaXSOIGJUblh]TNOWZWPKOYer|ÉÑ~qcRLORTTOLT\ZTL</*),;GMTadfmohge]WQHDHQVY_bcaYSNJKSWY^b_WQMIHHHFCCEHIPUZagfiije[OG??DIPTWY[YXZ_`dijgfb`]XW]acc_VLCDNRRX\YW\`bcc^VOJLMOQOIGGHMPNG?715?JRW[^`cgf`ZZWQOLJKNS[`b`\Y[]\\][[]^YTQQQQQT[caXL@66778;<?HNRV^`^YWRQTZYTME>>@DHKOU[_\UNIJQZ_^\\Z^iv|}yocXWXVSSQ`^]ZXXX[bge^TKEFHHGEFLT\adc_YSOMONMLORY_fhiig`UNFCGKKKKIIMQTY]`begc^ZYYZZ[VQOMJLQW[^^[\]^^[WNFC@<<?AP`lw|unnld]RG=87BQ_ee\M@:952017?J[kv{|tkifcdeadfeb`\X\adceehq}ypc\`ehjha\ZSNOV]dijfc]XWXSYZUNLHJKLKKMTZ\[\]_gmlcYY_hhgfe_djf\UNIJPZhog[QJLUZYSMPXbnyÅÅ{obQKNQQOKIRZYSJ9-+.5EPTXbdgmmdbaZVSLIOY^beec^SLJIP[___]WPKHGHJJHDCDGHOTY`ededd_WMJGJOSVUTTVVX]acghfed`_]WU\][[XMHCEOSTZ]YVZ]_adb[SKHDEHIEEGINSRKC826AKPV[]afhd\XXUOMGEHOV_ec]VSU\`ada\[ZSNMNPSSX_eaYK>56558:;>HNQSZ\[YZWUV[XQH>779>CHKQW[VQMKNV]`]XXYbrÉÄymc[\][Z[Yccdb^]Z\beaZPEBHJJJEAFMU[__]WSPOQQOLOOU]eikmkcWNEADHIIHFDHOTZ^`__`_[X[\[\\VQRPMNRV[_c``ab`\ZRHFC>=ABSgtÄÖ|rokb[QG=99ET`dcZL@<:61.-18EWityyrkkjihhdffdba_]bgigffgm{yqcYZ_dheba`\ZZ^cehe]VPLOTT]\TLJEHJLMMPV[]]_`dkqmbXY_gghgdaime[SMJPW`mpfZOGISYYSMOV`lxÅÄyn`OILPOLIHQZXSI7+-5?OZ]_filpoffd]YWQPWafjkfbZNHKOWac`\TNGCBFHLLJFBCFHOTX^cbca`ZRKKLRY[[YTPRQSZ`bfgeed`_^WV`_[ZWIECGPUW[]XTVYZ^cd_WNG?=@CBCGKPUVPE:4:FNRX^_cjiaXVVSNKDAHQX`e`WQOR]dgig^YVNIIKNRTY`d_XJ<563479:>FLMMRUVX\ZWVWQJ@7236;@EINTXSRQQS[^]YSUYetÅÅ|tkb_aa^adehggd^\[\cd_VLACLONMF?AGNUZ[[VSQPSSPLNLS^glooleZPGBCHHHEC@DNTX\]XWY[ZY__[ZYRNPPNORV\ciigdda\[TJKHA@DCUjxÉÜtojc[RI?;:ES]`]TG?=;61,+,2?Rdqvvpjjiheecdebbcddjmokijjlw}vmaWUY^cddffcbbcddd[OF?=EPU^\RHEBDHKLLPWZ]_achlnh\RV_ffhg`_fh_VPMMV_hqqfYNFHRYZUOOU]hu}|uk]MFIMLJGFNWUPG5*0=JZddchilpoghhb__ZZailomd]UKHOT\dd_WNE?<>BFJKHEAADGMSV\``a^[UMFKOV]^]YQKLLLT[_bcaba]^`ZZfc]\WHDEIRXZZZTOQUVZadaZQH?:;??@DKQWYSG;6<HPV]bafkg]VUTQMIBBJT[_b]SNNP\fjmj`XSJDCFIMQZaa\VG9462268:>DGGGLNQV[[WQNF=62/149=DFKQTPRSTW\]YSMOVds~|unhccdcbegicbb^YWX\bb\RG>DORQNE<?DJPUWYWUTSVVRMLIP\fmqqnh_WMGFHIHECBGRY\^[TQTY[]b`YVTNKMNLMPT[dmpnkie^]WMNKCCGFYn|ÜÜÄtnid\VMC==GU^_[QE@@?:520/2?PamssnhiifcbaccacfimqrsmjllirxqjaXSWZ^aeikjjjhfc`SF<77CPV^[OECACGIJKQWY]`cgmnkaSJQ_hjoka]aaXROPS\elrpeZPGIRYZWRTX_it{yqh\LEHMLIGFMTRNE4+5EVdkhdffjnlfhidbc`bhnppk`ZTLKU[agf`VKA;9;?DHJIFAACFLRUZ]^_\WQICHPW^`_\SJIFENW\``^__\_b^^hd\[WHFINU\[XUOJLRSW^c`\TLB;:<<=AINTYWMB?DMSZaedgjcYTVSOKFAENY]\\WNKNQ\hnpmbXRHA?BEJQ[b_YTE645116:=@DEBBFHLRWWRLF>520/16;?FGILOMQUWX[XSMFKVeq{xrkjgggffghg][ZWRPTZ`_XND@IVXTNC:<AGLRUXYZXX[ZTPPNT`jprrokc]UNKKKJHHHOZbdc]SOTY^aeaZUQLJKKKLOSZdnrqomib`XNOLEEKI[q}ÑÑumhe]XRJDDMW^^[SIEEE?;9855AP`kqojefgdbbbaa`dinrtrrljlmgntpjga\^^acglnmmmhf`ZNA868BNTYTIBAABEGGKRWY^bekoleYKFP_hlrk_[^ZTQQUZbjmqmd]VMNUYZWRTX^htzwoh\MEGKJHGHMSQMD5/<Palnieeeikhdgiedcaaeikmh\XTOPZ_dhg`VI=536:@FKLJEDCFKQUX[\^[VPJBFOW_bdbWLHC@IRX\]Z[\[^b``gbZXTIIMRX\XSQKFIQQU\a`]WQG?;;<<>GMT[]TKHKQW_eihijbWTWRNJFCKT[ZTSPIINOYgprph]TJA==@EO[b]WRC656117>CEFD?>@CEKPPMHB:321/3;@ELLILNMSVXWUOMIFO\houpjeffheefgff^\ZUOMRX_^VJCBP]a\QC;=@EJOQUX\]^a`[XYX]hossqnjeb\VRPOMIJMVajkh_UPV[^cgb]YUOLKKIJMQYeorqnjgcb\TVRKKQN]oz}}{unih^YVPKNV^ba^WMJIGB?><75BQ_iokfbdeb_^^___fmswwrpjgkmfkrqnpommjjijlljjhdaZVK@9;=DLPPJB?BDEGGHLRVZ`cglmg^TIHVekptj^[\WTSUY^dilnkeb]UUXYWUQTY_gsyumi^OGGHGFFHMQOKD87FYgmkdaaaegcbgjhfda`bdfhcZXUSX`cehfaVK>4026<BJOQNLIHJOSWXZ\YVTQJJPUY_dg\PJD>HRWZ[XWZZ^ccce`XUSLLPUY[UPMGCFNOSY^]]YUMD=9:;>HQX`d\SQTV]dhlmlkaVTXUROLLSY[UKJIFGLLSbnqpkbVLC=9;AMZ_ZUN?565117AGHIG@>??@DILKHC;42105?EJPOJJKKPSTQLFHIKWekmog`]adhedfecd`]XSMNT[b_VJDFT^c]QC>@CGILMPTY[]bddcdejptuqlhfeec^YUSPLMS\emniaXU[]]ac^[ZWSOLMJIKPVcmomjec`b]Y[XQQVR`pxwwwsmjh_ZXUSX^deda\SOLIEBBA;8FS`hlgdbfgda][\\\enswunjfdilegqssy}{xtqmiigdcca^XUMB>BDFKKGA<=DJLNNORTVZ_bgkh^WQKO_lptui^[ZUVWZ_bdfhjhgfbXWWVTTQTY^eqwspndTKFEDDDFKNNKG?APalng_][[_`[[addedb_^_aa_[YY[aghhjie]RC8238>DNW[YWPKJORUVXZWVXXQOPQSYci_SKD>ITXYXUSWZ_fgfd\RQPLNQVXYQLIEBELMPUZZ[YWQI?989=HSZbhaXXZZagjmnlj^UVZYXWVW]a_UIGGDFIHN[iooleZOG@;:?KX[VRJ<776228DJJMJA==<:=BGIHC=52005AHNTQIFEEJLKGB>CHN]jljj_WVZ_eccgdaa][ZVSV[_c`WMJMY^`ZNDBEGIHJJLPUW[bhlnqrtwvtnhecdeea^YWTPSY`fnnkd_]ba^``YYZZWTQQMKMPU`kmkjgcce`^a_XVZWbqxvvurmid[VVVYagjigebZVRPLKMLDAN[ejicabikhd^YYZZeotwtjea`eidequwÜÉÄ{umgda^^`^[VUNEDJJJMJD>;=GNSVVVXWX]`bghaWSPNUeoqutf[WURVZ^bdcbbeeefbWSSRRSTWZ^dotttsiZNC@AABEKMNNMGLZgnlaZYWW[[VV\_`baa][\^^^^^`cjnmmomkdZKA::>ELYdhfaWOLOQTUWXWY]_YUQOPXbjcWMFAKW]_\XSUY_figbYQNNMOPTWTNLJIHINMNSXVWYYVOE<88>HT[dke]^_\cikmnkg\VW[\^``begaTHFDBEGEITckmlh]TMHB?BLWWSPH;9:7317DKLPMA=<978;AEGD>72//5CMTYUJDAAFHFB=9@HRbonjeXPQU\bbcgdbc``b`_beeeaZRQW_a`YOFHJJJHHHJMSV]fnsx|}|{wpic_^`bdca^\YTV[^bjkigcaea\\[TW[^\YWYSPQSU`klkkhfikgfhf`]_\eqwturolg`VOQTZflmkhgg`[YUTTUSKHVbjkh`^bjmkf^WUVXdouwre_]]bhdfrvwÅâÖÇ~vkc`\Z[[YVTSOJLQOORLEA>@JRY\\\[XZ`cdgcZRQRS]jqoqn`VSQNT[aefd``bcdd]SLLOQTUWX[`kruwwm\M?;=>@CKLORSOV`imi^YXVX[XTTZ]^``_[Y[]_`bbegmonprmkg]QJDDHQ[fosoh]TNNORRVWY]ce`ZSNNU_jeZPIEM[bc_[SSV^ejhcZQMLLLLQSPNPPQPOPMLQUSTVXXSJ@::AKW_fkd^``\ciklmjf]XY^behkkiibSGFBADEBDM[fjkg^XTQNIIPXTQOG<==8437EMPVUJDA<879=ADD?:4/07DOX[VLEA?CEB?;7=FSdomh`RJKOV^`bfefjceiiillhfaYTV\bc`YPJLMLKHGFIKSXbku|ÅÉÇzrjb^ZXZ]_ab`_^Y\`_`fgfhfdhaZYYQT[``^_c\WVVU`lokjgdhlkkljgddbjuyuvrlhd\QJKQXekmlhiib\[XYY[WQP\gmkf]\cknle\TQRWcpuuobZY\bgeertv~ÑÄypg`[XXZYVSRRPORUSTUOIDACMV_ccb_[^egge]TPQTX`lpmok_VTQNS[aegc^__ab_WNEEKRUWYXY]gotwvlZH:69<>AJLPUWTZahkd\YWUWXTRSX\^__]YWZ]_beeghopoqrkhgbYUTVZdmuzztmcZSQPQQVX\bihc\RKLT^ji`UOKP\dea]URS\eklh^TNLKIGLNMOSTWWUTOMPROPSVXWOE<<CMY`fib]``]cikkjie^YZ_ehmrpklcUJHA@CC@@GS^fge^ZWWVQOTYTRPH>@>8325BJQX[TOLHC?>@ACDA=6238AMVXTLF?=?B@=:7:DRajkf^QIKOV^bchgjpfimnpqohc\WUY`dc_XPMMMLIFEDFJT[fq|ÇÖÑÅzrkc\YVUVXZ]`aa`^ad_\^^^fggkd\YXPRW]^_bie_\ZX`kqnljghkjjkjihhgnz|yxrid`WLFHNVcilmijmf]^\]_b_ZZclnibZY`jmkdZRMOWcnspi]UVZaeccpqtz}utoha\WVVXURPPPPQUVWZZUPJEGPXbgfda_chhfaYSQSUW^hkkmi_YVROTZ`fhb^_]`a^TLCBJSXZ]ZZ[dlsurfTB626;=AKOSXZY]chha\YVUWUQOPUY[]_\YX[_bdghhkoomnohdec[]chnxÇÇ{tmc\WSPPQW[ahmg`WMEHQ[ehcYSRT]fgbaXRRZckmj`WPLJGDHLKOUW[][XRMOPNORUXXQI@@EMV]ae`\^^[ahkjgeb]XY^celrpkmdWOKB?AA>=CMYcfb^\Z\^XTXYTTQH?@<6102>HOX]YVVRNJHGGHHFB=88:@IRTQJE>9;><:967ANZbeaZQMNQX_bchhjqkpsuutme_WUV[cfd^VONNNMJFDDHPZcpzÅÉÉ~xoga\WWWUTUVX\_abbff_YWVXafilf^YWOPTZ[]cjhc`^\bkrqqollmjkkjjklmt~Ä|xpe_ZSJFHNVbfikfhmg^`_`chgccjpog_WT[eigaXQKMXenqmcWQRX_a__mlpvvmnjd_[VUWXSMKKKNSUW[_`\XPJLSYadcbaaehhc]WTUVSRW`eini_[VPNSY`hic^_]^_\SKBBJTZ^`][[ajpoh\K;2028<BNTVZZ[`eih_[XTTUPLKMSW[]][YX\`ddeegilkgghb^^^Zamw~áâàÅxoha[XTQPOW]ekph_TKCEPYagf]YYX^fgcc\WT[ckmme]UPNIEIJHMSW]a`\VQSTTTUVYYUNGGHNU\bga_^\Zahmiedb^XW\_aiolgg^TLF?===;:@JUae`]][^a]Z\ZVWRIA>82--/;GNV^\[]\YUTQOPQNLGA><?DKONIG@98988868ALU\_ZVRPRV\bcdfgjrnsuwwriaZSRV]ehgaXRRRQQMHFHOXdnzÄÇÄ|skb[XWVXYWSRRTW]befii`YUST^cgid[VUOQUYZ]cijea_]bktrrpnlmkllkloorxÅÉ~woc[VQJHJPXbdgicejf]`^^bijhhmqngc[X^fhfaYRKNZfmmf[QMQW\\YZgglsrkole`\UUWWOJHGJQUVY\__\VOKNT[aca`_`cdb]YVUVSNLR]djnjb^XQORW^ijb_b]^a_VOHGLV^_a^ZX_hmg`TC50/07<DPXYZ[^chkg^[ZWWVNGFKQV[^\ZYZ^ac`_`cdge_]`]XWXWbsÇäèäÉ{phea\[VRPOW^gmrj_SLCCO[agjb^_\^dc_b`[Y^ekoqld]XVPLNKGJPRX^_[WUUWXYXYZ[XSNMLQV[aeaa^\\chnjeda\UTWZ]ejgcaXNFA<;::89@JS_d`]_]_`]]]ZXYRHA;4/+,.:FLU^_`efda^ZVUUTRPJD@>>CIJHHB9555678;DLSWVRQQQU[`edeffiqqtsssmb[TNPW`imke[TTTSRMIJNWcov~Ä}wpe\SNPUX\_ZUQPQTZaehlle\VQPY`ehcZSRMQVYY\afhfca`eksqpmkhiilmlmoprxÅÉ}ulaZURNNNT[bdegabhe\]YX\dijknokhfbafjjhcZTNQ]gjg]RLKQVYWSVbdluupvrje_VVWUMIFFKRTVZ[[YVOKINT^deda^^^\ZVUTTSMHGMYbhlib^WQPSW]ija_b]\aaYSNNPY_`a_[X^fiaYL;0.,-5>HT]\\]djooh^]]]]YOHFLSY]^\ZZ[]`_YW[^_a]WSVYURUYeyäëèÇzrhceb]\YURPW_gntmbUOFDR^cjohef`^a_]aba`fmqstnga][XTSOGGHIOY]]\ZY\__]\[[YWTSQSW[aeaa][\ciplgd`XPOQTX`cb_\TKC<:86668@JS_da`b`\[YZ[YZXPF?81,)),7BGNX[]fjkhgc_\\[YWRLEB@AFIIHB9301468>FLPROKMOQU\cgfhhfhorsrqph]UNIMVblqni`WUUSQMLOVaoy|Ä}ti`TLEDLTZ`c_YTQPRX_egjibZSNNU]ehcYQNJPVYX[^aefecchlrqpmkhhimpononpu{}xog]XVUTUUX_cdde^]bbZZWTV`gjmomjihfejllje\URU_hgaVMIKPTURPT`dlxyw}xoh_UTSOJGDELRSWZXUSNGEHOWaffb_ZXVRPOPRSOHDEMZbhjg_ZQKMQU\hh`_c]\``YTQPPW]^``\X\ef_VJ9/,+,7ALX`^_dmuxtja^add]RKIPV[^^[[\]^_ZRQV[__YPJLTROT\i|ãèáwnjcaec]]ZUQOU]eltofZSJGR^cjpmlmga`^[`eikqvwsqjdb`_^\ZTKFCCIU]abb`cffb`ZWTTUUTUWZ`ca`\Z\cjqmgc]QKKLPW]^^\WPH?:863348BLT]babed]XVYXWZWMC<4.)'(*4@CHQTU_egghgfffc`]VNHECCILLHB80,.038@GJMMIFIMOQZbefjheglsrppof[SLGNWbnurnf[VTRQQSYbnyÄvi]RIEBEOZ^deaZTQPRW_dghfa[TNNS[dgbWNJGNX[YZ\\`bdcdhlrsqmjffinrrpomlortph`ZVVWZ\\^abc`_XW[^ZYWTU]ejmplijkklnnmjg^WUZ`fd\QKIKPQRQOVaemy{{Å|qh\QNLIGEDHOTTXYSNKD>@FNXdihd_XRMJIKORSOIGJP[befdZQIEHNS[fg`ad][__WSQOMSXZ]_]XZbc\TH8.-,1<HR\abgnx~tibaekh_TLLTZ^`^ZZ\]\[TMLR[c`XNEDNRT[hsÄãä}lfecbgd^][VQOT[cjurj_XMJT^dlssttkc`][bkrwÄ|vpgcbbbbb`YPHDDLWbhjiimopkdZTPQSVWWWX_bcc`_bfkrmgaXLIIJNVYXZWQJC:564114;DMT\adfif\TTXVW\WKC<2+(&')3>ADKOQ[bfegghjkgb\SKGFFGLPQMF<1,,.29BGJKIDCGKKNYacfkiegjnlklmf^VNIOW_owusl]UQPRV[eox}Ä}xodXNIHFIR[^cc_XSPPRW^eijfa]WPPSX_daXNJHNX\Z[]\_cfefkouvrlhcbgmrromifgghfa[VTUX^a`abcb^[UQU[YYXTSYagknkjloprrnjge]XZ^adbXMGGJMOQRS[egmxyz~zocULHFEFFEIPSSWULFA:6;CLWfljfaXMGFFKQUVSMNQU^bcb_UKCCFKPXbd_be]Z`a\[[VQTWX\a^Z[bb[TJ:237>JU]aegowÄÑpeabjqmbVNOV[_`\YYZ]ZWQLLR]ebWLB@JSYdr|ÉáÅrcacefjf`_]YTRU[bjvslc[POX`gpxy{yoc^]\dlt{ÉÇ|vmc__^^`ba\UMHKS^ippmlmoqmdYOIKOSVVTUZ]aabcfhmrle^SHGHHNTUSVRKE?6453005=EPV\bhkoj]RSVTX_VKD;/*&$&'0;@DMQT^dfeffilni`XPHFHJKORSPI?4.,.2;BFIIEA@DIKO[cdhmkeghkhghlhd^UOSU[lvvvpaVRSW]fqx|}zuple_VUTONTXZ^_[VQNORW\chjfb]WONQU[aaZQMJNW\Z\_^`ehhkpsxzskf`^djpoliea`\\[XSQQUZ`cdbacc]WQLQXYYYTQSZagkijllnqojgge^Z`bcd`SIEFIMOTWZcjjnuuvwrf[MFBBBEFEJNOOQKD>9219BMYgmkgaUIDCDHOTXUSUW[adc`[QGBDFJMT]`^ce]Zadbcd^WXXX^ca]]a`YRK?;@HP[djmoszÖÜ~mcadmrmbUMOTY\]YWXYZXWSSTZbieZNC>FQ[hxÄÅÄwi^`dhjkfba^[VSV\aiwsmg^RTZ`iqx~Ä~sf]\\djpxÅ{uj]WVVVX\]ZWQNRZeowvrqpqsocVJBDIPTROQW[_`dfhjnph`YOEEGHNQPPRNHC?8563.18AHRW\bjoqj]RRSRX_UJE:.)%#$%-8?GSY[dfeceiostoaWOIGJNPRUVSKB:5238?BDGE@>=AHKP\ddhkhdfgfdefkjjf_XYVXhtvwscWSV^hqy}}xqliiihccaXUVUUYYWSOMNSW\bijea]UPOQV[_a\UQOOV[[^cccfihkouz{sib[Y_ekjhdb]ZUTTRONNTY]`b`_bc\TNGLUXXZTOOU\dgilkjjliecdd__cecb\QHDFJNSY^ainlmpmkie[QE@=>?BCEHJJJJC<83/2;DO[fkie^RFBAAEMSYYZ[]_dgd_YOFCFGHHNW[]cc\[dhhkjb[\Z[`da^\`^WPNFGPYahlqtuzÅÖáÜzjcbgnqk`RKMQTWYWVWXYXYX[^chnj`TI@DP\kzÄ{vl`Yaejlkda`^\XVY]cjxupj`SUX^hqw~Ä}re[YZbgkqyxuri]VTSRSUWXVUV]dmv{yuvtruqbTIACHNROJKRW[_fjlmpnd[TJCEGHLMMNOMGDA;883.4<CJSW[bkqqi\SRRSZ^TKE:/*'%%&-8?JW^`iiecehossnaTLHEGLOQUVTMD?>:9?CADFB>==@FIP[bbefc`ddabcdjkmmhca[ZgrwvqdYU]ity~~wnfaafkonplb[WQOTSSPNLNTY]bjib^ZSPQSWZ]_]XUTQV[[_ggefihjovzzqf]VRZagec^]YVQPOMLLMRWYZ[Z[ab\SMEISWWYSMJOW`dimlkjjfa``a_adda_YNGEHLRX^bempmmke`[WNE<:7:<@CDFGGEC<73//5=GQZchif^QE@>=AJRZ^a_`beih_WNGEHHFCHQW[bc\^innpmebdbcghc_\^\UPROU^fkmntwyÜáÜÅtgabhnmg]PJKMPRVXXYZZXZ]cfknqmg[PEEO[ix{rj`VT`djli`__^\ZX\_dkxupjaTW[blsxÄ{pdXVX_cehmmmnkb[WURPQRTUY_iptz{wsvsqtpaWNHJORSMFGOUZ_imoppj_VOHCDFHKLPRRPJGE@<:307@FKRX]dnurh\VTQT\\QJD;3/,)+-3?FP\cfnkebbdjnmh]RKHDDHKNTVUOGFHDCHGBCD@<:9<BGP[a_``^_ei````egjljhe^[eputqh^^it{~}wmbXVZdmuvxsh_ULLPQQPNKMSZ^cmja\XQQSUXXY\\YXWTX^_dmmgghhjpuxwmaXROW_c`]WVTSNMKIJMOTWVTSSU^a\TLDGPWXXPIEJR\bjnonmie_\]``cgfca[RLLOSZ`dfjqromi`XRLD<7659;?BDDDDA=73/.19AIQX_fkh`RE?;9;ENX^a_`bfnne\TKGHGC>BMU[ce`bkqrrqnnponmkc_\][VUZ\binnkkty}ÑàÜÇzpfbeknmjaWQPONPUY[]][XZ_gjoppnk`WNLR[grqe]UMO^agjg]^_]\\[^`elywqkbVX]eosw}|yqeYVVZ[\\_afjkhb\YSNNNOT[epvy{{vttnilh]VRORUVSKCFMSW]gklmldYQLGDCEGILTVUSNLJFA=42;CFKRX]dmtpg_\XTW]XLFA9751/24:EMVahjojb^]_dhfc[RLIDBDIMTWUOIMRONQKDEC?;87:@GR\_\[[[_gl^_^]`bdfhjidagpusspjkt{|vlbVOPWairwxskcXOOTUUSQNMS[_dnja\WPQUVYYXY[ZZZX\bdhomfeffhnsrqi\ROLT]a^\VTUSNMIFIMQVWRMKJOY_[TLEFOUYYQJFHPZainnppjfa]]abehhfe`ZVXZ]bfghlqrookaWPH?966468<@AB@?<952126>EIPV\eli^QE;654=GRY^^abgoog_XOHFD@;?KU]ejghosssstvxvrmg`\YZZX[beijie`cox~ÖàÑ}vnfeinoolf^ZWSPQUZ]^]YVX_fkqrqpoe^VTX^enj^WPIN]_eih_aa_[[[_agq~|vncVX]goqrwusofYTTUUWUV[aflmg`]WOPQRXcluzzzxsqqkfhe\WVTX[ZUKDFMRW]eiihf^TMJGCBDFHNY[XVRPNKGB89CHGKQW]dnspjec]WY\RGB=9<:637:@LU]elmme]XWZ^b_[VQKJEAEKQWZUMHQXXX[PHFB=9679>EOVXWWWY_gj\^^[[[Z]bgiihjqusssonsyyrjaUKIMT\blqplg^SPRWZ[YURPT\bgoi_ZTMOUVXYWXZZZ[Z^cfiomgdgfhmpnleYPNMS]_^\WUYWRPJFIOTVUNHEFKU[YRKEDMSXYRLJMR[ailmqrkgb]Z_aehihhea_cdfiihhlproplbVOF?:863259>??=;964347<BGJPU\fni^RF;643:DOX^`baeklgb[TKEB?;?KW`hnmnsuuutuvuqnha[WUWZ\cijic\VSYgryÄÑÅyrlgflqrrpidcb][ZYZ[ZXTRSY_eknoonga[[_bfni`ZTNR\]bijaba^YY[_aitÅyn`TU]ipqrtpokcXSQRRURQU\`jpkeb[SVY\cnu{}|yupmmgcgcZWXW]_^VNFINSY_dgfb_XPKIGBACEHR^`\YUSOMID;?INJMRX\dnusonkb\][OGD@?DB;8<@GS]ekqqncZTRSVZWSPLHGB?EMSZ\UKGQY[\]QJFA;8579;CLQUVWY\`ff\_]ZXWTW\adgikqtrqronrtpg]SHBELSZ_gifd_UNMNSX[[XUSV]cioh]XQJMRUUWVVXYZ[[^behkhcaccejkigaWOLMR[^^]ZX_]WRKFIOSTQIDBDIRXWRKGELQWWRMMPU[`gijqtmie_\^aehkkkhffiikligimoroplcXRJC>962027<>>;966679=@DFGMS[goi^SG><<:@JRY`ddcdhige_[RJEB>CNZclsssvywusqolhea\WTSU\aimkdXOKLVepw}}tpkghpsttrljkjfc_[YWURNMNRX^fmopnhc_bhijqkd`YRU[[aikcb`[VUZ_bjvÅÄxk\QS\inpqqnmibXTRSQRQMNV[eomgd\VZ_cku{~}wqkhgcaebZVWW]`_XQJKPW]affbZWRLHIHA@CDIUadc`^YTOJE>ENUQTY__eouutuqg`]WLHHEGMH>:>CKXfoswunbYSQRTWTPLIDB>=FQW]]THGRY]^]RLG@:6468;DLPTVX[_ad```]XUTQSX[]bdhosrsspnnkdYNF>=CMU[bgf_\WOKNPPSVWVWVY^ckog^WOHJNRRTTUVXYYZ]`bfhecaa`dfhhgbXOKLPX]__][b`XRMILRUUOGEDFKPTTPIFEJNUVQNPRW\_defnroljdaacfjopnkjjllnmihjnnpmlid\WQKE>93/16:=?>=<<<<>ABCCCJR[hne[SIBFIFJRW\cgfdccceecbZOIFDIU`ipvwwyzwtpke`[YWTRQQU]dkkg[MFFKYhquy{wonjgjsuwvsnosrpkc[UQMIGHJQV\dloplfcbhoposnjg`YXZZbkohe_XST[chpzÅufWLNYejmmkijgaZUSSPOOKKSZbllgd]X_ejs{~~|slebbbcfaXSSSX[[VRMMS[aehe]TPNIGIG@ADEJU_bbcb]VOIFEKU\VX^cagnrtvxujc]TJIKJLPI>9;@LZhvzzwpe_[YXYYUOID@><?KW[]ZODDQY\][PKF?:659<AKRTVXZ\``]V^^[VTSSX\]^adiorqpnlhd`XLD?:<GQZ`gicZUMGHMONPTWWZ[]`dkme]VMGILQSXXYY[ZZZ[[\`bccba_abdee`YROPRY]_`_]dc]XVRTXXVQLLLNOQQPMGEEJLRSNLOSWZ]``ainonnkgeehlpokghhlnolihimlmjjfd_]YSLC:3.049<BEFFFDBCDCA@AJS^ij`WQIFNRNRZ[]ehgfb\Y[^`eaVNLLP[fkpvvx~~yumaWPLKKLMMOU^ejh`SFBFN]kpquuqkmhfltuyuolotvvpdZQJECCGLRU[bgiic_^_foqptsqnf]XXWblpje\TQS\hpu|zn_QHKWafjkhffb\WTTTPMKIHPX`hhcb][dlqx~|{wmc]^beikdYRQQVYZVTONU_dhicZRPPNLMG>@CELU]`bdd^WMHJMR\c[]dfbimosvxvld]RKNRQRRG<77=JWetxwuqifeb`_\VOIB@@AHV`a_WI>?LTXXULHC=956<BIRWVWZ[]_]WN_]ZTSTW^dddefjmnljgea\XOE@><BMW_fkj_TJA;>CFHKPUX]_bdglmd\UKEGKQW`aa_^[YXVUUY]`db`^`_acd`\WQOQVY[]][ad_][XWYWUPOQTXYWTQKEDEJKMMIGKQVY\^_`impqrolhhkoqoicabhlomkhilihdb^][\\XQG=5/048=EKOOOJFCCA>>CMVaif^YSMNWZX]b``ghge`VPRW]giaXVW[fmpsvvzÄ}unbSIFEFIJKKPW`fid[NDDJSdoonqokjnhhnttwqlkpuywobWLD@@BHNTW[`ddb[WW\enrqsstqh]VUVdnpibULLS]kuwxxsgZPIKV_bhihgg_YUTSTQJGFEMW_eea_^_hquy}}ywrh]Z]cgkldZTSRVYYVUPNWbdgg^WTUXXVRH??BFMSZ_bghaXNHLQU`f^aiiejhhmprtmd]SNUYXXTF:64;HS_mqnnomnqqnjd\SLGCDGO]ff`UF<<FNQQMIGD>;89@HOVYWX[\]^[SK`_\YY\`fmnkjhiikhfc`^ZULE?>@HQ[dkpk_SG<9<>?ACFLRW\beglkb[TJFHLU]hkkgc[WUTRQVY]a`]\][\ac_[UMIKPWYZZX[`^\[YWZZXUUUV\^][VOIEEIIIGB@DKRW[^`bjlprsqqllptupha^^hmomkffhdb^[VWX[\[VKA:4357=GOWYXPHB?=<>EPZcjfa]YUW`cadgbbhhhe^QIHNXfmi`\]bmtuvwux}wk`TGBDEFHHGIQZbgg`YNILS[krololhkojjquttmilqvxsg[QIECDFKSX[`dcb^UQSZcmtrrrpkcXQQTdnoi`RIMVaq|yvsncZTOPV[\bcdff_YVTUTRJGEDKV]aa][\ajsuwyzusndXX^egkjaYUSSWZYWVPOZddgeZTVY^a_XKCBCHNSZ_dkkbYNIOVZdg^ckjgjb_eilrpgaXV\]ZZSC:638DMVcecekpv}{tlbYSMIIMUbkkcVF;;DKMMIIKIDB=;AJRWYWX[[\\YQJca`^^`dkrtrokhghedb_]ZVOHDEHPXaipuodXK?>@A@@??AHOV_ehlib[SJHLR]iuvuoi_ZWURQUX\aa^\\Z\ac^XQIDGNVUVVTT[[[ZWW]`_^\WUY\^]YSMGFHGFD><?FNV]`bejjlnppqppswvofa^`mqpmjcbc^ZVSOQTVY[XPG?8656;GR^b`VI?:9:?HS]fkheb^[Zbc_bd_`fefc[MDAFR`jjb^_dntuuvuwxoaUI@@DEEFFEIS\bed^YSRV]dosnlnjfmokmstqpjiovxxn_SLGGGIJNW]`egb^XNIKT^hrqnnlh`UOOTcnqj`RMP[gv~yroi`[ZWUXZX\^`de^ZXVVTRLGFGLV]`_[[^eovuuvvsqkaWYafgif]XXVVZ[YXVOO\ccebURW]cig]RJFEKORX]ahg_ULKTZ_hdY_hffhZV]agrtlibafc\YP@:747AHNY]\bmt{ÉÜxpg]ZWUTZaioneXH;9@FIKILOLGD=:@IQVXVX[[[[WQL`____`gnv{zuoidda_^]\[XSNKMRX^gmtysi^NCBEECCB><@DMW`fkhb^ULKNS`p~ÅÄypd_\YVUVX[`_\[[YZ_`ZTLE@CKTRSTRQY\\YUV^eefaVPTWZ\[WSMJJHFB=:>DKT]adgkihhjjmoqtwtkdb_drtpmh`__ZTQMHKOSX[[ULE@<99=FQ^edYLA:8;BMXcjnjieb]]b`]`_\_dbd`VI@;@M]ilfa`clrtuutvti[NE>@DEDCCDJU^bfd`]\]bgkstmklhgoposvsolhjsxyugXNHHKMPTX_bcgg`[UJDFOZeoomjhd^SNOUbmpi_UPR]hrzumkhb`c_ZXXUY]`fgb^]YXVUPKHINV]_\YZ_hrxusrrnmiaY^fgee_WW]^_cc][WQQ\`^`\PQZahomdYPJHKNRW]aed\RLOX^chaW_fddaSPZ_iuwpplmoj_XMA<:79?FLX_agpvyÇ|sng_`efejmnomeYI<9=@FJKQURLG=9>FMRSTX\\\ZWTR]]_``afksxxtnfa`^]]]]__ZWSUZ`emptwqh]QGFKKIHE<9;=FR]ekhb_VLJNTatÉÖÇ|rfc`_ZYXWX]]Z[[YY^^WOE>8;EQPRTRPVZXSLMXbee^NEHMSX[ZWSNLIEB<;>CLV_eiknjeabbgjpsvqiedbiusnke^]]WPLFAFKOX^_[UNJE@>?CLYad^TH@<?EQ\flmigb^[]a_]^ZX^b`b^SG?:=IYhmic_ahnrusssnaTH?<@EECBABLW_cea__aflopuqlkjfjpqrvvrlhgmvyxp`QKFGNTY_chhgiha[TJCDKVbkljfda\RNOVakpiaYTT]dksqiggdejg`ZYW[_bhhca`[[]^ZUPNOU\]YWZ`jswrnmmiiha[agd`^WPU_bfkia_ZUV^_]]XMOZ`gqph`XPNOQUZ^cfc[QNR[`eg]V`ecb[NMYbnx{tvttrk_WLDA@@CIPXdlquyyvvwslhd_clpqtspmh`XI=:=>DJPY]YSK>89?EKMRZ\\\XVUTX[_aaacelqqmha_```ababc_[Y\bgmtxy{uk_WRS[[VNG:8;=HU^ekga^UKINUcvÖÖÇ|shfdc_][XWY[XY[XW[YOF=847BPQSVSQSYVPHIS_baYH;<AHOUXYVRMIFB==AFOZchlmlgaZZ[agoqsmfddcltokha]]\VOKD?DJMW_`^[WTNHDA@IV^cb[QJEFKU^hkid`XUUY_^ZZTS[`]`[PGB==HWejhb]^bglniikeZQF>=@CB?><?LW^bb\[_dksvuuojjihmqqtwvqkgjqwywl\QLGIQZagkmllmme[SHBDKVbkkjeb_]TORX`hoib]ZV[biqslihfhnjb[[[_bchfdcd_bfgd^VQPSXYTUZakssmighghga]cfb]YPKR_cinkba_]_fda]VLOW]dmoje^YYXY\_`dfcZQOT]bee[V`c`]SKN\gsz{uxxyuk^ULFFFGKQZes}ÉÑÉ}smid^[Z[alv|}zul`YRF<=@AFMVafa[P@76:AHMU^^\]XVVVX]abb_]]dfgda]\]_abeeeda^_bhnsy~}}vk^XX]hicVJ==ACNX]ckgbaZPMTZgyàÜÉ~tjgd`^\ZWUWXWY[XWVRG?7747ANPSWUQRYVPHGMVZ\YJ>;;=DLRVVSOKGC>?DKT_hlonmiaYYZ^fnomfa`adnqkhf_]_]WQME@CILX`a__\ZUNHB>EQY`b^VPLLPX`ghc\TKJJRYYUVOPX]Y]XOIGCAIVchie_^_add]^a^WRIA>??=<:9?NW]`_XZ_fovywsljhhioqqsurlfbhmrusg[SMGGPZailmoooogZQGBGMWeljid`][TQV\ahnjc_[ST[altnjjgglh`\^afihjgeegdglnjbXSPQVXTW_emrpgb`cbdd`]bd_ZTLHP^dkqmddddgmje_XORZ_flmjga_a__a`_cebYSRV_dfcYW_a]YOKQ`ksusnrvyul`SIEEFIOWalzÖäâÖzl`ZVRQSW_lzÅÄ{teVOIA;>ABFNZgje_SC;9<CKPZa^]\VTUURY_a`[VSX\`__\ZZ^adhgfda_bdhmru{zvnbTPU]knh\QDEIHPW[ajfcc_WSX]gxÜÑ{ofc`[ZYWTSSUTX[XTQJ?95757?KNRWVQQWVQJDEILQTJB>:9AHNTUROKHD@BJPZdloqoolf__^`fllib__aenmefd__b`ZURJCDJMYbdbdaa\UMG?DOW]b`[WRRV\cfc[QG??CNVWSSKMV[X\WPKKFDJVahjieca_`^UTXXUSLE@?>=;98?MW[^\WZ`gpuwuqjhggjqqqstoic_cfiji^VPLFDLW_hkknmmneXOFCKQZhokid^[YSSY^bhmjd_XMLSZhsojjggjgb_bgllkliffjhkqsmd[XVW\^WZbhlnj`ZZ^_a`\Z^^\WQIFO\bjomefhkosng_WQU]bikjfd_`dbcca_debZVTXaffbYY`^ZVLMUdnqmjegotrkaSHCCELValv~ÖàÑ|paTMKIJMU]gu|xsl\LC>98=BCGP]jmicXJECDJOU^b^^\UTTSOX_a^WNGKQXZ]][Z^beiggeefihjknqwvoeXJFOXhlk`VKLOMSY]bjebca[Zafm{ÜÇ|vj`\YTSSROOPSSW\XRNE:439:;AJNRWUQOTURKB=<>ELJFC>;CHMRRMMKIFEIPXahoproqokedaafklica``ekgadd_`ca[XVQIGLNYacbedd_WOH?CLTY_a^ZVUX\bc^SG=89@LSROOGKTYW[XROOJHKS^eikkhb][WNLQTTVSLFB?<;98@MVY[ZVX_gnrtsnghfglqopqokf`\^``_^WQMIDDLU\aabgggi`SKDFPU\ioigd^YWRT[_bgnmgaXJGMWfroiihikjgdfkolkkhdgkimtskaYXWX]`Z]flkkdZTV\^_]XW[]\YQIEKV[cihdglpuxsjaYUYafkje`^[`hggec`cdc][Y]ehgd^]a]XTLQYenmeb__jpoibVKEGJS`luz}ÄÇwl_SMMMMPX]alrlhbSC;768?DEIS`lnke[QNMNRV[bc^^\TRROR[ab^SI@CKTX]^ZY\bdgeecgjnkjhimuvqhWHBISbijaUKJLLSY^cidbccbcjns|ÑÄzsfZTOJLMQRTWYWY]YSMC834;@CGNQTVTOMRSRMC844<GJKKFFNQQROIJKMKLOV]ekqrsprqniga_dkmked_\`ga]bc_ac`[ZZWRPST\abadbc`XOHBDMUX\][WSSVY^^WLB:8:ANSQOMFIQWW\\YVVPLNT^fjmplc[WPIHKPUYZVOGB=:89AMUXZYWYaimoppkghghnrqsqlfa]YZYXVUOLJHFIPVXYUU\_`aZPHCHUY^jphdb[UTRX_bdinoh`WIDLWeqnhhghjjihhkmiijiglnkmnjaYTVXY\`\`iokh`VPT\^]ZVU[`a^VMFKSW]ddbhntxyskb\Z_gkmhaYVV^ghgda_acc^]^aikkieee^YTMT[emi`][XdmlgcXOJKOV`lsvvxxvri`YTSTRT]bcjmc]WJ=646:ADFKVbmplg_XVUUX[`ee__[SQQLV_ce^QD<>GSY_`\X[`adddcimoje`_bkpohYLBCLZbe`TIECCJQYbfbadfilsuv{{ul_UMHDEHORW\_]^_ZSMC935>EJNRTWVTNMQSSOC6108FKPSSU^_ZVOGIMPQQSY_ekrstprqnjh`\`hkjff^Z^b[Z`b__`\WZ]^[Z\^ceecb^^\UMIDFOXZ[[VPLMQTYWPHA;:;COTSRNGIQVW]_^[[URTZbjmorkaXSLIFHNUZ^]TIB<879BLUWYZY[ckmlnojhhegnpruohb_\[YUROJGFDFHMRUSQKLQSTVPJDAJVY\gkd`_XQQS]cefillf^UGBIS`jidefghjjjjjkfgillppligbZTQVYZ\b_akrmg_TMQZ^]ZVW\dgc\RIKRTZbdeinrvtnjdabfmomf\RNPZbdda_^_a`\\_elnqpmki_ZTMV^dmi_\ZU`ijfbYQMNQX`hmmkjjjkhea]\[XYdgfig[TMC:67;@FGFLYdlolf`^]\[]^cfe_`\TQQKSZ^aYLB<=HV]bb\WZ^]`aackooib\Y\djjfYLA>EQY^\RG?:;CLXab]\]ahnsutuwsmcYPJFCDGMSY_b`__ZSLC:49BIOTVW[YUONQSTQF81/4?HPX\bkib\SJLQTUUVZ^choqqmnkhebZUYbhjik`Y[]UV\_]\[WTZ`eeffgkjheaZ[ZTNKIJS\^^]VPMORUWSLE@<<<DPWVVPIIOUV\ba^_[Y[afilnqj`VPJIHHOV[aaWI@9548AKTWYZZ\ciihkljigcemptxpfa`_a]XTKC@@@FKQTTRNHFGGHJFD@?JVXYbe^\\VPSZejjihijd^VHCIR\ed`adfhklliggceinnpmfba]WUSWYZ[a^ajrmg^SLPY^\ZVX`jnleYMLRSZdijmoruqliedfkqroeZMHLV]ab^_^]^^\_cjpptutrma[TNW]bkjca`[dllgbYRPSW]chjgdcehlkkhca_\_ikkjdYOHA979?CJJIP]eknjc__`__`acfgefc]ZZUOVZ^YQKHIS]bcb[UX\\]`adkonid]Z_ejkj^RGCGPW]ZMB:36ALYa^YXW]gmqrqpplf]TMHFDCFLT\cgeb`]VOH@7=FLSYXY^\XRPSUVTH:303=IS^emqme`WPTZ\[YXY^bhprqnkc_ZUMJOZbfgk`XXXORX[ZXVQPYbjnppnpmhd_WVVQLJKMU^ba_XSRTVWVQJEB?@AIUZXWPIGMQSZbcadb^aehggjle\SLGHHGNW]bcXI>5116?IQWZZY[adbcfghhe`dkouynb^^^d`ZUJ@?AELQUVTQMFA>?@A@@<=IUVV]_YXZWT[frurmgfgc_WKFJRZa`^_begkkkheedgkpong`[ZYVWVXXVUZY]hpoi`UOPY^\ZW[dqvtobRQWX`mrrssrtrkkhhiptuoeYLFIU\ab_^[YYYY`fmrrxzzyre^TPX]_hlgefbfmmgaZSRX[^`bbbcfkquttoifb`doqpnfYNF?98<BFKKLU`gmpjc^^]]_begkmkljfcc_IPV\[YWWX_egeb[WZ]]_a`bhjigebaejnqtj^TOOSX[XJA916AMZ`YUUS[gmopmkjf`XQKGEDDGMU_gkkheb^UNF<?HLRZY[cd^WUVVVTI;425ANZgqwxribZW\bda\YY]ajsurnh]VPKDBGS\`dj_WVTKMRWXUROP[gntwtprnhd_VTROMLMQYaeeaYUUXZXTNHDDCCCLY^[XOGEJMOV`bcifbeiieeghaZQJEFGGNV\``TE;2//5=GOVYYWZ^^\\_adfb]ahlsvj^\\]daZTJ@AEKRTUTQNKE>:;<>>=8:GTUUZ\UW\^^ivypfbba]WOJKQY__^`abeghjgeeeglpng_WTSTVYZ\\XTVV[emniaWQPX]][Z^ftyvsgXV]]dsxxvurqnghfhiquvpeZLDIU\ac`\WSSQR\ensu|}}|ug`WRX]]emigigflmg`ZUTXZYXZZ]bflrvtqkfc__fprroeWJC=88<CFJJMWaiosld^\YY]chjnpmmmkjjhDKQZ\^_abfiiga\Y[]^`babeeedfffimprxsg_\XXY[XME?7:CNZ]TPPOYflmljheb\VOJHFDCEJPZagiihgdZRI?BIKNVWYelh_]]ZURI;44:GSamuxxqjd^\ahhd^ZY\`hppnkbXPID@<ALTX]e_WTPFFLRUSRRVcmrwwqlokfc^VSPLMMNT[aff`YWY\`\UMHDDCBCN[_\XMECHIIQZ]bigceihabffa[SKEFGGNTXZXL?5.--3;EMTWVUXZ[XX[]ab^Z_finqe\\]_fc\ULCDHOSQOMKIGB>9:<>=:57DQSTWYVZcilwÉàÑ{oc^]]\XRMLRZ_`aa`bdfgifcdfgkpj^VPLMPSX[__[WWUYailhaZTPX]\Z[_fqxuri[Zabhx}{wuomkddcegpsupeZMDIU]bd`ZSOLKO[dmqt{}~}viaYTW[Z]ihehieikg`[WUWYVRRRV]cioqmg`^^]_hoookaSG@:66;ADGJOX`hoqjb\YWY^fijotrrsrpqo>GNW]cfijmkjfa^[\]_acbegffgjlmprrqwsked_ZZ\YQLG@BJS]]UQQQ[gkljgfd`\WSONKHEGKQZ`cegfhh`WNCDJIJQSWfrridb]UPG;48BMXdlpssmhe`_ekjea^\]`gklnlcXMD>;8=GNRW`\UQLBAFMRSVY`ltuwtleifcc`WSOKLMNTY`dd_[\_chbZRJDCA@CQ]_[UHAADCDLUYahe^_b`Z^dfb^VLFEFHPUZYTH;0+++19CKSTTSWXYVUWY]_[Zaegkne_abchfb\UMMMSSNJHGGGDB?CGJGA99DOSVY]^eox|ÑçåÑym`ZYZZXTOPX`dfea_adfhiebceejmcVQKGKOPT[`b^[YVY_fifb^XTZ]ZXZ]cowtqj^\dgl|Ä|xtnkia_^_akorndXLDIU\bc_WRNJJPZclotyz|{tib[UUYUVegdikcdfd_]YWXXTPNOU\chkhaYSTY[ajponj]NC=978;>@BGPZaionga\YY[agjkqwwwxwvww@HNV`ilppqkjeaaaaceffdfhfgjmnswyyw|wqmld_]]ZTQMHIPW_^WVTU]fikigfd`\XWVTPMIKQW_bcdffije\RFEIHGLNTetxrmhaWNE95=JS[dfilnljgdcimlifda^`dhkpof[NB;75;DJMQXVPLG?=AHNQX_iswvtngadcacaYSNHJLNSY`dea__bfjd\UMECAAGU__YPD=>A>@ISXbgaYYYYX\cheaXNGDEIQW\ZTF8-)))09BJQSSTWXZWTTVWYX[cghnpgeecbgiifb\XTWSLFFFHKJJIPTXUNCAIRX]beip{Öàãéâ~sh^XWXYYURV^fjljc^acfijeabddhk_SQPLOPNPXaec`\XY]bgecd`[_aZVW[amvsok_^glqÄ{uqjgc[Y[\_ilnjaWLDIU\bc^VSOJJMT^hlsxyzxqhb[TSXUWgieff[Z\]\^^][ZSMLOU\acc\TLHMU[bjnmkf[K?<<>@B@?>ER]dmqojfb_^`eilmswvuutsstFLQW`gikjjfedcfjiijhebdfehmnpv{~ÄÅ{uqogc`^[WTRPRW^ba[YVW]dfihfeb_\ZZ[XSOMQY_ffddfgjlg_UIGIFEHIPcu~{uofYOD97CPX[_^afllkgdcgjihhfb]\^agoog]PB:64:BIKNSPKHC<;>DKR\grz{vrid_aaadbZTNHIKMRW^bedcbcehc]VRLIEFLW]]VL@<=?=@ISYbd]TQPQSZbiif^SLGFIQVZYRC5*'&'/8BJQRSUVVXUQQSRTUZcimuwqpnhfikmmlf`ZYTMGGHJORTSY]_^YPMRX]dimt|ÖåããàÄtkbZVUVY[XV\fmqtoe\^acgieaccdgh[RSVTVSLJS\bca^ZY]acbbgfcee[TUY_lvrlh^\dlq{|wqlfb\VX\^dijig^UKEJU\aa[VUQKKKNXafpuxxvnf_WONTV[lpheaTPSUW]bcb_VOLLQUXWUPHA@GRZbilkhcXIACGMOLE>;DR\eornkheccdhihjpttrqpooqMRV\aedeba^`bekpqonkfbcffillmsy|~yuqlfc`\[XXXY\adfca^WVZ]`fgfe`][Z\_\WRPU]dkjfcefhif`WMKLHDEDI^qÅ}vk[OD8;GSVWVSW_gijgdbdecded_YVVYamng_RB9649AHKNQNIE@:9<BJUbp{zslda_abbdbZSNFEHIMRZ`dffeddfb_[ZVRLMQX\ZSG=:<>>CMV\a`WMHFHMU_hliaWNHDFNTWWPA3(##%-8BJQSUVUUURNOPNOQXcks}Å}{tlghjnpoke^\WQKJKNV]a_ba`_^YX\`djpu~ÖäåâÑ~vkd\WTTV[^\[cnuw{seZ[]afigceeegg[VZa^^XMHOW]``^ZY[_`adlmjli[QRV]jurjg`]eos{zvpjdaYTX`bilhed[RJGKT[_^ZXYUONKJPY_iovwtle[RIIOU]nskfaTNQSV\bfe`XPIGKMLKKF@<<BMX`gmkgbZOKPX``YOE?GU_jsrnnkjkkiidbdkqtsqolloRW\befdb^^[^bhnuxvsojeeffghhjpvz}}{urpic`]XWWYZ]`efgdd`YVWWYaefd^[XW\a_ZTSV_gnlgdefghfa[RQRLFC?BVj{ÇÇ|o_PB7<IPRPJHPZafgecbb`]^aa[VSSV`mnh`SD;76<BGKONJFA;77:AKWet||woe`__bcaccZTOFBDFHMV]cgifdccbaaa_YQRUYZXMB87:?DKU]`_ZPE?<>ENZdljcYOGACJRUWPB5*$$%.8BKRTWWTTRNLKKJJLU`iuÄÑÅ}siccgmpoje^][VPOOU_jmkic^]`adjloruyÉàâáÇ{umd^YWWY\`b`_isz|ÅwfZXZ`eiifhfffe[[bkjh_PIOV[_^\ZY[^__equttn\NNS[itqid_]dpuzywrlfcYRXbgnrlfc[QJHLTY]\YZ^YSQKHLTXbjstqibWNFGNXcqwoiaXRTUX\`egaYQIEGHFEHGC@>?IS\elkgeb[Y^fmmeYMEKWbnwusurppnhf_\_flpnkkiimZ]aeffda]][]bhox||vph`\]]]acgpvy{{wsonhc_ZVXX[]`aedca`[UQQPS\cdbZVSSX_^YSSU[bihdehijkid^WWXPHC;:LatÅÜÅucSD9?JNNKBAKU\bca``_\XY^^XTSRU_knjbXJA::BGKPSNID>756;DO\kw{xqg_\^_cdbfg`YSGBCDFKT\cikhc`^]_add^WYZZXSF;46:BKT]dc]TI?969BO[fomd[QIBCJPRTNA6.''*2;EMSUWVTROIFFGFGMV_jw~{ui_Z\bhjid^YYZWRQRYfsuph]VXaiqvwwwxzÄÉÅ~ytng`[WY]adggdbkt{~ÇwgZVY_fkkhjgfea[^gtrlbRJPVZ]ZYZY[^_`fsxwuoZLLQ[isphb^]cqvyywrke`UOXdjswqhd\QKJNTX[[Z]_ZURKHJPT]epqph`RLFHR`jswqi`]XYY[\^cgbZSLDEFCBILJHD@FNW`jkijkfcflrqk`SKQZfszyz{vrolfa\Z]diliggfim]adgfedc`a``dipx|{und\WWXY_dkqsrqommmlgb_[[bdfgebcb`]]XSOOMR[acaXSONSZ[WRRRTZ``_cjnopmgb\[\TJC95CXm~áÜ{jXI>DJKKF;>IRX^]ZYZZWVW]^YUUTW_imke\PE?@IMPUVMHC<436=HUdrzyrh]WW[]aaafhd^VJCABFNW`glkf`[WXZ_de_[]]ZWN@625:EQ[dieYOE;425AQ^ipnd\RLEFLQQQK@70**.6?HNRUVUSPMHEEFFINU^hsxvrk`XTUX]_^YSPRTTRQS\kxyqdWOTbpy~~{wuvyzwsqnic]WVZagjljgelv}ÄÉwgYUY_fkljjgeb\Z`hutmaTNQUWYUUWY[^`afqutqiVIKQ\jqng_[[couwwtqkd^TLUbksysjd]UONQUV[]^ab[VPJHFKQX`monh]QLGKWemqtpf_a\\]]Z[`fb]YRJLNKJQSSQKCELS]joptvpifjpqoh]WY]gu{{}|smhe_[VVZagigiiimqbeggffghikifgjntyxslcZTSTW^gmomgcbcglmgb``eossoicb`^\[XTPPNS[cebYSMKOVXVQPMLOTUW^hnqrngc^^_XNF;4=OdvÉáÄr`OFGHIIB8@KSW\YUVYZXZ[``]XYWYajpnh_SFAFPTVZWKFB:338AN\kvyri\RMQUZ__afjfaXLC@?DLV`hkid^XUUX]aa[Z\[YUI;315:HV`imeXMC:548GYfnsncZQMHIOUTQJ@71,-3:CKOSVVUUSQNMKKIILRZcknlf_UPKLQWYXRKHILMNPUbp||sdZSZgu~ÉÇztrrpljkjgb[TU[dkppligmv~ÅÇveXTY`glmllhe_YZbkvwoe\XYXYXRRUWY^abgprpldSIKR^kpmh_[\enrusomib]SHN[enxume`ZSQTVUZ^acc\UOIGDIQW^jlkf\RPMR^ilkmjb]ca`ba[X[aa__]XZ\[ZaddaXJHLQ[ltv{|se\`gmsrgbbcmz}||yohc`[VSTX_efehhimp`cdccehloqnifginrspjaWPORYbkpoic^]`ejkhfhkpyzunf`^][ZXUTSTSX_efc[TMJLRVURPLGHJKOWckpqmfc__a\SI?6:H[m}ÑÇxhVOLHII?8AJRVYTQQVZ[^_db]Z\Z]fmrqj`TFBLZ^^_XIEC<69>HUcovulaUKHLOU[]bhlicYMEA@DLT^fhea[VSUX[][WXYYVQC7114:HWbjndVJ@845=OcpvvocYROMNSXWQJA9423:AINPSUUUVTSQOLKHIJPX_dfb\WPLKMPW[XQHB@CEIMUdr}|tic_ht~ÉáÜÇ{smieachigbYQSZdlrqmjhnw}ÇÅudYU[bhklklie^YZajssjc^]]]]YSRTWY_ccgprpkcTJMU`lpnja[_gloqmged_ZRFIU_iuvphc^WSTTSZaded\TLHFEKTY^fffc\VWW]honhhe[W`_^baXTVZ_acc`addeknpmcTOOR]p|}Ä|kYOS\htulighr|}{xric`]YUTUX_ddcffhmo]__]^bejmokgddfimole\QLNWamttnd[UUW]dghmru{~zrkc_^^\][YXWXX]bffd\UNJKPUVTRNGDDDHR_gmnidb_^a]VOD:;FTet~{o`ZTKII=9DLRWXQMMQWZadjf_\^\`jottmaTEBL[bdcYKHHB?CGN[htzwncUJGIKOU[ahlhaXLDA@CJQ[bec`[VTWXYZXVZ[YTK>4/159ES_gkcWK@967BWkx}yocYSSTVY]YQH@967:CJORRSSSTURQPMJIGHHNW_bdb\YTQOPQX^]UKC<<>CITer||wonozÇàääáÅyoe^ZX^fjgcYNQYajpomlkqz~ÉÇvg]Z`ehiiijhe]XZahpme```aba[TSTUX^cdhnolhaTLOYcosrngafkmnoh`^]ZVQGGQ\dptpieb[TTTS[cfgd]SJFDCLW\`dcba\[^_eosoffbWS\[Za`WQQT[aegffgiknmpng[WVYcvÇÉÄt_KCJXiwwmkjlv~ztld_^][XVVZ`caaeeglmSVWXZ]_cghgecbdfijic\USVbmu|xl^UMNRZaejptx{ztnia__``cb`^\ZZ_cgge^YQLLOTVVUQIDA@DO[bijeaa^]`]WQI?=FQ_ny|}ugbZMJJ>=IPUZXPKILSYbinjd`baenrtqj_QA?JWagfZMKKHHNQU`mx{xodXMJIHKQZaficYSJB@?@EMV_b`^[VUXWVVUUZ[WPF90-047AO[chbXNFB??G\mz~ylcZTVYZ\_ZPF@:8<AHNRRRRRQQQNNMKGFEDCHS\bgga^XTRPOW``[TI>;<@HVgs|}{wx|ÖãéèåÜ}rdZSRS]gkhcWOQX_fjlllms|ÄÑÉyja^bgjjklkie]Z\bhmibadgffb\URRSTY^`djlkg`UMQ^frwuqlgmpnmkb[Z\[YULHOXamrpkge_WTST\eijf_ULGFHQ\aaa^^^\_bdiqqlcc^SPXXYcdXONNV_fijjkmppmljf^]_ckzÉÅwgSA>JZlxulkjoyÅwne\Y[[[ZWUY^a^_bceijIMPRUVWY\_aaabacghhea[X\elrwrfZRKKQZbgntuuungda\_`bchhfa]ZZ^bfgf_ZSNLNRWXXUMGCBEPX\ce_^a`^a^YTNDAHQZgsvzvlg^OKJ@COTX]XPIFHPXainjdbddgnqqmg]O?=GR^ij]PNNLPX[]gt|}xnf\SOMGGNY`fh^SLE??><>CMW^_^[VUWWUUTUZ[WNC7.,/35=KX`fbZQKKKJRcq{~ykc[WX\\[]YOE@;;AGLQRPPQPONKIIHFC@?>>DPZbhjfc\WTPMVbdb]QC==AJYis|~~}ÄÑäçèéâÄsfXNJLR^imjdYRTY]adfhjlt}ÅÑÉ|nebeikmoomjd\\`ejlgabfhigb\VSRQQUX[`gjkgaWOS`gszxsqotuqmh]XZ^__[RLOW`kqroie_WQPT[djmie]UQPT\dgd_[[[]behmrojaa]TRZZ[dfZNKJP[dikihjptpmje_`fmr{~xk[I?BQaqxrihipy{rh_VUZ\\]YVX[]YZ\]_cd?DJOQRQPRUX[]^^_cfffd^Z]cfkplbYSLLS`invytolbZYYX\`ceihe_ZVX\`cgga]XQMNSX[\\WPLIJSWZ_`[\```c_ZTPIGMU[dorvvniaTNLEJRW[^WOGBBHQ[cigbadcekmkhd[N@<CLZhlbUQQPXcggpz~|vje^WSPECKV_gh\OH@<==;<@GQY\[XTRTSRQRSVXVND;2./12:HU^db[SLNQQVgsz|xj`ZWZ]\YZULD@=?FKOQPMNNMLHDBA?>;99;=GS\cjkhga[XQLUbffbWG?>CM\isz}~ÉáåèèåÑweVJBAJVbmrng^YY[[]^`cfiq{ÄÉÑskhjllooomia]^cejjb[]`ced_ZURQQOQSV[chjhbWOVcju|xstw{zunf[XZ`bdbZRRXblrurlf`WPMSZckqmkc\WX]dike\WWW\dgkprmh`b`YX___eg\QMLPX_aaa`cjpmgda^bkswywnaTFCKZjwyqjghpxzwof\STZ]_a\WUXYUVYY[_`?DJOQOMMNPUYZ]^^aeefe`\\^^afe`YTNOXhswzxmdbYTWZX]abcfd`ZURTX]`egb_[TONSY]_ba\XVSXZ\^_YY]_`b^YSOJIPW\blosupibXQMJPTY\]UND?=BJU_ffcbcbcfgecb\PB=@GVfmeZSQQ\hlnuzzwocb_YVRDAJT]ggZME<7:;:<@ENWZXWSPPOMMOQTXWPI@721127ER\bb]VOSXW[kv{{wh]XX[`_ZYSJC@=@GMPRPNNLLJFBBA@?<:;=ALYafjkhgb]XPJR]ehe[K@>CN]iry|}Ñâçéåá{iVH>:>M\hruphc_^][ZYZ\`dlyÑÖÉxqnnmmoooje]Z]cfkib]`beda[WRQPOLNOSW^bed_VQYflw}xrw|~{vncZX[acgfaZX[cjorpjd_XPLSYblsqqkd__chlmf^YYX]dgkpokgadd_`eeegiaWUXX\`_^^_ahnkd_]]cnvvrkcWOIKTcrzwojfgouvtnf[QRW[`c]WRRRPQUUW]^BEKOPNNMMORUVZ\]`deffb\WTRSY\][ZY]gv~zrdZYUTX[Y\__^`\XSQOTX\^cda_]WRQSX\^ced`^[^^_`_XX[\^a]WPMIJQY^dlnruphaZTPQXZ]^]TLB=<AIS^cbaaaa`bcb^^[PC?CIUfpj_WSS]jorwvrj_TWXVVQBBLU_jh\PE:579:>CFMVWVUQMLLNPTWZ[ZSOF=75126COZ`c_YRV]_aq{~{veYTV\ba[YRJB?=>DJLNMLKIHFAADDDDB?BGMWcgijieea]WMGKS^baZNA=BM\fpwyy}ÇàãäÖ}lYG;46ATfottohfec^ZVTTW[_ft|ÇÖÉxsponnppojbZY[bfkgcbghjg^WSOOMMJKLQTZ^aa^XWamry|upw~~|vmbYVZ`chie_\^dhjkid`\WQNU[dotstpjefijlmf`\[Y]adimjfebegdeiihiib[\_^_a][\^_fnnhcaagouqi`XPMMR^lxztmhdempqolcWLOT[bf^WNNNLMSSV]_GILOOOPONNMNPTX[^cefe`VOHEFKSZ_dinvÄÖÅxpe][ZWYZY[^[YWQMIILSXZ[^_]^^YTRTWY\bfged`cbbb`WVWY\_]XPLJKQZ^cilntoh`\WTX_acd`WNB??CJRZ]\[]\YX[\]\]ZQDADJUepmd^YXakptwrh^QHOSSSN@AKS\ge[QF9357:@EGKRSRRQNLNQUY\]\XRPIC=:534?MX_d`XQVafl{ÉÇ{tcUOT[aa[WQIC?;;?DFHJJHFEA=?DFHLLMRX\bjigfc`cb^VKB@FQVWSJ>;@KYclsuuzÄÜáÉzn]L>53:J_otuqkfhgc[UPNNQUX_nxÉÉyurpomlkkf_XXZ_dhcbdihhcYROKLLLJLMQSX\^`]Z[eosxxqnw}{tj`XTX]`eie`]_ceffb]ZVSPNT[eosqqnighjijjfd`][]^bgjfccdgjhikkihic`ciedb\Y\^`empollkostog[TOOQZfs{{smhacikkkg_TJNS]fi`XNLLJKPPU_cMMOQOQRQNLHILPWY[`cda\RIA@@DLXbmv}ÄÑÑ}uoib`^XXYX[]WSOHDBBHQVXY[[[]^YUUWY[]`dggfcfeedaWSSTVZZWQNJLQY]cgilrng_]XW^efihaZQHDDHMPWYXVXURPTW[ZYWPECFKTbnnid^\dmqvytjbWPWXUSMBELS\ba[RH:2258@FGHMMNOQONPW^cfe^VPOLKHD<85=IU]b`WPT`fn~áÜ|tcRLRY_`ZUOGA=97:@CFIJGEC>;>CGLRW[`filnlgd`]ab`YNB;<EJKJD;9>IXbkrtuzÅÑÅzn`RG<69CUjwxunfege`WQMKKNRSYit|ÇÇyvtrplgefc]ZZZ^ce``dihh`VNJGJKLKOPSTX\]_\\^gpsvuonx~}yqg]VPRVZ_eda_`cdc`ZUSOONQV]fopomhc`abcdgfgc`]\[agjfdfilmljjjjijghouojdZW[]`djoqqsrvvtpmaZWX[cmuzwqlicfjkjic[QJMS]giaXMKLHJNMT`gONOPNQSPLKGFLQVXY]ab_]SH?==?GUbp|ÑÅ~yqlmlfc_VTVVYZSOIB>=>EOTWXWVWZ\YXZ]^_^]]bccaghhgdZSPPQUWWSOKLOVZadfiomf_\XXagiiga\VOJGJMNSVURUQMKPTZYVRMDCHMT`mpmkfciopstngc__ghaZQIJOTZ][YSI<2148AHIHJJMOSTTV^ehhe\RNONQQNF@:=GRZ``WRU_eo}ÜáteTMSZ``ZTNFA<857<@DHIFD@;:>DJOW^ciprsrmga\Y^aa[QC:6;@BB>86;FU`ltux~ÇÄyn`TKE?<COat~{sib`bb_YUQONPQPTdpyÅÇzvusrmfdea\\[Y[`a[^eihi`UMIFKNOORSSSVZZ\[^`gnqrqnox}zvmd[TOPSW[a`^_cedc\SMLHILTZaiomjga]Y[\^`fimgc`\[cjligimmnkhhijjmjmuzsmbVRUX[^bhmpstxwurqfa_adkpswqljhdikkjf^WNILR\eg`WNLKHKMKVclLKMNLPQLGGCDKPUVW\`ba_UI?=>AGUcozÅ|tkddknjf^TPRSWWQMG@=;;DMSVWUSRVYWY_baa^WTX[\^fiiig]TNMMPTWURMLNTX_cdfllgb^Z\cehhd_^YSNJLNLOSQOQMGFJPXWSMKDEIPT_mttuqlmpopqkebadnqmf^WTSSUTTVTLA6249AHIHIKQUXZZZ`eec_XPMOQUWUOH@@IQY_`XVYaep{ÇÖÄwhWOSX\\XRLEA<8459=AFFCA=88<CKPYbhnwxuqkb[VSW]`]TH=89<>>954:ES^ksvzÄÉ}sgZOIFCEO]l{Ä|pg`]]^^^]^^\YVQR`mxÄÇzvutsogeeb_a`\\_]W\eihh^RKGEMRTSUSQPTXXZ[`aflmmlkmvywri_WRMNQUY^__adfdc[QJHDEKV]dlnjf`YUQTWZ^fknhb^\^goqmikopsojikikokouvoh\QOQRVY\ckpstzzwutkfehkquwzvromknpmiaWQJGKR]fgaYQONKMOLXgpGIKMLPOLGGEHNSVVUZ`cdaWJ?=AEKWblswrkb]bmrni`SMOQVTOJE><99AIOTUSONSWTXbeee`VPRTVYcilljcWPNKLQVVURNNSW\acdijifb^`dcfhc`b_ZUQPOLNPPNNJC@DKTSOIHDFJQS]jtuvtmmooqtojfdeospmga\WRPKMUUNF<56;AGIILPV\``_^^_][YUPPQTY[XTOHFNU[^_YZ_egqw|ÄvhWORVXYTOKEB=956:>BEDA@<9;@HPV_gkqvwrkd[TPMPX^]XMB=;<==623:FS`luz~ÇÑ|peYNJJJQ_lu}ynhb\Z[\^^``]XTNO[juÄÅ{vvtuphgfdchfb__[V\dfdcXMFDFOVYWVRMLOTVX[__aeghghlsutmdYTQMNRVY^^_adedb\PIFBAHV^dklgd\SOKMQX_glkd\ZZ_jstplorruqkjjhlpotyyqi^VUVUVVW^hlos{~{yvlhjmosuv|~{zyvwvqi_SMIHKP\deb]VSROQPMYhqAEIMPSTPLKLPTWXUSZafgeZNC@FLPX^bgjhfa^dornh]PHIMRQLID=<:;CIOSRPMKQUSYfjjhaUNNPQT^fklnh]UQJJOTWWUPPSX[`abfhiigbdeaac_^bca]\]ZUTTQOMHDBELTQKDEADKQRZgqqsqjhknrwrmhccmsrrmic[SNHJTVQKB99<AFJKPV\beca^\[YXWVUUVX[\ZVSPOV\`^^Y\_`ahls|~uiXPRUWWSMJFB=:9<AEHGD@?=>CJRY]`bdhmnjc]TLKJKS\^]TIDA>?>601:FTaox}ÅÉÉynf]SQQT]jsvxvoigb\YY\``bb_XRLMXhtÇ}xwvwslkhgiomjc_YU\efebUJDDJT]_[VQKIKPSV\`_`cdedgmrrrk`UQPNOTWY]^`cffd`[QIEB?GU^djidaZQLGHLW`hljaXWY`juwsqstrtohhiflstz|rj`ZZZVTRRYcghmw{ywtkinqrqnntz|~ÅÇÇxn`TNJILP[cdc_YVSQRQNZgo<@FNTZ\XRPQVYZYTRZbhkkaULKOTXZZY[_adb`fpplf]NEEIMLJGE???AGLPSPMJJQWW_kmlh_RKKMNQZbilpmd[ULIMQUWWSTV[\__`cfikkghd][]ZY_ca`cea]YURPLJJIKRVOF?@>AIPPVcmmongaejpsjbXQTcouwslc\QLHLVXTOG>=@CHKOW]bijeb^UPMLLORSSUWVTTVVV]aa^\Y\]Z\`cly{sh[TW[[YTLIGD@>AFLOPKFA@AFNX`dcb^]affb]VLEFGIT_ef_RMIDCB8008ESbqy}Ä}unjd][[`hqvsnidbda[YX[`bdd`XQKLUfs~ÇÅ{xvwtmkiintsoe]VT]efe_RGCHQ[df^VPIEFJOT[aaacdcbeloonfZPMMNOUXY[\_bdc`[WPIEB@FS]cge_[VOKIJOXbfjh_UV[bkvwsqsrpsnghgdksv|Å|qh_\]^[VRQW`cdisvuqkcdknmiddlw{ÇÑÇzrg^YVTSV_fedc]XVTTSP\hp9=DNXbc_XSSZ\\[WU^fkoph`ZZ[]`_[VV[`fgfjqmif^PHIKLKIGGEEFJNPSTOKHJRXZbmlicYLGHJMR[cjmpnha[OKLOSWXUVW\\__]_cgjmjjd[XZWV\`_ainjc]WRQNNPRSWXND=@=@GMKR_ihjiaY]ensk`QEETcntqi_VLHHNYZVSKA@BFJNU]`ckjd`[OHGFGLONMNNNMPVY\ceb^ZY]\WZ[\guyri]WX]\YTLIHEABHOW[ZQKEEKS[flljf^[_b`[UND@DIN[iooi[SQLHG=1/7FUdtz|zxtniihddejpttkb[Y[^]ZYWX\_bdb\VPPWgs~ÉÉ|xvvsmkhksxxtf[UT^fge^OFEMZdjjaVPJDCELRZ`cacdc`dklkkcVMKKMOTVWXZ]__]YSOMIFDBFQZ`ca\XUQNNOSZaaecZQTZ`hrspptsstohfdagpv~Ä{qiddgjg^XW[bcchrsqlf^_gje^Y]ftz~ÄÅ~|vqlhgfeddilhfe_[ZXVUT_kt7=EQ^ijf_YX^`_^ZY`flqsojfeccff`YVX[cghmsnljdVOOQQQPMLLMPTVSRPIFFISZ]emkg`UHDEGKS\djlnnjd_SMMOSVXUVV[\_^]^aefjjld^\_[WZ^^bpwqh`WRSQSY\]`^TIBC==BFELXa`aaYQWbnsl`PDDQ^hlf]UNGGIR[\XULDCFKOUZ`^_fga_]RMKJIHGEDFGHIPW]bhhd_\]`\VXWXeuxqj_Z[`^ZTMIHFCEPX`ebUNJMVajrsqnjb`db\VPHA?IS[lz{xo_SRNJHA61:HYjy}}xrmhdfgfhlstsncWQPSWYXXWVVWYZZZWVX_mxÅÖÑ|wutqljhmtxwqaVRVajkh^NHJTcjki`TPKC@AJRY_c`addbgmkhjbUMMJLNRTUUVXZYVTPMMLJHEHPW]_]XUSQQRSW^`\_]TMSY\dlmknrsqojb_]^dnwÄyohfhotsjc_`b``fopmhd\^ee[QLP[irxyyvtqomlmnqrqvxqnkd]]\\]^hpv8>HTcnojc]Z`b`^\\bglqutrqmiijicZTSU]cflsnllgYSSVTVVSQRUX\\YVSLJKOV]`gmjd\QFBCFJR[chklkie`VPOOQUVUVWZ]__]]acdgjkfa_a\UVZ\ds{tj`VPRSW_ffgf_SMKA;@DDKW_\\\ULS^koj]NEJUaklbWOG@BHSYZVRHCDJPTZ\]XX_`]`_XWSNIB<9:>ACHR[`ejga`_`c]TTSTcsxtpgbaea[TNIGEBFT^gmi[URU_jopmjhecegbZSMIEGTaoÅéäÇucUTTQOME?ERao|}{smieadgglswtmdWMHHKPTVXXWUWY]acdefku}ÇÖÑ{vuqokhipvwsjYPOVbkli^PMR_knkh^SQMEBEOX^ce``cedjolgh`UNMIIKOQTVVWZYURQRTTSOJJOU]`^YURRSVY]baZ\\TPV[\ahjjnrrnhd\YY\bnxÄvleddltunlgc`\\bjlkif`ad^QHDHQ]glmolkmmmnoorvw|}zwvpkjiggflrw;BKVcoojd^Z^a_^^_behmruxyupmmjbXQNPV[_ipmlok_Z[\Z[]XVX[^a`[XUQPSV\aeklhaXNEBCFIR[chkjige`XSPOPSTTTVY[_```bdcfhifcab[SQUX`ntlbYOKNRXbkmnleYRNA:@EFMZa\[[TMUalnh[MGOZenl`TI?9;DRWXUNDADKRW\\XRQWYY`a\]YOG=4149=AIU`dgga\_bde]RQOP`qwvtmifgb\TOIFECHV_iok_\Z\cklhc``aelnf^XROMP]nÄï°ôäyfXW[ZYZWPT]irzyvnifc^`dektuof[OGDFHMTX[\YWVX\`dhlnqx~ÄÇÄxsqmjihkrvtmaQKLUbkmj_UU]ktrkf[SSOHGLXbfge_]`cdjoked^TONIGHLNRVXXZYTQSWZ]_ZRQSW`da\WTUY]adeaYZ[WV\``bgijnqpleaZWX\`lv|yphccckruqsoh`YX_gjkjhaa_WJDCHR]dedc]]bgimnmosv{~~~zvuronnqv{?GOWakjeb]XZ]\]_abbdhmtz|vqlje_ZTOPTUYdkklqmc`bb_be_[]`ac`\\WSUVUX]bhie`VLDAADGR\diligdb_ZVRQPPOOPRUY^`aadedfihffdd]UQUX`lof\TKEJQXblnoni^WOB:@EIQ^d^_a\W`ipnh[NKT^fmi_UK?87@NUWUMB@CKSZ_\ULHNRWacaebXOD846;>DO\ehhf`]agih_SPMO_pwwvoicd`ZSPNJHFLV_gnj`^]_cgb[URW_hruog`ZURSauã£¨†çxeZZ_`acd^agnquroiged__cekrph^SIDDEEJQV[^\YWWY]djptvy}}}vqojgghmtwsj[MGITblole]_hv{tkcYRROKLTanqmi`[]bdjnib`[TQQMHGILPVZYYYTQUZ^dhbYXVXaeb_YUW[_cfea[Z\[[_cbbegimqpjb]VSW]bmw{vkdbddjoqotskaYX_fijjg`]XNECEKU^ba_[TTY^`dedgou}ÉÑÇÅ{wvtqpptx|AJQW\dd`^\UUWX\_aa_`ekszzqkhd`^]YTTTQS_fimrnecdedhlfbcdce`_b^Z][VW\agigbXNGCABDNX`fjgdb`][XTQONLLMPSV\^`adfghkhffdb]VTY\dlk`XPF@EMUaknnnj`ZOB;@EKS`gbdgd`kptngYONWbjnle\SG;7=JQUULB@CKRZ^YQHCIPWdghmkbYM?99>BKWcjkiea_cijg_VROQ`ouxwpjcb`ZTTUSQPUY_glh`____^WMGGNZjw|xrkd^ZWcwê©±£çvaZZ_ceinkknpmligdehieejklqmbXOFCDDCGMSY^]ZXWX\biptuy{{}{vokedeipwyuhXKFHSblpniden{{rg]SNPNNR]l{}vmbZ[`djmia\WSQQNIEFJNUZ[ZYUQU^bglh^\[\dheb]XY]aegfb][_``aecadhhlole\VOOT\epy|vibaebeijirsmd[X_ehjie\VPICEHNW^_\ZVQS\`acb_bjpxÅ~xvtspnlorvFLRUU]`[[[USVX]`aa^^cipwulgb^YZ]][\[UT]ceglic`bbadlihggdd_cjjhje^]chmmjcZPJEBABJS[chea`^[YXTPMLIIJOQTY\`aegijkfba]\ZVW^aimi_XOD>BIQ_jkkjdZVK@;@CJS`gdhlkiswwneVNNXcknnjd\N@7<EMSTJC@BHNUYUNGAGOWekkonf_TE=:?EP]gkifb__cggd^WSPS_mtwwqiba_[WX]\YWZ[_gkga_\]\WOF@?HVix~}ysmfa[dxí™∞£éxb^]`dhmssqqogb^\^bhlklqrqrk_TLD@AA@CHNV^^\ZXX\binpnqstxzuoia`dlt}zm]OHGQ^hmnljltznd[ONQQRXetÇÖ{nbXW\bhlhaWQONOOKDCGLSZ][[WSV_chnlbbbelpmjd_adfgfea\\ceeefc`chiloibXQJLR]fqy{tiddjfffdcmqnf\X[bhllh^UNIFJNRY__]^[X\dgfea[Z^bjquuussrojd`dipMPSRPW\Z[\VRTX^`aa]^eiourhc]YW\bgffbZV]``chfb_a`_bkjlmjdb\`konqmfeinqqmfZQLGCAAHRZafc_][XVURNLKIIJNPQUY]`dghjkf`]XUTTX`dkng]XOD=AFO]hifbXNLC<:=>DLZccgmnpy~zpeVOQ[ekllkhaUE:=DKSUKECBDHOTRMG@EMUcigjjeaWJA<?GUbjkgc^]]`ba^[WTQU_lsutnf__^[Y]ddb^`_bgjf`[VWWSMIDCIWhv~ÄÄ{ule_eyí®¨°éxc^\]beimmjjf_XRQV]cjlmrvtql_TLE@?>=?CIQZ]\ZWTU[bghgjlpvzung^]dmwÇáÜzk[PIO[flpqpqyÅymdYNNQQT[guÇÜ{odXSY_eif_SLLNOQME@BGNV\\\ZWW\_djjeghjnplkgdfhhfb`\X\ehgdc_]cgikof`WQKNT_hqxyrjilrokgb_jpoi_YY_hnonbXTRRWZ[`ecbc^Z\acdcb][\]chhgfeedc_YW^ckRSSPJPXWY\WQSY^_`a^bjmruoe_ZX\dmtspj_Y]^]`eda_a``ckkppkdb[`mssuqjhlpsrng[SLHCA@HQZbgb]ZWTRROLJIHIJNPQSVY]bfgikgb^XSQRYaflnf]XOE?DHP]fd_XNHGA=;87<DR]`dkmp{Ä|rhZVX`fjhjlkf\K?AEKRTKHFEEFLQQMG?ELTbifghdc[OF?AJYeljf`]\[]^]YVSRPU^jqqpld\]^\\bikifgdfhid_XSSUSPQNMQ[jv{ÅÑwoici{ì¶™†êzd_[[^acfebc`ZSMKQX`hmnswvrmcWOHA<:89:@ISZ\\YVUZadddhkox|vme[ZcozàêíàziYMP[dlqstu{xkcWMNPPT\ftÅá|rfYRW^dhe_SJKPSUQH?=CJR[^_``^aabefdgjlnmiihfhjic]YVT[fgea^ZZbhijoeaYSLOU`ipwwpkmqwsojb`ipqmd\Z`jossg]]]\`baejjgg_[Z\_abcb`__adca```]\WPNU\cWUSMDKUWY]YRRX]]^`afpsvvofa^`gnv|ztnc[\\Y]cb``cabdkkqrkdc^bpxwyvrptwvsmeZSNIEA?GOXafb[VRONNMJHHHILPQRRSVZ^bcfgfc`ZSOQZbhnof\WOFAFKR\b^WOHGGD?9415>KW[^bdiszzsl`]_cdedfjif]MCFGJPOIJJHGFIMNLF?EKRaiffebb[QIABKYelkic`^[YZXTROMMR[fnookc[[]^`fkmkhihijid^WSVZ[Z[YWW\hsxÑÄvqnjpÅñß®°í|e^YY]_`ba\^^YRLIMU]flmruvqng]TMC:7445;BNX]^]ZW[bddfjmr{~vkcYZeq~èïòêÇm]NPYdmrstuz|tg_RKLOOT]gsÑ{rh\UW^cfd`TKKPVVSJ?9>FMX^bfhgiigffdhlnolggihjkh_WRNMVbec^ZWXbhijmd_[UOSX`hnsqlilrwuqldckqsoga`epuxwkcefcefdiqsokb][\_`acca^[Y[[\aed_[SJIQV]YVRLCJVY\`]VUY\[Z^airwwupjefkpsx|xrne]\[X\a`_`cbcchioojfd_cpvvyzxwz{vph_UQLIEB?EMW`fbZRMJHJJIGHIKNRTTRRTW[`acfhfeaYRS\bhnoe\VPHEKOV\^YPHEGHFA7/.2<JV[[[]aluywrhffea^]`cbaXKFKKLPMGILKIGHLNLGAEJP_heeeaa\SLDDKWcjjjea]YWXVQNKHJQ[fnonjaZZ]_bgihfcehlkiaZQNRY^beb^[[dot{Ç~tpomqÄî£§ûêzd]XY]^^_^Z\^[TMJMT\ekklornmjaZSH=93238=JV_cd_YZabbhmovÅwkbYZgsÇìõûñÜp]MNWbkqpruz{tg\OILNPX`ir{xpj`XW]`ca_TKKRYXUMA9>FNX`gmqppnjffeilnnjdfiilmg\RKFGS_deb_]^fjiimd_]ZTX^ehmplfglsvvsofglpqmheekvz|{pjmlhhigmw{voc[WX[]\]\XUTRUY_fkh`YMFIPUZYVRMFLY\]_]UTWZWVZ`hswxusmkntwuvvqlld\[ZV[b``aededffklggd_anqu{~|{}zsme[RPLIEC?DKV`fd\RJFDGGHHIJNRUWWSPPRV]`afllliaXY`dimme]WRLJOUY\ZSIABHJHC6-,3@NZ^[VVZdox{ypmjc\XXZ\ZZRGHNOOPJEGJKJGINOMJCEJO^hdcc__]YUONS[cjkkfa\XVWUPKGDHP[fnonjbZY]_befcb`dhlkg^UKHJRZaffc^Y^ipxÅ~snmjlváñöñåyd\XZ^]^_]Z\^\VPNQV^cgddfkjkjc^XMB=4015:FT`fid[Y]^akoszÇÖ{mc\^ivÜïúûïÑnYJKUajnlmpvxtgZMJNQT^eiowyuqnd\X[]^_`WNNU\[YSICGNT\dltzxvrlgfdhiiid`cggkkdYNE?CQ]dhedcchliime_^[W\cgikmicekrttrnefknomkkmr{~zqlnokjihmyxl\QLNV\\]^YWXUW^emqlaVGBHOTXWURNGLX[[]\UTWYTRV\dpuuuvrqwzxqokgehb[YXU[a``cgeeeedhjgjgcdorwÇÄ{tnd[USOLGC@CJT_fe]TJDBDEGHJLRVY[ZSNMORZ_afmnome]^bekmke_XUQQV\^`\TKCFNOLG8,-9GU`c\TSV`kw}|soh^VSSVVSSLEIQQRQIDDGIKJNTSQLEFKP]gb`a]\]]\XWY^chjkfa\WVYWRLFCHP[fmmmjd][^aabb_]]cgkjdXNEBDLV_ege^WYenv~pjhddjváéåÜxe\[]^\]]ZX[]]ZWUV[bcebabhhhhc`[RHB70/26CRalpka]]]bmpu|ÉÖ}nd_`jyäïúöçzdODHS`giffjrvuk^QNQSXaginrrqole]VY]`de]RPU\]][UPSX[bfnv}ywsmgedfged`^bfgljbVKB>ET^fjhhkjkmihlf^[XT[bgiijf``djlmnmdgjklklnqv~~|ulgilkhddht{viYOLQ[ba``[WZWW`ksvqcTE@FMSWRSQNINX[^baZYYZURUY`kqruwst{zric\[^c_ZWURW]]_cgffdcbfjjnkilvyÄàäÜÑÑ}smf]XXUPMIDDJR\dd^UKD@BCFHKNUZ\]\TMMNPW]^bijmlfacdgljgb]WVSVZ^_a\VPKOUVQK;13@N\ff_WVW`iuzzrkbXPOQTRPPJFLTUVTMFEFHLPU[YUNGHOTahb_^ZXZ]_]]^`dhjkha[WY][XRLHNT^hnonkf_\_a^]\YWY_eih`SG>;=FR]bec]VVcmu|zled_^ahw~~{sc[]`]\\ZXWZ]^]\[Y\bab`^^efggdb_YQK>3//4BQcrzumgdbfopu|ÇÜÄrgfen}éñõñáp[E>DQ^dd``dovwocWUVX\ehhjkkllke]VX]bgiaVRU[^__^\]beijouysqoieecddaa]]bfgkh^RGA?HWagmlnqollhfkf]XUS[dikjic]]_fikmleegfeehlqw~}wogbdijieeirxuj\SRYbjgba[VYVSZgpsqeSD@FNUZMOOMJOY[`fe^]\ZURSTXchjptqtyti_VOSY`_[WTQU[[^bfeecbbfilolmrzÄâëëåàÑzpmha]]XSOMHGKQXac]VKB==?CHLPY^__\SKJKMTZ\_egiigfggilgc^YUTSV[^^`[VRRU\]XOB9>IVahf`[YY`hrwwph\SLKOQPPPKJPVWYWQKIKPW]dhaZQIJQWbhb\[VSV\_abccdfhgd^XV\a`_YSPUZbjopokg`\]^ZXXUSV]bfe\N@613;HV`dd_WUbov{ylec^\^_hrrpmc]bc_]\YVVWZ]^^]ZZ^]]\[[beffba`_[TF80-1@PdvÇxpidglkqx}ÑÇwmmjqÅêîòëÅkYF@HT^aa[Zamuysg]\\^cijhgfefhicZUW\djkcXSW\`cfgjlqqqmpswqnic``_bb^_\]acdhcZOEABN]hnsruxtmjebgd[UQQYdlnlkc^\^djjmmecc_]`cfksxxtmfabilmihiputk_VU\fmkd`ZUVTNSbjnpfSFCGPY`GLNNLS\^cjh`^]ZSQQNPZ`bkpnqulaTIFNV]_\WTSUY[]adcdcbbgknpqsxÄàëñîèàÅypolfcb\VSQLIMQU]b]VLB;:<@FKQ[bcb]SJIILSXZ\`dgfhjigiha\XSQRQUZ]]^\YY\_df_TKFIQ[cfa^[WW]elppkaVNIHLNNNNKJOUVWURNMPX`goqg]SJKRYag`ZXSOQX]bdedddeeb[VW^ddc^XUX\binomie_ZZ[URSPNRZ_cbYK>3-/5AP[`c`ZYft|~ynfc_``[`jkjmhcghb__[VUUVZ^`^XUYWWYZZaehgb^^`_YM>4/3BRevÇÄ{skgijhlrxÅÇzrqmsÇèëîå|hYJGPZcgf``fpvyujccaadgfc```aef`XTY_gllcXRW]cgnsy||wolnrmiea`_`ba[\[]^_`c]VMEDHTakptruwpheb^cbZSOPWbkoljb_\\bijoogc`ZY]`chotvrngbckprnlkossk`WTZclkd`[TTQKN]fkrjXMIKT]eCGJKMT^cjqnfa]YSQQLKUY[elmoodXJ??HPW[ZUTTVXZZ]`_``aainsw{~ÉâíóóîçÇztnnnkig`[VTQNQTU[`\UND<7:=AGP\efd^SIJKOUZ]\^bfeilieec[TNJHJLQVZ[]]]`cdfg`WTSVX]a^WWWTTY_fiih_UQNKMMLLLJJMRRSRQPRW_hpwvncWMNRX_d^XUQKLRV\_`adcdfb\Y\dgge_YWY\aglnlgc^YYZSOMJGLV]a`WH<3./4>MX]a`]^kzÅÄwnfdcjha`fghnlijjccd]XVSSW[^\TRVUW[^`egjg`\]`b]UI>8<IXixÉÅ|skgiifhns{Ä}wtotÅãêíâzj\RRYahkhcciqxzwojieccda`_^\^ab]WW]cjmj`TOV]cisx~ÇÉ}umhhljfca`^_a^XYXZYYZ\XUQNOU_gmrsruwnea]Y_`YROPVbkomkc_[Y_gioqib^WW\beimoomkfbckqutqoqsqk_VRV`ijd_\TOKDFVajsm`ZXX`ek>BFIOXbirwrjb]YUVVPMSUV`hkmk`TE;=DKRWVSTUVY[Z\_]^`ackqw|ÇáçíòôîéÜ{tplnqsqld^YYYX\]Z\`[TMD<7:>BHQ\eeb[QIIJPV[_^^aggmplgb\SKDA@BFJORTVVW[]^``[VY\_\^^WQUUPOTZ`bef`ZZXSQNLMMMONONMMNQV^irv{xqf[RRRX^b\VRMGGLNUZ\`edehd__bfgea\WWY]ahmplf`[VWYSMJFAGQY__VG<3/03=KUY\\Z]l{Çtmfeiqnfadilstqolefha\ZSPUXZZRQSSW^behjkg_[\_cb]UNHKVcp{ÖÇzphcdfdelryÅÉ~xrt}ÖããÉvi^Z\bfklhehmsxyunllgedd``]\Z[]_\Y\cgkibXNKV^emux}ÅÇ}skedgjfa``^^`\UUVUSRTVTVVUU[bflsuuyxlb]YU[]XTSTZemqqnfb[V\ehorjb\VV]dhillkjlgdeimrsrrsrqj_UPS\dhd^[UMG@CQ]iwtnnnlnnn<@DJU^hpvvpib\YUWXRNQQR\fkkg]QB9=DJPUURSTVY[Z[][[^_blt{ÇâèíîñìåÖ~tnlkotyxsi`YZ]_efa`b\TMF?=ADHLT^egdZOHFGOV\bdbejkpsoi`WOF><<=BEIMOOOPQRSVUTT[`b_^ZQLPNIINV\_cfa^a_YTPOSUY[VRNJGIPYdqz{~zth_WVQUY[VROKEEHJQWZafefhecdfgd`ZURSVZ_ekojc]XSUXRLHB=DOW]]TF;4247?KTWZ[Z_m}ÑÅupihmsojehpv{|vrmhjmfa^TNQTUVSQQUYagllkje^ZZ]acb_\Y[cnv~ÑÄvlc]_bcckrzÇáÅxqqxÖÇzne`aejmookimrtuurkjmgddda`]ZVWZ][\bgjjdZPHHVbkt{|~ÅÄ{picbfje`^_]]_[UTTQNLORRW[\[`ffjsuuzylb[VRXZXVXX_hnstqjf[UZbfnqi`ZUW_gjikkihmiedegkopqrqoi_TOPX_eb\ZVMFAFR]kzz||xrn<@EO\eovxunha\YWZ]XTSQOYckkf[OA:=BHMQSRSTVWXWWXWWZ]alxÅäíïïïîåÉ|umjjlqw}}xof^^acikgec_WOIFFKNPSZahjg[PIGHOW]ehhkqqtuqi\RI@999<@DFHIHIKLIHJIIP[`b`]VMJKHCCISZ]`c``gf_YVUY^baZRKEBCNXcoxwxvrh`XUNQTVRNKHBADEJRW_deehfgjjg`YRMJLPW\dknib\UQTWRKE>8?LU[[TH@;<=?ENUWZZ[`kzÅtqijotnlhkwÅÑÉ{slhlpid`TLNPPRRSTY`jqurokd^[ZZ^bdfhijrz~ÅÉ}qf`Z]acajrxÄàÄunmqxÄ|tib^bgjkmmjlqvvtspiikfbcd_^ZVRSVYY^ekljaTJDHXgs|Ä}||zwnicbdgb^\]\]^ZVUURMILORY_aadheenpqvvjaYTQWZYZ\\bikpqplg[VZ_dlng^ZX\dmommmjjnida``eimpqpnibYUTX[`_ZYWOGDLT^oÅâêéàsmAEKUdlqvupjg_ZYY]c`[UQOWcmmf[NB<@CGJMMNNOPQRQQRRQUZan{ÜêñóîíåÉzslhfhmtzÅÄxqibbfhlnmjfaZRMMPVWYZ_cikh]SMKKPW]fkmnuuttpfYOF=789<ADDDCBCDB=:<;>KW\``\WRNMGA?GRZ\_badllfa_^ejjg\PHBAEQ[eoustsoe]VRKMPROJFC>>@ADKS[acceehnle\SKGEHMU\dlnia[TPSVQKD<6>JSY[UJDABCEJQWYYYX\ftz{tpjmrsopnrÄããá}sigmoheaUNNOMNQUX_it|~zupjea_]]`glqtv}ÉÖÜÖ{l`\VX^a^hpwÄàslkox~zsha`cefecbaelttsqmffheabc_\YSNOQTX_hlmj]OHFM_r~ÉÅztsssnkebbea\XXXXYXXXXTNIKNS\dffijfcjllqtjaZURWZ\^``ehjoqomg[WY]bhid][\`gopnnnkjkfa][Z]afknmmjfa][\[\[XVVQIGQV`sÑàïúòèÇsjJMS_msvvqkgd^ZY[`fe_WQPWcnog[OC?BEIJJKJIJKKLLMNONSYdrÄãìññëäÅwnhdbdgov}Å}tmfbeiknmmkfb]UNQW^_babaeff_YVVRSX\cknpwvtsncUJB:68;?BDDA=<=?<7576:ITW[\XVUROJCAHU\]`b`emmjgfirvsl^OFCDKWbgospooi_XQNIKMNLGC?;9<=>FOX]_`abhnkbXOFCCGLT\bjmg`ZRNQTQMG@;AMSXZULGFGGINTYZZXUXamuywsnprppuw~ãìèázphiopkgbXTTTRQSX[dozÅÇ}yrnkeb_[^elsx~ÜããâÉvf[YUV[^[dnwÄà~rljny}ysicdeeda]]_cmwuqpkbbd`]ab_\WPMLNRW`imoj\OKMWk~àâÅwolnqnlhdbc`[UTSSUX\\]XPKLMT\bcdfiebdfejoia[YW[^bcccgghopnnh\Y[\bggd_^`bglmlmmljid_ZWTVZ`ejkkkkiea_ZWWVSUSLKVYdxâëû¢öéÄrkRU]juyzumhdb]XY[`ghbZVTZeppgZMC@CGLKIIHEFGFGHHJKMT^kzâëïñíàuld`^^agpv|{tlf``adehhhgda]VPT\dehfb]`acb`aaZWXY_hlqxwssmbTI@:8;?CDCB=98<A@<;:7=KSSVXSTVTPMIHP]cbaa_bijjjnt{{vk\LDBDLYcfmolkmf\SLHEGILJD?;75789ALTY[Z[^emmcYOFBCGLT[_fie^YQMORQOKEBHQVYYUMKLMMNQUZ\\\Z[bmtz{vqqpos{ÄâìïçÉvlginplhd^[Z[YWY\`is|ÅÅ}yuqoid`[Z`fovâéçâÅsf[\YY]`\dmvÖ{pjjoyzwqhdghigb^_aeoxtnmg^_a^[^`^[VPLJKOU`hlmhYPQWdwÜåâ~smilppnlgcb_[URQPRX_bc]TMMMRZ`acgjf`^^]aihb^_]aehgcbdcfnnkmf]\^_bfec__adhlnnpomie`ZVRNOSZ`fhjloolgbZUTTSUUPQ[^j}çîûùìävsUXbowzyrhda_YVX]bilf_[Z^gpofYLCBDHMIEFEBCDCCEEFIMXfuÖíññíâ~tkc]Z[\`hquyvoheba``^^]`a`^]WQV]dfhe_VWY^aehi`Z[X]fiowvstncXMEBCFJLID@:55;DEDDA<ALPPSSORVUSRPRZeiea_\^dgimsy|wl]M@;=DO\fgllihkcYOGAACFJIC=831356?IQUVTVZblnf\SJFGHLTX[bec^YQNORRSQNNRYZ[[ZUVWWTSSTXZ[][Z`kqx|vqnmpyÉäîôïåÅsifhlnmjfcbbcc``cflsx|}{{yxumgb[W\bjrÄäèéârf[^\]ad_dks{Åynhhnwvsldbgiihb_acgqyslicZ\^[YZ[[YUPNJIMU^fjjcXTYcp~ááÅvojgkpoomhba_\XUQPPU^cfaXQONRY^adhkf^XVUXcf`^`_afjf`_`^emmkke^^`acdb`^_aeilortqnic\WRNJIKRY`dilqroibZRQSRTVSV_cpÄéïúôíâÅ{yX[epvxulc^\ZTSW\bhkgca`bipng\OECCFIFAAA=@CBBDEGKS`qÅêóóíâ}rh`\YY[\ajstvskdbaaaaa_\]]\\\YU[bhghcYLKNV_fmnc\\X]fgltsptne[TNNQSTSLC<6229FHJLH@EMMMOMJOSRRTX[clle_[XY^dhmtywm`PA75;FTajjlkigiaXNE@@BDHHA;61-037AJSVVSTW`kniaYOKKKNTVX]aa^YSOOQSVXYZ]a^\^_\^_[VRPQUY[^ZX^hnw}wqkkq~âìúõîâ~ofefimnjhffefhhgjlpqrstuxzzxqjc[UX^fpÄãèçÜzne\__`cgbdjqx|ukegnurmf]]dhjidbfgjsyogd^X[]ZWWWXYTPNJHLT]cgg_XYanx}Å|unmhgjmmmkf`][\\ZVSQT[aebZURPRV[`chlf\TRPT`d]]`^bjmg`__]fqolke_beefe`_]^_bgilprokf`YTOJFCDJPW^fkopkc]UONPPRVW\elwÖíôúóêÖ|xvXZclqrog\WURNPW\cikifdbchmjf]QFDBCEB=??=AEEGIILR\l~çòöîä~rf]XWVW[^dkqqrohb`\\\]__]\\\[]\Z^dihgaUGBEP\enobZYVZdejrrpsnf^XVW[]]XOC:2//7FLORNDGLKIIFCFJKMS\emsod[VRTZafkqtocWG:33:GUajikkjjle[RG@@@@EF?:5/+-19DLUXUSTV^imkg_VQONQTTUY]a_[TQOQTZ^abef`]_`^`_ZTPPQUY\a]Z_imw~zunowÑéôüõíá|meffhmoigedcfjloqqqmihjmquwtoic[UVZbnÄäçäÄsic]abdgjhhkostnfbdlqld\SV^ehifhmorxzndb_[_b]WUUWXTQOKHMV^cgd_\_itvusmihjhefihjie_\YZ]_\XVVZ^cb\YVUTUY]afjd[RPNR^bYZ]\`jmf__^]fqoljfdhkjie_]\\[_dgjmplgc^VPKEA@?DLSZelnlf]VOLMNORX\enxÇçòúúòèÑ|wsQT]fjkiaVPMKHMV\djkihfccgjgc[PFCABC@=?@AHOPRROR[gzåòõôçrf[UTUUX]aeilklifa_ZXVWZ[\]\Z[\]^bfljgaSD>AMYajgYQQOWcejrrornhb^]`dff_TG<1-,3DMRVQGGIGDB@=@BCGQ`luxo`UOMNT]bhnofZN@513<JWbhghjlmoj`TJBA>?CE>950,.3=HNWZVTVV]hlnmf^XUQSTSUX\`a\WTQRU\cegji`\^^\_]XUSTVY^aeb_cjnw~ztnq{áëöùñåÉzledcdhkec`]^cgmrrqnf_^afmsusojf_WVY`l}ÜàÜ{phd_cdgimmllmmic^\`jle[QHLU^cdaekou|{nc`_]ad_WSRTWSQOMIOY`dfc`agotphb^`djhedeefhd^ZWX^aa^\YY]`a]][\YXZ]_eicZRONR]^UVXW]gid^]\]fonlifflpqnh_[ZYX]cfilnkea^UMGA<;:>EMVdlokcYQKIKLNPW`kvÇãîúûúóèÉzsnKNV^cdb[PHFDEMX_eijgfc^^aebaZQGECCB@?ABEOUXZXUZeuáïõôêÄqdZRPPRSW^abdfeggfcb^[ZZZYYZYYZ\^`djqojbTD<@LX]d_PJKKVbfkqpopmidaaehjjdZN@3.*/=IOSPHDDA?<98:;=DRamusfXNJHIPY^dig]RG;206BP[dfccgloplcWLDB>>AC>:6302:ENQY[VVYW\dimokc^XTTTRTW[`b^ZWSRU]dhjli_[^]]^]YWX[_cgjkfadinw~{vor|àëôöíàÄwkdb_`ehdb`^`eiotsplaXW[bipsqmjgb[Z]am|ÉÖÇvkda^abfgjmjhif_[WW^ijbVJ@DMV[[Y^flt{zoecbade^WRPQTQNMLJQY_cfeejosrh\WV[bkidabaceb]YVW_efgc\Y[[^_aada\^_`hkd[SOMS\[RRQOWada^^]^fmkigfgmstph_ZXWW\bcdfhfdb^ULE>9979@JTblpjaWOHHIIJLT_mzâíöüüöïã}ribHKR[_`_XMFEDIR]dijiec^XX[`_^YQGGGGGGFFFJSY\_]\cqÇëôôêÉrcWOIIKNQV\^__aacbb_^\]]]]\ZZYXY[^`dlsqlcTD;?LW\a[LEFJVdjnpollhe_\]`bgjfaXI:1,-8FKNMGA?=:52345:DRbmrl^PIFEGNV[_b^SJ@823;HT^b_[[_gmqoh[PFC>=>A=:9879AMRRWXUX[Z\bflole`YUUUTVWZ`b^\YUTW`gihid\[_`^][WX]djmopniegkpx|vppwÉåíîçÑ|ukc`^afjhfc`aehnrplf\SRX`fmnlhfec^_bep}ÅÅ~pf`__aaccfhfdc_YVTW^hh`TH=BHPTTQW`hs{zphfeegg_WRONPOKJKIPX]bhjotvtm_SORZcjhc`__bfd`[WXagknia\[Y\^adigaaabimf]TOMS[YPPOMV`ca__]^dhfdcehouvph`ZWWX\bb``````^VLE>8655;GSakqkaWOHFGGGJR^m~çóü°ùïçÅsh`XFIQY]`_WMGFFNWbjnmie_WPQU\^^YQIHIIIJJKJNX^beffo~çïñéÇvfXNHDEHLOSX[\\^__]\ZXXYXWVTRSTTVY[[^gnmkbSD;>LW[`ZKCDIWelpoligea[VUVZahjjdVE90-3AGHHE=;950-./3<HVfpqh\PIFFGMTXZYSIA:526AMW^^XRQV`ipqm`SHD?<=?=;<>?AJSTPSSQV\\Z^cimlgaYUTUUWWY^`^^]YY\ejife^XZ^_][YY\cmrtttpmlnpu{~|wqnqzÉàãàÄxqhbabejlhebbcgjnpmg_VMNV_ejiea`abacehr{}{wjb^]^`^`acedb]XSQQX`he`UI@DGLONKR[dpzyqigffhhbZVQMNNIHJIPX^fmsy{xpbTLKPZcif`]\^ciifa\^dhnrlb^[WX[agmlgfcdlnf^RKKQYWPOMKT[]\]\\^bca__chnvwphaZVWY]a_][[\_`^VLE=75439GTalqkaXPIFHIKPYerÇèö†ùîä~ule^WHMU\`c`XPJIJT[elplje^TNNS[^^ZSKJKJJKMNMR\cglpr|àëíã~rj]RIDABFJLNTXY\^^][YXVXYWURNJJKLPTUUZbkmldUE<?LX]c^PIKQ_lqqoiffc_YSOOT[bhlk`QC812?EFFE=963/..04@M[ipne\SNJHHMRUURI@:534<HRX\WPKKOYcmrpeWKE?<<??>BEEHQVTOMMNT[^[\agklgaZUSTTUTWZ]^cdcbflnkfb[WZ_`a``afluyzxwrqprtx|}ztmhhox~ÅÅ|rlgccehjhecceimoqokbYQIKT^cgc_[\^cdehjrxxsod\Y[]`adefec_XTPNOXagc`XKDHGHNMIPYamwxrlhfdefc_]WRQPJIJLQW^js{~vjZPIGMX`ffa^^ahmlic`eikqskb^ZUTW]fmpnmjmrsj_QIGNVUQPNLU[\[]]^adc^[]aejstohcZWX\_b_[XXZ`a^WME?84427GUbnrkbYRKGIKOV^itÇçôùóã}oje`]WLQX_ac`XQKKMX^hnqljf`VOPTZ^^YSLMNNOOOPMQY`fnw~ÜåéÜzme`WNFB?@CGIKQVZ^a`^\[[\^^[VPJFFFJMPQQV`jnneXI?CPZ`faUORZgrusohdec]WPKJNTZahjdZNA94<CEEE=6320/015CQ^hni`[WRMJILOQOI?83016ALSUTMGFFKT_jqqhZLC>;;?BAEIIMUWRLGFIQZ^ZY]cghfaZTQRSUTVY\^ehffjmnkf_XUY`bghilpsy{|ywttqqtxz}ytmfadlrwzxokhffhihfdefjknonkg]SMFJS]bd`[XX[`bcfiottni_VSVZ]agigda]WUUSS\be`^YMGJGEJJIRZbkttpkifdcdb``]Z[ZURPPRW`mw}ym_TLGFKT\bc`__bkonmjinpprpg`\WROPWbiopqotwvl`QHFLUURRONW\\]^_acda[XZ^aflmjda[XZ_aa\WTUW]_\VME?:5439IXeosne]VNHINRZcktÄãñòêÉsfcb_^ZRV[acd`ZSNNQZ`hmojhd_XTUY^`^[VPQRQRSPOLNU^fs~ÉááÄsh_\\WPID@@BFILSX\`ba_]^`acb\UNIFGHLPPOOU\fmmdYLCGT]bgbWSXbowwsoiefd[UPIFJOTZbec_VJ?79ADEE=5221235<KWbjnib`\VPMJKJKG@72.-0:HRUTOGDFHKS\hqsl]MC>:;AEEIMMPVUMF??ENV]ZWZaefd`ZTQRSTTUX[^ekjimpnkf^XV\cgnpqswxzzzxutussuxz|ytmf]]bhntwqnkjhjjhedddggjjhebXOJFKV`fgb]\Y[^^^bfjopje\TQU[`ejkgda_YZ\[Zadd]\YQLMHDFHJU^fowvtmhfcaba```_bc`^]\[_gt{|rcVNHDCGPW^aaccfnpnoorywsqia\YTOIIQ]dlqsqvwumbULIMSTTTQQZ]\]_`bdd`XUY]_dihgc`[YZ_a`ZTPQTZ]ZWPIB>754=LZgqrphaZRIJPV_hpxÇåîêÖvf[\^_a_WZ^acd`ZRMLOW^ejjdb_\XWZ\`a`_[WVTQPMJIGIS]hvÅÅÅ{obZWY[YTNHEEGKNQVY[]^]]^`bba^XQKIHIJMPOLOUZdmme]RHKW_dgbWV]hrwsmligigZSOHDFHJOUY\]YPE:9?ABC=312357<ES^glnjeb^WQMKIFEA;3/--3@OWXRJDDHKMSZfosobRF?;<BEEHLKPURIB88@IQYWUX]acb_ZVQQRSRTX]ahmlkoomjd]XV[adjostwxwuvvuvwuuwxz}yuoja^cinu{upkjhhfc_^_acegecb_XQLKQ[dlnic`\\[ZX[`dije`[TSX^cjnmhec`[]___deb\YXTQQLFGILW_iuzxxpgeb_a`_`baeihgfedhnx}|uiXNHEA?CKR[beiijpoknqy{tobYWSMIDCMZajrsrvwung[SNOSSSTRR[]\]abefd^VTX[]acbc`^[[[]_]VOLNQX\[ZUOGB:67DR_ksqpjb\UKJQZblu{ÇãéÜyjZQTZ]``]^`bdc_XPJIMV]cfc]\Z[[\]^_^]\ZYXWTRMIHEGR]hu|zvl`VRTZ^\XRLKMQUWXZYWXXYZ^bddc`[UQOQTTUWQLQW[eonhd[QR[adgbXYbmtumggghjgZRMGDCDEFIMQUWSK@=BBBC<20248=EP]hoqnic^ZTOLIFB?;62113<KX]YPF@CINPTYclroeVIA=<@BBCGHPTOG>32<FMTUSUZ_ba^\WRQQRSUZ`ekomkmmlic]ZXZ`aelrswxussttuustuvx}yuqldaflqw{unigdca_]_beddec`_\XTPS[ckttoid_][XWY^`ffa]ZTU\cgmolgeda_bdcdhfb]XVTSSRNMNR[amz~||tjgd__^\]`bfkkjjiilqy{wrhZQMIC>?FNYbhomlpmhlr|Åzsk\TTPJGCCN\dmtutvwupkbZTSSQQSQS\^\^abeec]TSX[\^\[]\[[[[[\ZRKIKPY___[SJD;7;IXdotqqme^WLIOW^fou}Üá|o_QJOX]_ba`baba]UNHHNV^dc]VTUX[\][ZXWXWWXXURMGCAEQ\itvqk`VPPU]`_[UPRV[^_][VQPOPU[aeggea\YX]bcdcYQTY[eonjicZZ`bac]TXbkqofacgklhZQLHGHIIIGDFKPPMD@ECAA;0.15:CO[gqvuoh_XRNKJGA=952226<HVba[OD@DKPQTX_honh\ND><<=<<BGPSND:..9CJPRQSX_ba^[VRPOOPRX`eknkgiiifb][XY]]ajsuyzvrqssutrstsv|xurngfkrvyzulfc_^_behkidba^][YWWW^gntzytnga^[Y[\_`dc^[XTXahklieaabbcgiijkhb]WVUVW[VRQUZcrÄÇÄ~ujgea_]ZZ]_cijkkmmoqutqokaZUPHAAGNXahmihjhfnuÄÅxqgXSSOLKLNZelrvurstspoia[YTPPSQS\]Z\aacc`ZUV[^]]XVWYXYZYWYVNGGIPZbdebYNF=7>M\hrroqnf`XLGMU[ckryÅ~qbTGDKV\`deccbb`[SMHIPX_b_WOMPSWYXUTSSVWWVUOLFA?AHU`lqnf_UPNPW_bb_ZVZ^ced_YQKHFGNW^cefdb``binqpmaXZ]]dmljjg`^ccaa[TZekmh_Y^flmhZQKHHLNMLF?=AFJLGFJFA?9.,27?L[gs|}zqg\SLHGGD=840/24;DR`ie^PEBGMSTUVZckmi`THA<:766>FORMC8--8AHMPPSX`dc`\XUSQPONT]ekolhhijfc__\^bbdmwzzursrtrrtuux|wtrplnt{}~{rf`\Z\bhknojc`_\\ZYZ^ajrux}{wpg`]\\`cdefa[XWV]ejkhc_\]`abeggijgb^YY[\`d^WVW[gwÜáÖÄvkhfdca\YYXX^achlnnlkigijgc_[TLJOSZbgiedeegovvpg[VVTTUX\dkpsuspqrqormga^UOOQQQXZWY`acc`ZWY^a`^XTTVVVXYUVSKDDFO\eijh`VKA;BQ`lroknmfaYLFLT[alrx|wgWH=:DQX]cdccaa^YQKHKSZ__YPJJNRTSPMKLNQPOMKFC><>DN[fllf^WQNMPV]`cb^[`ehhc[QHB@BGNX_bbcaabfipuvtoc\]__diijljeceda`[W^gjh`WQXbjjeYOHEHNQPNE<9:>EKJLQKA=7++5<FWfp|ÉÅ{nbVLECBB?950,-03>JXekd^PEBHMSTTTV]fjicYKB<7313=HOPLA6-.8@GKOPSWbggd`ZVTRPNMQZcjnlhffjfebb_^``bkv|ÅÄzuqpoonnqttvyurrqoszÅÇwj]WUV\dlpsqia^\[]^`ejnuxxy|yslb]ZZ^filmlbYWWX`ffd`[YXY\]^`badec`^[\^_ekd\[[]k|àâÖ}ulhfgge`]ZTQTUW]dgfa^[Z`effdc_YWYZ]acb^_`diqv}zrnh_]^^`ceilostsqpopnjmida_UONONNUVTW`bcb^ZY\bcd`ZVTTSSUVSSQICDEP_hmnkc[OGCIWfoqlgijd_VMHNV^ckpuun`RD:8@LSY^eedb`]WPMKOW]^ZRJFJPUWTOKGHIKIGDB><;=CKVbjnmf^XRMKNSZ^ddb`eijg_UJA<=DJR\aadedfikmtywsnd]_``dhgiljfegda`\ZaiidZRMU_febWMECJQVVRG;559BKOSZPD=5*,9APaoxÇÖÄxhZOG@?>=:51-)*-3BO]hlb\PGEINSTTTRW_eeb[ND<766;GQRPJ?4..6>EIMPSXdllid\WTSQPMOV^glmkfehgfeb]ZZ[`jt|Åzwrolljjossuwqpppquy}|uk`VSTV^ipsvpf^\\`fjnrtuxxuuvsoi_\Z\clnqrnc[ZZ[`a^ZWUUUWZZ]]^]`a`^^^`acjog`__bqááÅyrmigijid`]UNOPPW_a]WQNOW^beghgdaa`__^[X[^dlswzunje`behkopsssttppnnnlgiea__TPOPMLQRQV^ab_\Z[_deeb\WVVSRSTRSPKHJJWfloojb]RMMS^jpoidgie^UMJOXaflqsph\PE=<AKRY]ffeca\VPOOTZ^[TLEEJOVXVPMIGDFD@><768=FP[djnpia[TKHLQX^fhgehjgaZQF?<>GLU^a`dffimoouxsmg_\^_adffjkhdcdca`_^djhbZTPXaeb_VLDCKUZZVI;327ANT[`VG>4*0?JZkw|ÉÅzo_RKE?=;852/+((+2DR_jl_YPIFJMRRRQORZacb]RG@<<?GRYUPH<3//4;BGLRUYdllif^YUSRQNMSZcikjddggee`ZWVX_hrz{yytromiinrrttonnoruvxtkbZTRUXakquvnc^^bipuxyyyyupprqnja\[]dloqrnd__]\^[URQQRSUWXZ[\\]]][[]bfhpsjbccjxÉàÖ}solihjllhc`WNNOOU][UMFBCIQY_dilliif`\[VUZ^enuwxoiea^bgkquvwsooolnnmljfieca_TPQPLJMNOV^bb^\[]`gfea^YYYVSSUTVTRSWWbnoomg`_XVX^empnidhkf^TMMQZgmrwxsj`UMECEMRX[kkhe`ZSPQSX]^WNFBEKOTVUQQMIDC@=;968<CLT\chkojaZQFBHMU]gjjghgb\VPICDHOT[``^beehnqpsska\XY\_acdeiic^\]]^_aafljfa\W\bd_]VOIJRZ^]YL>638DPYbeZKA:3<MYgv}ÄÅ{qeXNIC=97310-*('*3FUakk^VNGEGLPOMMLNV_ba_WMHDEIQZ_XPF;3104:@EJQUZcjjiga]YUTTRQV[agjjddfgff`ZVVY`gnuyvvywutpkhloqrspooqstqqmd^ZVUXZclpsskdcfjqvz|}}ytniinomkd_^_bgilpmfcdb][WMIJLMOSUUWXZZ[[ZXVZ`ehqskehjr~ÑÖÅvnljgfikkiebZONPOTXTNF>:9=GOW^fjonmha[YVU[`gouwwqliebeimqutrkfffejljhgegfea^SQQOJGHIMW_ec_\[[_fec`^[[\[WWWWZYZ]abltsrmd^`\^cjorsqmhmpk`VPQS^lruz{wph_XPNOUW[\kkhe`ZSQTW[][QH@@FKMQSTTVSMFB><::9=CKRUX^afnkb[PCAGMU]fiiggc^XSMIFJQY^cc_\^abemqnnl`TPNRW\_bcflja[XVWZ]`cgljhda[_cc]\YQJLTZ^_\QD<9>HT\eh^QIEAM[fq|ÅÉ}rg[OKHC<72/-.,*('*5K[fol^TKDABFJKIILNWafca[SMIKOX`e^SF:21029?CIQUY`eeddb_ZUSUVWZ^afghccdfdd\WSRV]bflnlnuwxyuniklmoqpopqqnigc\ZYXWZ[dkortokkmnsy~ÄÇxpjehnonlfb`__aaeiigfjf`\VKGHIILPSSUVXZ[[YXVX]bempkhmqxÄyojjgegjknlig`USSQRRMHA;86:FKQX^_ghif_YXWX^ckqwzztokfcehjlmllfbbcbhjgdcceed_ZQQPNGDBDJU^dd_[[Z]fda__[\_]YXWX\^agjksxurkb]__emrtuqpnkpsm`UNQS_mttyzytnhd]Z\^^__llifa[TSWY\\VLC>@FJJLNQV\\VLF@=<>@DJQTSSW[dmlc\QFFLQW^fhgfe_[XRLLKPX^_`]WSUX\`jpmjfZMJKOTY^acgnlc]YUVZ]adilmjihcegf__\UMMTY^a`UIA>BKU]eg`WSRS^iqyÄÑÇvi]QJJIC;50,+-,+('+:O_jpk]RJC??BFGEGMPYchdc_YSNORY`gbVI=30029@DIOTXZ]]\]``[VVY[^bdfiiiccba^]UPMNRZ^bgigkswz|xqllklosqpppnib_ZUWZZ[^^ekquxrpnmouz{tlgeipqomfa_^\ZY[^`bekic`[PJIIGJPTTSUWZZZYWUX]cflnklqw{~{vqhefcbeikpqpnh]XWRPNID@;86=HLQVVU\_a`\XWWW^emrz{ysnhecddeeefidabbafgb_`bfgf_XPOOLFA>@HS^ee_[ZX[bb]\]\^cb_[YY^agnrswxtph_]_ajswxxssqpuwpbVNPS_muu{||xrmjcbfjijjiihfb\WVXZ[YQF>=AGHGDDIT^c`TKC=<?AGMQQMKNU_iia[RJLQUX^ceefd\WUPLQSX_`]ZUOMLOUZeolgbVIGIORU[_biqohc^ZZ^afiknnkmpnnqnec_WNMQV\ac[QIEGMU\beb\\^aisyÑÖ~oaUJGIGA:4.**,,+)',>R`imeYOIB<;=?BCHPT]eidca]WROPSXaaYOC8312:BGKOTVUUTQSY^^]^cfjmolkigbc`]YVPNNOSZ\afhhlrv{~zsmjhkptsqpnic[XTSW[]]`aglrvvqommoqtwxywrlifkrqnlf`]\WTRRV[`elkhecXPLJHMTXXTUVYYYYXUY]`dikjlrvxxtojdab^^cilsvurmb[WSMJFCA>;:DOQUVROTX[[YWVUUZckqyyuokhgggecb`cfa_aaadd^[]aehg`WPPQPKEA@EP]dd_\ZWX_`\[_acghd^ZX\biptvusqld\]_bmvxyytvvvxyqcXORUbovtz|~|uomjkrwuutbbaa`\XYZZYUKA;>CFGD>>FUaif[ND><ADJNPMGDJR\ee_XRNQVWX]aabecXSRLIRX[`_ZUQMJHJPUalmfaVJGHNPU[aelsrmjgbabdhijmmjkqomqphfbXOKLRX^a]VPNORX\`cb_bgkpx}ÅÖÑyi\OGFGD>72,)),,,)(/BS`gf\SLGB<:;=AEMW^fkkdccb]VQNMPZ^YSI>6218@FJLQUSQPLKR]cfilmoprnlhfdeb^ZUQPQRV[]bhjjmqtx{wqkgejotsqolfaYUQRX]_accgkprplllklmpsuxwrmjglpnigb]\ZTPMLPW]enqppodXPMMT\a`XUVYXXYXWZ[\_cefinrppkeb`]`]]bimtxwsncZUPKGDEGECEQUVXWNIMRTTVVUTTXagmuvqljjkmlheb]ad_\__`b`ZX[_cfe]TNOQSPJEBEN\df`]ZWV[_\]bghklg^WTV]dinpolliaZ^`dpxxy{tuusssod[SVXdntrwz}{snmmq{Ä~}}STVX\[Z[ZXUNC;8=BEDB>?I[gnk_PE><ADGIIFBAHQ[bb^XTSX[YW[_^`d`SNNHGPWVXWRMMLJFGMR\gib\SHEGKMSZagpvusrolihghffigabgecjlhgbUIA>DMU[[YUTUWY[]_a`ejmoty}Å~teZOIFEA:51,()+,+)'2DQ[a[PKHEA<::;AJS]ekkibcde`XQKHJTYXWPE;3/4:AGINRQMMJKTaioqpooopnkgffge`ZTSTTTWYZaikjlooqtqjebchnsqpmke`XRNOTZ\_bcfhkmjffeehkptvxwrokglnkfc\XVTOKHGLS\grz|zwl_TQSZbge\XWXWYY[[][[]_bdhmojib]\][`^]bjnuywslbXRNHEDHONMR\XVYUJGKNOQTVVTSW_djrrjbabgmnjfaZ^`ZY^_``\WVZ^ab`YQMMQUUOKGFKW`d_^]YUX[Z\bjlmmf[SOPW^cikifeb\W]_drxvxyqpnkhhib\X[\emrqtwywmjklqz~~ÅIKPTY[\]ZVRI>77=BEEDADPbntqdUIA>CEFGGDABHSZ_`\WVW[\YV[]]`d]RMNKKSVQNJGEGIJHHOT[cg_XPHDEHJQXajuyyywtrokjga_a_Z\a^Zbfee_RE:6>GOUXXVVXYWVVXZ]bhjkotyzxncZSNID=73/-**+,+((5CMUXOFCBB@>=<>FPXagifb^acfb[SLFFNRTXVLB8//4;AELRSPQMNWdnvxtpnmmlkgeikid^XYYVTVUXcmnlmnkkmkb_^agmqqpnmgbYRMORX[_adfgfhb^^`cimsvwwwrokilkgc`XUSQMIFDGOZguÇÄ|pcYW[bimj`\Z[XZZ[[\YW[]bglpoie]XZZZ`_]bimrvtoiaXQNIGHNYYW_dZX\VLMQRSX]^\WSU[_fmj`XX^fnnje`X[[UT[_cb]YX\`aa]WRONRXYVSOJJS\`]__[UTUX[bmrqoi\SNLQY^ehgdc^ZW]`fsxvxzpnkfaafda_cbhmsrtvwtkiiknv{|~ÅILQV[\]\WSMC946<BEGHHNYisvsgXLDADCCCBAABJSY\^[Z[[]]XU\]]`b[RNPNPTULF@??BFHHKRX]be\VNHCCEHNUalw{{zvrqmhgbYVXWUY^ZU]bdc]OB619CJPUWWY\\WRNMQV\cdejpstqib]XSJC<630.+,,-+),9CJPOG?????>??BKU\dhgc_\_bfc\TMFCGJNUXSI>3./5<BLTWVWSU]ir{{smjhgghfemqnkgaba\XWW[gqqmmmighe]Z\`fjnnommid\TOOQUY]`cdc`_YW[agmouuuvwppnlomgd_XVTRNIEBEM[jyÑáÅzoc\]aglmjda_^]]\\[ZTSW[bhnroicYUXWX`_]bikmpoigb]WTOOMVbaalk_`b\UVWVUZ`ca\WW[^eje\TU\fmnid^VWUOOV]dda^]`a`^XQPONQY]\[YRMQX\\`a^URRUYakrqoi^UOKNTY`fged]ZX_bjvyxzynmhb[\cdefjgjnrqrutqjihkotvvwxTX]`b`^ZTNG=515<BGLMPV`muvqfXLFEECCCBDEHOW[]^]_`^_]WW`a`a`XQNQPRUSH?::;>BFFJRX\_aZSKFAACFLUbo{~|wrmjea_XRQTVWZ\WPV]ba\NA3.5?GJORU[bb[PGCGMU]acglmkjfba_XNE@==;831--,-1;AGJHA>==<==>BJS[_deca_]_bfc\TLD@BBFNUTOD91-19BNZ]]_\^fpv{xneaa`bedfotttpkkib^]]bmtronniedb[Y^cfgkmnnpmg_WROPTX]_bb`\]Y[agjnnsqrttoqppqngd_XWVSOIC@AJZj{Öáwlc^aehihebaaa``^\YVQQV\djorohaWTWVZdeelomjkigggf`\ZXT_jhlvnacd_\][VRXaghf`^`dkoj`VU\ekkfaZTVRMNT\fhfeeeb^YQLNOMNSX[]`ZQNSX[`c`VPNRW]emmkh`XQLMSW_fife^[Y_ckvz|tpib[\eggkplmqtrrusokigilopoooY^dikjgaYPF;2/4;BIOQTY`krsogZOIGEBBA@DFKS[]^__dfca]WYbba`]UNLOOQROD:69:<@DDGPVZ[\UNGC@?@DIRao{~{rjda\YWOJLPTX\\YTY_db\N?1+0;CGJMRYdh_QD<>GPZ_bfjicba`ac]SKIILJE>6/..16>@DDB>>=<:::=EQ[bdgd_^^]_ac_XQJB>=<?FNRQKB935<GVcfggdhouyzsjcbccfjhisxy{xsqnfaabgpuspnokfcb\\dhiiklmnqoiaZTPPTX\^a`]]_]ahklkknnqttpsqsuqjgaZYXVQKE@@K[k{ÑÉynd`_dgeb][[^`abc`]YTQTZ`jnqrnh_TSXYaorrvtngfefjormkfa[diiqymdhgcbc^UQXdknnjghlsumcWV\eiid]VRSOLMS\giiklha[TJGMPQOQU[^d_UMLPX_dc[QLPUX^fhfgd^VOOUZ`inig`\[`emvy{}}tpic\^eijnrnnqsqqsolkiefhihghfbfilnljhaZOB738>FMSSSV\fnqng]RLIEB@?@DGMV\]_`bjlgb\VYbdc`[SLJMMOOLA98==?CDBEMTWYZSLFB@@@CHSbpz|vme_[VSQKJMQV\aa`^bgif^QC6/2:BEFHOWeniYI@?EPZ_bege^\[\^c_WRRTYWRH>4248<@ABA??A@><;;@KYdhiid`a_]]^_[TOHA<;:;>FLONJFBCJVenppmimruxyqjdeggjommu{|}{urqjegilswtroonhddabknlkkkllmlfb]WRUY_acc`^`bbfkkifgjlsvusvswyxpkd^ZYXTNGBAM\l|Çsh`_`fgd]WTUZ^`bb`]YTSW\cjnoplg]UT[^jwyy{ukea`emuzxume^dfiuzmhljghg_SOUdmsvuppuyxpfZX_egf`YSPPNMNRZeilqrkaXNDBKQTRQRY^fdZMHJT\cf`VNPTUX`cbdfbZSSY^cmqnlea^bgpwy{{{urkgaagijnroosvssvpkjhddeffdcajlmonjifb^WNE@ADIPRPMPWbjnkdZQLIC>=<>DGPX]]`bgrrkd\VZced_WOFDHILNLB=?DEJLJDCGMSXXRKFBBBBDKWeqwvne^ZVSRPNPTW\bgghhjlmjaVJ?88?FFDEJUftvjYOKMT[]_bca\ZZZ]`^YX\_dc[PE:9;>?@@?=<>@@@@?@GTbjmnmhffb_\[[WQLF?;9889>DJMOQRU\htywuplortwuniehknprpqw{}}xrqsnmpppssppnnnideeiqspnkjihhhec`ZTW]cehe`_cfgjliebdfksvuuwtwyyrng`ZZZUQJEFTduÇÖre``afeaXROPTY[___]YTUY\cijikfb[VWahs}}{zrhb]]eox|wmaZadkz{mjlhghdYKDI[gr{~wxz}yrg][`ddb]WQPPNOPQWafjsvnaVI??IRWTPPV^fh_PFFQZbfe[RPTSRY^_cjhaZ[`chprnlfb`bgqvxzzyuqljdcijkorootyyz|tjgc^^aefeechijlkfdb_][XTQPOPPMHDGQ]fjf]TNKHB=;;>EHRY\]aenywpg^X]dfd]TJB@DFLSTKJMQRZYQGA?FNVYTMFBBBBFO\isupf^YXVUVVWZ__beheedfikicZOFBAFKJECGRdvxkaXUWZZ\^_^]\\\]__]_diliaVJ@@CCA@?=<=>?@@@ADN\iruuqmkic_[YWSMJC>;97756:@FMV^emyÅÇ}xqnortwtkhfjnsssopuz}zrlpsruwsqrpmmlnpmhihmsspoihgdcebdc]V[bghlg_`egiljd_\_bhrxwyysruuplh_ZZ[WSMIM\k{ÖÉ{ma_aaec_WQNNOSUY[\[YUV[\affefa]ZY_kt}Çzvme_ZYaktzxrfYU[`n~|ojhdcc]RC<ATap}É{{||xri_]bfda[TONNNPPPTZ`gsysfYI>AJSZXQNR[dgaSFCMXagh_UPSRNSXZ_iie`beilrqmkfa]]ckptwvurnkjffklmoroos|~ÅÇzle^ZY\bghji``_`_]\]]\\]]]][WQH?:AN\cgaWQONJE>:9=CHRY[]chs~{ri`Y^cdbZQG><BGPY]XY\`afbWH<8@KUYUNFABCDJVcmsof\YY\_```__b`bfea_^_chje^UOKJMPOIEHP`uÉÉ|th`][XZ[\]^]______cimle[QICFJHEEDABBA@ABBCJVbmuxwuspme`ZWSPKHDB@?><6227?JYhszÑáÑ|vomnptvsjfejossrppv{{tmjqvx{zsnmjgggjppmnmpsqnmgfc__a_cc^Y_hlkog_`dfiid^YW\ajtzy{xpopqmje^Z[^[WQOWeuÇÖÄvh_`cacb^WTRONPQUYYZXVX\]beeeea`bcit{~ysld^[VW^hpusk^RQW`qÄ|piecaaZPB=@R]mzÅzyyxvqjb`eheaZRMKMOOOOQT[cpxti\KADLV^[RLMWbgcWHBJVagkcYQRQKMSU[fjhefhjlppmkg`ZX]gloromkheeceknpprnlozÑÖ~nd[WVX`ghmna^[XSONORV\acefc^UH<7>N\ce]ROQQOLD?=?DJSXZ]elxÉ|si`Z_cdbYOD=<DLWbgfgkmmogXF73<ITZVNFBBCFP]irunc\\afjjifcbc`beb[WTSZbgebZURPRTSMIJQ\oÖÑÇvkc\VWWXY]`cbb_^_ejlf\QHDEJOLJKKIJGC@AACHR^hpvvtstqmd`YTOMIHEFILNMC933;I[n}ÉàáÇwpkjknsvslgdhmqqqpptxxpkmu{~ypljfdcdgoqqppqpkjhab^[\^]bd_Zbmonqh__bdhe^XRT[amwzzyumlmojfa\\^b_YSU_m|ÜÑ~se_cb`ddc_]YSOOPRUTUVVW[]`bdfigillpy{yskd`[YWTV]fnqlbVLMVduÄzneaaaaZPC=>NYgt}vtsssrnihllgaYPKJLOONNOPXbowvk]MDGPX]YPIITahf\NDHS^eidZQQRLKPSXdklljijjjijhd^YUYafjomlhebaaelprqrmkkw~ÜàÑtg[VSV_gjps\ZWTNJEDFLU_eiif`WK@=ES^cbXMMQSSRKEBBFLSWZ_gp}Ñ{rha\`cc^ULB=>HS`lrrtwvsqfR@43@NZ^XMD@ACIWeovwneachnrqpjdba_bid[UOIQ\bbbZTRQQSTOMNSYixÅÖà}rg]TTSTV\bggfb^agkkaSFA?EMQMMOONNJFDGJMS^flsvvtsspld_WQJHFFDHOV\^SF:5<K]pÇÇÄ{qlihilruslecejoqqpqtwwrot|}~umjfbcbcgopsqpolfdc\\YX\^]bb]Zampnpg^^`cfaZTPT\dpwzzwskiklgc]Y]adb\W\gvÑàÇ|pcafa_dgfdc^VPPPQTQQSTV[^abflppqrpsyyskaZYWWVTV]fmqj`VNQ\kzÄuh`\_abYPE??MXboxronpqrqmmoniaYOLKMOOMMMNV`nvvk^PILT[\XSOR\jok`SFGR\bebXOPSLILOVajpqkhfdcbdc_ZWSV^cflmlgd`__eknonmjggqzÉáÜxk]UQT]flruVUSPKGB@BGNW^cec_WOHHR\ac`UKMSVWXQJCBEJQUZajuÅÑzpf_]`cb]TKC?DOZhrxz|}{tk]I927FU_`WLC>@EN^ktxvmhgipvxuqi_\[[bkg^XNCKV\_cZRNKIKONNQUZgu}ÉáÅxlaWUQQTYbhihe`chli]NC>?FOTSWZZWSJFFLRX`ilosutssrnlf`WPHECCBIU_jpdTF>DRbtÄ~|ytkhfdeiputmfcchmpqrstvwuu|Å~zpjhecedeiopspnlg`_\VWWY_bacb]Z`lpmmf][]ab^YTSZagry{zwrkijje`XW_bee`[cn|ÜÉyui_af^^eijif_XSTTTSOMPRTZ`bemtxwuspsvtmd[WWVVTTV]elojaYUZcq~~pb[W]`aWOGA@MV^jtpmlnqrrpopojbYQQPSUSNNNOW`ltti^RMOW^`_`adkuxpdWIHRZ_a_WOOUNHIKOYckmgba]]^aa^ZWTW^cejkkfc_\^dikljfdccks}ÇÖ{qbXQS\djoqSRPMHD@ACGKPTVXZXTPNS^eed_SLPVY[\UMDACIPU\dmyÑÉwlaYY]aa[SKDBHTakruxz|xoaR@56AN[c`UJC>AIVeqz|vpnnow{xsl`UTTWaole_RCISX]d]SKE@AFIMTX\gszÅàÑ}sg\XSRTW`giigcfimi]OFCGPX^`ded^TJFHQZcnrqrtsrrqplkgbXQGC@@@JYhwÄvfXOT`m{Ézvofb`]_dlrtmifdfmqsuvvuvw{ÅÑÄ}ukhfcdhfginnqmkhc]\XSTVZbdcb`ZX^iolkf^Z\__\[XX`fktzzysokljhb\RU`cfhd`juÅáÄtqf_dg\^gnqqlc[VVVVSMJMPRYchmu|}zuropspibZVWWWVUX_elold^\agr}zk^XV^aaVMGDDPY]hrpnnoqssrqrpkc[UWX\`^YVUU\ensqeZSPS^gjmqqqsyzsh[MIQW[]\VNOUPGGILU_ile_\XY[``^ZYY]dgghjjfc_[\cghgd^]^`dlu{Å|tg[RS[cgkjMMLJFDABEHIKKLLOQOPT\hljgaWTX^acd\RE?@FNU^gp|Ürf[TV[``ZRKFFNZfmqsuvxrfXK=9AQ]fjeXMHFJUbmu}}vstqqwvqjbTMMOVetsngVCFMRZd^UME>=@DIRX]fou{ÑÑÅync]WTTT\dghhfgili_UQQX`fihhec\RIHMWdqyytssponljfggbXQGA>>?J\m~äÇsg`blu~É~xtld_[XZ`gormjhefnqrtvtrux{ÄÇ{unfdefimkiijijffda\\VQQU\dfeb^XVZelkif_X[^]\^]^fiksxwurokmkhb[PT_aeigep{ÜâÄwthbfe[`kszzsg`YXVUQJFHMOXfms{}vplikpnhbZVWWWUUV]bimmhccfipxtf\YX`b`TIDDEQ[^grqonmnpqrrrojd`_cfilid`]]cjqtpbYVX^luvwzwuvyzvl_RLPUY[YUOOVSIFILT_hke]YUVY^_^]`bgmniffhdba\\cdc`\TSW[_gpw}{th[QS\cfhcGGGFEDBCDEDCCCCFHINYeotpie^Y]acgg`UE=?DKT^gq~Ö{maVQUZ_^WQJFHS_imooprrj\OF=AM_iprl]ROOVbnsxzwqppmmqnibYLGKPZl{|zs^IHKNXc`YRJC@ACHQW]empv}ÅÅ}tjaYSPOV`ehihhhlib]]ainpnjea_\QLPXcrÑ~vtqmkifdaegdZSIA>@DN^m|àÉxomnu{}wsphb\XUZ_fmpjiieempoqsqnquwz{smhdcfhjmkhffddbba`][TPOT\deea[VVZclkhd^VWZ[]cehlmmqvuspmlmkie\RV_aejjir{ÖÜ~yvjegbZbmu||rhc[YXUNHDFLP[jrw}}xoheeipoid]YZXWVVW]bfjlhefjjnsobZY[bb]OD@CGS]ahqrpnmlllmkkjgdeimquurlheejossnc^aely~zyxurtuvtnbVQSUYZZVQPVTIFHKR]ehd\WTUW]^]^dhnttjccdbaa^]cc`[ULLRZ^fnuzzuj[QU\bde]CCCDDDCCBA=;9:;?BCJYeovskifbabcfe`WF=@EIR]eq~Åwk^SPV[`^XQLHMXbhjjjlnmcVKFDKXhnrrl`YWZcmtsrpmjjkgeigc]SEDIQ^q}ÄwbOKJMWcb]YRKGEDHRX^djjnsz}}vlaWNJIR_gknnjimkfehmtxvqkd_^]TRW^fr}Äysqnhea]]\bgf\UMGEGLS]ivÇÇztvtx}~wsolf`ZUU\bhopkjieejkjmnnlnqrsskgfdeijkkidba```baa_\SOMRZacc_ZVUY_ggc_[SSY\`jnpqqmptsrpnmnkhe]SXbcgnons{ÇÅ|{wnkkdaiqyÄ~rie]YWTKGDGOU_ltwyvofbafmroje^\\[XWXY^`bdgfehkhikg^[\^dbYK@<AFR_diqusponkkjfdb``gnty||xsnlmpsutqjilqu|}wtqlgiilpof\VVWZ\\XTQUUKGJLS\cgc[VSTV\]\^ejpvti`^__`b``eeb^YONSY]eou{|wk\RV]cee\?@BDEFEC>:62/25;?BJYbionikkhec`bb_XI@CFHQ[cp||rg[RTZ_b^WQLLS\cfffgijg\RKJKT`lpsrmd`agouvngbbbdec`bbaZPCDJScv~ÄÅxeUQOPYba^\XTQLHKSX]adabhotxwmaVJCCN]glqqllpoklotz{wpg\VXYUY`eiqxxqllhb\XSTW^ef_[UPOPRTYbmz~yvzvw{xomjgd`ZVX`fkqqlkifehfghiiilnnomheddejjiif`^^\\^`_a_[RPLPV\]][XUVZ]de_[XPQW\clqrqpmnqqponllhfc\U[cejqqnqx~~}Ä{uqnginu}Ç~skg\XUOGEFKT[eottsng_adkqsnic][\[YYZZ^___bbdfgca`_ZZ\`d`WI>:?ESaglsywtrpkig`]YX[gpv|Ä}xuqnpsvwwvssuwxzwnhb[VZ]bjnhb^^^_`^YUPSSKHMPW`fhe\UQSU[[Y\diovrg][[\_a`bfeeb_USUZ]eou{|wl^UZ`fjka>?BFIJHC<61-+-28>EP]behffmqmidbcdc^OFHHHOW`mywof[TX^bc]WQOQY_cddefge`WONPS[dnrvvslhjqxwsg\TW\`bda`cc\RHHMXi{ÅÇÉzj^ZXX^ca__^]ZUOOUX]^^[[^gntvl_RD:<IZfmssonomjjntxuph^RMSVW`jlmqtpied^WQKHKQ[cgca]XXXWVW^grzvu{wtxrfdaaa_]\`hnqsqlkgffgfgihhhlmmmkeabdejkhfd^]][\_`^a_ZUUPRXZYZZYY]bcff`YUPPX_eossqqllopmmljhfec^Y_fgltropty{~ÑÄ|wsmosy~Ä{qjg]XTMEEJPYajospnhdafkprrjc_\Z\[XY\\__][[]`cdb][[WX[_b_VJ?:=DSbipw|xtrohebYSNNUcnv}zsokkoruuuvwwxyxvpe\VQQW\bjnkheecdeb\WPPPKJPT[chje\TOPTZZX[adjqlb[YWX\`beihifd\XX[^fpv{{vl_X^chmnf@AEHJKHA82.+)+.5=GU`b`_]`kspkfddefbTLLJGLT]jtqkbWRY_cc^XTSV]abaabb_\XROQUY]dkptvqkhlrvqiYOGOX^bfa]aa]VOPT^n}ÄÅ{oieb_aa^\]]_^YSRWY]]YVVXbkrtj\M=49HYgouuroniedgloje`WMLTVYenonookc_\UKFB@GPYbhfgc_]ZURPV_lvvv{vqsl_\[]_acejrvxwslieegiijkjhhkmlkhb_`bdggdba\]^[\``\`_XVXSTZZY\^_aeihiiaZUQQX_fpssqrmlmpnmlifda`\[agiourmmnru{ÇÅ}zvqsvz|zskfd\WTKDIPV^fkmnljhijqturne`][Z[ZX[^`a`[XUY^`ca]ZZTVY\^_XMD?>FVenv{ytqlda[QKEFN\fpwxtoifhmnqrsuz{zxsme\VSQSX\agllkjiggfd]YQOMJKQV^ejke\SNNSWWTV[^cjg_YWUUX\_ejjljha][^ahqvywrj`\afkpoiDEHKLJF?72/,*,/5=JW__\UT[gqtrmnjhfbTNNJGKT_lspi^USY_ca]ZW[`dfea__\WTRPSX]^_eilrsmhhlpph\JA>JW^cg_X[\[ZY[_gtÄ~|{vomjhdb`]ZZZ\]XSTY[^\WRSU_iptl^PA7<L]irxwtokd][`ehc_^WNPWUXemmlkif_YUMB=;:DOXaiiifb]UMHFMYgswx{wsska\[_beinsz}}xskgcdfhijkjhilmkjg`]^`aa`_^_]^`]]a_Z_^XZ]XY```bdehjlkkjc[VSTZ`gpqqonihimnmkhda\YWX_gjnrnijkorx}{xtuwzzumfba\WSKFMT[aefgggilorxyvpia\XVUWVWZ_a`]YSPU[^bb][[TTW[[_[RIECIXhq{ÄÄzsoia\VKE?AJV_jrspmgbeijmnptyywqjd_XTSRSW[_eilmmlhgfc^ZROMJJPW^ekle[TMMRVURRUX]dc]YWUSUX]djkmljda]_ckrtupkfbaejorqmHIKLKHD?97753346?LW[ZUNMWcnuxvxupjcTNLHHNXequqi]TSX]a_][Z_ehhe`\ZUPNOQX_a^_dflstoklpqmdWFAAMZbef]STUVZ_dgnyÅ~{ytonkkgc^\WWWZ[XTV[]`^WRSU^iptpdWI>AP]hqvutog_XSX_c^Z\WOS[WZdkkkjhf_WQH;658CPYbjkie^VLECDN\jty{|{xumd^[_cfnsx}Ä~xqidaceikllkhijjigc^ZZZYXVWX\]_b`_b_Z^\W\`[^fcdfhilnonllf_ZYY[_fnopnkfeglmkjgb^YTTW_fhkkfcffknty|xvurquxuoha``ZVRJGPX[]_`aehmsx|Ä~umd]XVRPQQRX^a_[UOJOTY_c_^]STXZZ^[TMKKQ_mv~Å}uojd]XRHB=AJU\hoomkeabffiknquroica_[XVSSUX[ahkmomhfda]ZSOMJINU]dkme\UMLQTROORU[cc^XVSPPSYahiljga_\^dlqqojecdfiottqnKLLKIEA?>AEEC@<;BLTWWRMOZdqy~~ÑÄxpfUKJIKS^jtwvl`WSSX[\[[[bghhf^XTOKMQV^cedfjmsxwqoprpkbUHFIR_gih^QNNQYcjnt|Å}xupnmjjf_[[VUUXXVSW[]`^WQUW_jqtqg\PDFS^gqusrkcZQLQX]ZX[YRV^[\djjjjhhcZPF834:FS[bjkhcZPGEGJTaku{~}~}yqib]_dhpw|ÅÑÅxpga^behkkljhggfeb^YUUTSPOOSY\`caadc^b_Zae`djgghikoqsrpnha^^]\_fnppnicbejkhge`\WSTX`fhigb`bbgjnrvpnonmsvpjd_``YTPJIRXVTVY^ekqw}ÇÜÄtj_XVUONLMNU\_\WQJEJPV^caa_TUY[Y]YSMNRZfszwngc^XTRHDBFMV[glllmgbceegijkmkjfccb^ZVPNNRV^fkmmkecba][UQOLKNU[bikd]VNKPSQMLPTYbb]WUQONQV^fikhc][X\dkonkfaaehjquqkgOPPNIDBCFMQRNIBAEKORTRRXdju|ÄÇáÉxnaPGGJOXcnwzwmaVQQVYZZYZbfffbXPLJJQYainppqstvyvqpppniaUKLOV`ijg]NGFLXdnsx~Å{tqkjhedaYXYURSUUTRU[^aa[TWZ`irttlbVKIT_gpsrpi`XOIMRWXW[\XZ`__diiiihif^RH:58@KW]bikfc\TNOPRZgoxÄÇ}Å}upg^^chow}ÉáÇyoe^\`dgihgfdcba^]YURQPNJGFMUZ^a``egdgb^ce`dhfiknqtuvtqmhb``][_emppmha`diiefe`[VSSX`fhfa]\\]cehmrljjjioqke_\__YTQLMTVRORW`hnsy~ÖâÇtj_YYXRPKJKRY]YTNGAFMT^dbd`SUZ\Y[UOIOWalw|}zpha^YUTTNKMQTZ]gjknqjhhgfggghjhgecc`[UOFCCHOYdjkkiba__\\WTRPNPTY`fhc]VPNSUSNKNSX`a[TSOMMPT[bdfd`ZYVZaikljfaafjjqupif\\[XQLKLOW]]XQIFGIJLPPXeruz}~ÉÄthZICFKT_irz}zocXQRX[\[XYaghf_QIHKQ]hnsvursttuwspqtsrnf]UTUX`gie]NDDJYfrwz~Äyqmffa__]VXZUSSTSQPT[`egdZ[]`eosvpg\PKT]eoqpoh_WMGJOSWY[`_^bcbdggfffiicWL>8<EO\_bfhdeb]Z]]^dls|ÉÖÄÇÖÉ{vla^bgov|ÉàÉynd\[_defccb__][ZYUSPOMJE@?GQY\```chghb_dc_cfegjmptvxuqkfaaa^\afosqmg`_dgfbbb]YWTSX`ffb]XXY[accgnkgjkjmnia[Y^\XTROPTTNJOWakqu{}ÉÜÄtka^^\VSLIIQW[WSLD>AHQ\cef`SUZ\XXOHCLYfpy{xsjc^\WSTXUU[^]^ahjmrtonliggfeffddb__[UNG=:;DMWcjjiha__^[[XUSROPRT[bc`]WRSXZXQKLQW_`[SQMLMQTZ_`ba_YWTW^efhhgcchjjptojfjifd\WWWY`ff`WNIHGGINR_o}}~}{y|zodUGCHOZdlt}{rfYRV]__\XX`ggbXKEIR^muxyxspqrqstqptvvwunhc_^\aegd^PFGP_kwywz{umjcc]\[ZSVYVTSTSOMRYagnocaa`alrvrj`SKRZbmpooi_XOHKNQUXY_a`adabcdbddgjg]PC=AJTaddfhegfbaddfkpt|ÑÖÄÉÜÑ~zpc_bgov|ÑâÑzncZZ^cdda`^\[YWVUSPMLIGB>>GQZ\^^_bhjjb_ba^bcacehlsvxwrjgbba__cgqupjf^^dfc_^]ZWWUTY`cc_YVWXYadadlhdiljkjd\WW]\XURPPRQKHPZeovx{}ÄÅ|sjdeca\WNJIQVYVRKC=>EQZbdf]SW[ZVTI@<IYgrywqkb^Z[USV\]ajkebejjpwxsurnkidbba_][Z[YTMF;7:DNXdkhge`\]\ZYWUTSQRQPV]`aa]ZZ^][QJKPV^_ZQNLNPTWZ]^`__XVSTX__aegedihhmrnieljhga^_`bfhf`WPKHFGKS\l}ÜÉÄ{vrsqh^RHFMU_hnv}{rfXSY`aa_YZcjibYOMT`my}~|wsqqpoqqnmqrrssnjfba^`cec`UNQ\js|zuuvphe^_\\ZYSVYWUTTRMIMV^grviec^]hpvskaUMRZblpppj`XPJMPTX[Zadb_b_^_`]_adgi`TICGOXdhefifgecceddginwÄÅ~ÄÇÅ}shedhov{ÑàÑznc\\_cb`\[ZYXWUTRQNKJHGDABJT\]\[\_fkib_`^^bbacehltwyzwniedabdhirtmgbZY``_\ZYWVWWUY_b`]XUVWYbfacieahmjhf^WSW\[XVSPPPLHHS`mv|{|{{yvpihkhd`ZPLLQUWVQJB=>EQZ`de\TW[YUQE;8EVfqxskf^ZYZWW\eiowulfhjlv~}y{vqmhb^\[ZWWWYXTNG<7:EQ\fliec^ZZ[YXWVUTSTQNS[^bea`adc_SIIOU\^ZPMMQTX[[\\_^^YUQQSZZ[bfedifehmifbjhgfa`dgiihbZRMJGGIOZfwÖãÖxrlkiaWPKKRYahow~zpcWS[bded]]eljfaZYbmwÑÇ~ztmkjhhjhhkjjkkigc_^\^`ba^VRYdrw}wqprkfc\]]\YZUWZYVSQOHDIT\hvzlfbZYdmuvmcWOQYblpqrmbYSNPUZ_cbhmicea_`a^^acdfbWNJOV\gligkgeedccb``bir|~||~{zzskhfhpu{ÑáÇync^^aca]YVVWWWVSROKIHFFEDFNV]]ZZ[\che][[Y[`aaehlry{zzwoligddgiiqqhb]UU]__\XUTTWWVY^`^\VSTW[eicdgc`hljeb[SQUYYWVRPPMJGKXes{Ä~~{vqoljoupid^TQRUVVUPHA>?FSZade[VZ]ZWTI@?LZfptnga[Z^a`dioryzpijkp{ÉÇyrkd]XWWWWXWXWTOI@=@JYelqld`\WWXXWVVUSRSOLR[_eigghihbTHHNT[^ZQOQUY\^\YY]]]XTPNPUUU]aaafdceiec_db``^`eikkhaYRMIHKPWbo|ÖàÇ{upjgf_WSRSY_elt{ÇÇ~rdXU\dhii`_gnomjffnv~ÑáÇ}vnecbabfeffffhiifc_^]_^``\WXalw{|tnnoifc]^`_[\YY[[VQMKDAHT[hx{me^US^hqtmcZQQXbkopqncYTQSZaeigknlefb`bd``cbacbZROV\blsnkmgaa`\ZZWWYajtxxwxsqrnihfhou|ÖÜÄwmc^_bb^ZVSSVWXVSQMGFFCEFFKRX__ZZZZ`fcZWWTX^bcgjkotvtusmljigghjiomd^XPR[_a^ZUSUWWVY\^\ZTRTW]gjdba]ZcjhdaYQPUXWUROKLJGFMZgt~ÇÄÄ|rjggjtztke`YX[\ZVTNE??@GT[`edZX\^ZVTMFJXcjpphb]Y]dilquwy}Åzpjlkr}Ç~xqh_VSRSVZ\[ZXSOKFDHScouwqga]WUVVUTUTRQRMKS\binkllkh`RGGMT[_[QPTY\__[WV[[\XTOLLQQQY^__edcbfa^ZUSRTW]elonle_XSNNSZepzÇÜÉ{tpkdba\VVY[^djpw}ÇÑÇvh\W\bfhh_^enrtttuy~ÉÖÖÄ{tnfda_`ddddcccegfdcbaa_``\Y^gpxzvnjlmigd^`da]]ZYZYSMGE@>HTZhxxle[PPYbkqlcZSQXakooqoe\WTT[cegefhhdedbdfbacb_`a\VT]dirysonf]\\VSSNKMV`lstrpjfijggegls|ÖÖuka\]`_\XUQRVYZXUQJDCDCGIKPUY``YY[[`ebZWVSW_bejklostrqniijjjkjhhkf^XQINW_da\VSTVVXY\^]ZSQSW_ikea\UT^eda^VOPUWUQMIEGFEFO\jwÅÉÇÄxla^_gsysib^\^bb]UQJA<?AJV]afcZY]^YURLHQ`inrmd_\\dnuz~}{~~vnlnls{|{{ztmbXQNNPV[^][WQNMKJQ]ny|}vha^YTUUSSTTQQQNOXagmonnmie\NDFMRY]YQQW\`a_XSRWZ[YUPJINMNU[]_eecab]YVGHJNU^fmqpmieb_\]`hs|Öâávplg`\YUSW^adiosy}ÄÉÑ{od^_cfhg__emsx|ÄÅÉÖÑÉ~ysogedaaddb_\[\^bcbbaabbdd_\binuunhglomkhabfb__][ZXPH@?=?JV[iwumi]PPUZbkiaZTQWakoopoh_ZURU]bdedeecdedegdbca^_a_\\djnsyrnld\^_\YVKCBKVclnkha]_eedehjq|ÜÑ~si_Z[^]YWTQQVYZXVQHCBCCIMQV[\``ZZ\]afc[YWSW^adkmosvvsmgbbegikheef`ZUMGLU`hga[VUUVZ[^a_ZTPRX`jlgaZRR[ddb_VNOTVRNKHDGGEGR_m{ÉÑÇtg]WXepwsja]^bge_TLD=9>BLW^bgaZX[[WSPLJWfptulc_`cn|ÉáâáÄ{zyrnoqntyxxyvpg\SPOQT[adb]VOMOPS\hzÉÑÅzjb`ZTSSRRSSQRRSV_eiljjjifcXLCFLSY^ZSTZ]ba^VSPUZ][XRIGLLMTXZ^ddc_^YVSIKOT[dkprpmljjjhimt}ÉÜÖwpmjf`ZTRSX`fhlrtw{~ÅÖvmedgfff^^emt{ÇÇÅÅÇÄ~xrmjegiedea^ZVWX[_a``_`cfjjdadghmmfdflonlhcbgc__]ZXULD;;=DPY_kvtqobTPQSZef_XTQT_jnmnmha[TNMRY]`aacdeeffhfddb^`ddbdjosvxqmkd]bedc`RECGQ^hifb]WW`c`dklqÜÉ{odZUW[ZXWTPPTWXXVQHBABDLSX^`_`^ZZ^_ced]\XWZ`bflnqvxxrg\XZ^dikfcbc]XSKFLUakke_XUSUY[]a^YSPSYbikf_XQPZdfdaXOPTUQMKJHKKJMVbo{ÄÅÄzncZSUeowvoc__ejhaTH@:8=DOX^bg_WVXXTQOMP^mvxwleegn}àçéãÖ|vtsoptvruusuwrkbWRSVZ^dikhaYPNORYftÖåâÅykdc^TQQOOOPNPSX]eiijhikje`TIDHOUZ^YTW\^bb]WVSW]`]YRHFKJLQTV[bcc`^YWTRTX\bjpstonmorttvx|ÅÅ|uoljhd_XQQT[cikotuwz~ÅÖÅyofeheed^_gpx}Ä}~~|xphda_ekjihb\WUWWY]_^`_afkqrlggdehiddgmpolidchc_^\XVSJD=>CMW_epvvutgYQNMR\c^XUST_jnlkjgb[RIEFLQSTTY\`cdccbaba^_deegmquwvojfb^bfhih[MIIOZdea]YSQY`^dnptÄÜÇyl_UQSVWWUROMQTVXXQHCAAEOW^de`_\XX]_cdd``[[^ccimorwxwpcUPRX`gkgcaa\WRKGJR^imic\WSVYZ\_[WQOTZ`hjd]WONXdggdZQPTURNMMMQRTV\epy~}vjaXPQ`juxrga_djibVH>98<EPY^ae\TRRRPNMMQ_nvxumkmrzÜäãàÇ{uqnnmqvxsrolproh_VUY_cgjkmkd[TPOR[j{äèâ~vlgfcXQQNMLMLNT\chhfdbgjkg_SIDHOUY\XTV[^ba]Z[Y\ce`[SHFJIJOQS[bdfeb_^ZZ[]_elrvunmnrx~}~||}zurkgfea_[UOPU\cijmqqptw{~{ukbcebaa]blt{~~~|zzxsqkc_^\dkkkhaYUSUSTWXW[\^dlstoif``debdglnnljfdfc_][WUSMIFIOZaejsvwxvk_UOJKT_^XUVV^jnjgec`ZPF>;?CFHJPW]aa^^]\^_^`eiilrtvuske`^\`chlmcXSOPW``\YWPLRZ]fqvzÇÖÅwhYQNQUWWUQMKNPTXYQIEBBKW_gljb^YWW\_dcb`a\_chfkooryywoaSMMU^dihcaa]XSMHIOZdjhc^XRUXY[]YUPOTZ^ef`YUNMVbgge[RPSSPNNOQVXY\ahrx{|yqf_UKN[cqzujd_`ffaWJ?;;?FRY]adZSPONNNMNR^jqtqmns|ÑâàÖ~wrnkijlsxyspljproi_XZafkmmhjjd]YROR]nåéÖxoljkh]SQMJHJJOWahigc^^ehjh`SIEHNSVYUTW\`ca^^_`ciiaZRIFJIIKLOW`cffcaa_YZ\^ekqusllnt{ÇÉÅ|yuojf]Z\]Z[YUPSY_dhijlkjnsuwuoe]`c`bedjsy{|zyzwtokie`_^]emlmiaZVRQNLMMNRTYbluxsle^]abbegjmkkifceb^\[YXXVTSW\cgimttwxvndXOHEMZ]YVXX^inidb`^YPD:57<ADFMU\^^\ZYZ^_]_dhkotturogc^[Z\^binha`YTV\ZVUUNIKRZer{~ÉÑ~rcUNMPSUTQNKHKMRX[RKHEFP]gotpg_XWY\_db^^`\aimjoqorzyvoaTPOU\`ddbbb`]XRLKMT]fgc_ZTUVWXZUTQRVY[a`\XWPMUafhh^TQSTRRRSTXYZ\ahrxzzwmd]RHLX_o|yohb_bdb[PE@@BHRX[`aYSPMMNOQSZcimmkkpxÅÑÑ~xrnmlkilnuzztqkjpqoj`Z_gkppldefb^[VPSbtÉéçÅriijlkbVQLGEHKQ[dhgb]X\chkjcWMHJNSVXTUW]ac`_`dhlpmbXOHFJJHHIKT]aeebaa`SSUW_elpqlnqx}Å}vsmf`YOOTXZ^^YTW[`bddfhhilpqnjdZV[acgmmt{}||xvvsnfaa`^bcbjpnnjc\XTQJEDEHNQXcmvzumd[[_aceggheeedcfd]YXWVZ]^_dhllnrurttokeXPICIW]YX[[^img`\ZYVPF<67<CHKNU[]ZYVUV\][[_bglrttsngb]YWWWZdmlkog]Z\WTSSMFDJT`n{ÄÇÅyl_SNOQRSQMKHFIKQZ\SNKIKVblrvsi_XUVY[a`Z[^[`lpnrsoqzwumaWSSX\]_``bcb_[TNJKOWbfdb^VSSSTUTVWY[[Y[ZYXXROU_ehiaXTVXXWVUUXYZ[^epuyyujbZNFMW^m{yokf`aee`WMFEELTY[`_YUSONNQU\dlmlljlt}ÅÇ~tlhfhkkilnu{{vrmknnli`]cjlolf]]__\[VQWgxáéâ|mcejmoh\TMGDHMT]eeb]XX_gloog]SMMPTXYVWY]bc`^`djpsodXOIFIJGHJNV_bedaa`^KIJMU^flnlqv~ÅÇ}uohaZRIKRX^dd^YY[]^]^acgjlpoid\POX_fnuw~ÉÄ|ytqspjb[\]_cggmqnmid^[VPGB@BHMQZckswrib[[_acefed_`aabefa[XYX\bfinqrppssoolgge[RKBET]ZZ^^`hlf]WTTSPH?:;AJPQOSXZWWVRSY\YWXZ^elpsrmfa[WUTST]hmqwrg`^WRPPKE@CMYgw~ug[ROPRRQMIIFEHKQZ\TPOPS]gnqsqj`YUUVX]]VWZY]kpnstorzvtnd]ZWXXVWY]acca]VPKJKTbiggcYSQPPRTX]`_[VUTVXYTQU]cgjcZUW[\]\YVWVVX[cmtxxrh`WMHQ[`jvtnljdbefd\SKIIPWZ\`\WTQLKMSYblqonlknuy|yqgb``gjljlkrxzxvqoommlfdhkigb[TSWZWWTQYj{àåÖykbekmqmbWOHFLRY`c`\WUW_gkopibZQOPUYZWXX\cd_[^ahnspeXQJEGHFINS\ccca]]\[DACHQ\dkmmt{ÇÉÇ}zpjd^VOHKS[chg`ZYYYWVZ_ekopsphbYOOY`ku~ÅÜÜÄxronqrlcZY[`flmppljfa]ZTNGBBGMPT]djpsme_\^begfecaZY[^_cgc^\^_cgkmopqprutnlgbeh_UMDDQ]]^abahjd\UPNONIC?AHRXWRQUWUVVRRX\XVUTW]djnolfa[VSPOOXckr{xnd_WPNMJGBBLVbs~~{rdZUSTSRNIHHEFIKPZ[USUW\dlppqoi`ZVVUW[]VVYY[jonstmpxtsphc`[XTOOSY_bcb^WQLKJTdmnqla[XUUWZ`gid\TOMSX[WUW]chkc[VW\_ba]WVSQRW_jrxvogaYQNW_agoomooibcfda\URQW\]]_ZVTQKKNT\enqnmllmpssnhb__bhllklkrx{||xwwuvwrnnke^XRLKPUTSQS]oääÅvjdgmnqoeZQKJQY`b`[VRSWagilnid`XUUZ^^[[Z]cc^YZ]cjqodYRJCEFFKRW_ca^ZUUTT==AJT^eilov}ÉÇ~ywlfa[SMKPZbkmiaYVUROOU]fpvwyrgbYQU^dq|ÉÖÖÄxpklnswrh]XV[bikoolkf`[WPKEBDKQSW_ekqrjb^]bgjkiea\TRTW[`edaaefhikkjkmnrxvqlfaejeZUMJT``bdfdhic[TNLLMLHFHNX_\UQRUTVWSRW\WUQMNRX_eiifa\VRONNU_irzzrhaYRMKKJHGOWao{}zqg`][YURLHHHEGIKPWXUW[^cgknlmmh_YUUTUX[VX[Y[hmlsrlpwttslgc\UNHHMU\```^XRNLKVgquxqe^ZXY]cjrtmcYROU\^[Y\_ejle]XZ`diic\ZUPQV]fousmhd\UU]abeffhmpldceggc]XV[^^^`XUUQLNRW_horppqpnnniea^]`dillllkry}Å~}|~ztpicYRLHEJPPOQWctÖçäujdeggjic[URRX_ca[TMKOWaijnnjhg`]]cffcb_`cb\VUY^fppe[SG@ADHQX]cc_\ZUUUT=@GOW^dhlqx}ÇÅ{xvjb^XPNQZdnuri`UOMKHKS]ju{{|shbZU[civ}Ä~{smhgjpuxsj]URU[afkmllf_XRJHDDHPTUX`fmqpg`\^eillhc_YPMNQW]dfeejllhhgcdjntyxsnifjokb^YUZceehighgaYSLHILOMMQU]c_VPOQSUXTSW]YUOIGINV]bee`\VRMMOU^irz{xph`XPKKKMNV]epy|yqkfd`]YVOMKHDGHJOVVW\behhghfgki`[UQPQUZXY[YZfijrqlqxutslfaYPHDEKT\``_\YSONN[kw}tg`[Z\bkszzrh`XTX^^\]bdjnne^Y\ciooib_ZUUY_elrojhg`\_ccdd_]bknmhedhhgb^[bccde^[[XSUZ]cjmppqttpmic_^^^behiiiklry~ÇÑÑÇÄÄÉÇÄ}wnfZPJFBFKLLP[ixáãÑypeaaa_ab_[YWX\a`[TMFGLWbjlonkjidcejmmkiedfc\TSUYanog]TD=>CJV]aeb\ZZWX[[DGMUY^dintz{~|wtth_\VOR[emvwnaXMHFECIS^mx}Äukf^Z_eiswurlc``bjruwsj^UPQUZ^ehhhd]TOGECGLSUTX`foroe_\ahlomga]VOLJMTY`fjkrusjgc^`hmtxurmihlqqkie_`fghijiggb]YRMLOQRSTTX][TPOQSTWUVY`^YQJEEGOV\ac_[VRMLNS]hrx{ytng`XSQSXZagntz|ysnjhc`^[TRNHDFGIMSTW`gkmjec`cjmgb[SNPSYY[[Z\fgiqolt{wvsjd^TLGDFMW^bb_[XTPOR`ozÉÜzme^Y[cku{yqia[Y\aa`dikopmd]Z\biqrmhe_YZ^aekmjhjkgeghddbYV^gmnkgegjjhddhggge`^^\Z]bdfijlmoqplgd_\[\`ekoqqpqsvzÇÖÜÖÉÉÖÑÑÇ}uoe[SNIIKMNS`n{áÜ{qi`^^ZVWXWWXZ\^`[UMG@DJT`jlomjhhdfjqrpolfegbZRRTXanne]Q@:=DOZ__`\VVZY\`bILRY[`glqx{yzxrpnb[WRPXdnuyrbWOHGGEDKUaoy~Åumf][^cgnojbZRUZalsuvsj`XRRTUX_cccb[SNHEDINSSRV_grvqicaflopld_[UOJGIPT[agktyxmg_[^fmtvspjffimqnpnjhjjjjkjijihg^VSRTUVUQPTUTSRTUSUWZ_febXOHEDLSW^b^ZWRMMQXbluxxtpkie`[WZ`cjquw|{ysoljedca[YRIBDEFJORWbhllg`^_dovrkbXOOSWY\\[_fehonmv|xvqf^WOIHHJR[add`\YURSWfr}Üâ~ri_Z[clvzxqib_]_ddejnpsrlc[X[_enolihc^^acdhhdflpmkkg__[RQYenpnjffjlkhhifggd__`_afjihgfhjjjieaa_]^cipuxwustuvy|}ÄÖÑÉÑÑÄ~|xrpkd^ZWVVXX]ht~ÜÅukb\[ZTPQRTWZ\]]^VNHB=CJUbmoplgcbbgnuvsqnhfgbXQRUXanog^Q@:?HT]_[YTQRZ\_egINV\^cimsz|xxupolaZVRS^ktwuiXPLJKKHGMVbnw{}zrib[Y^adhcZRLIPZdntvvqjc[VTSQRX^`dfaZVOIFIMPPQX`jtxrlhfknolh_[YSMIDELOTZafpwwoh`]_glrqnlgdceinorrollmnmlllnosrg^YTTVVSMIMRUWWWUQRW\cknkcZRKIOSV\a]YVTQPU\fowyvokgfgfb^_fipwzz}|ytqokfffd`]TIABCBFJPWbhmjd\\_huzqfXLLQTWZZZafdgmlny~{wnbXQKGHLNT]befb]YVTV\ku~Üá{pdXRT^htwuphcb``eeglpsuqjbYW[^clmjiie``dedfd`cjpnllf\[VLLS`kookfeegggghfggb_`acjopnjgfgihgda_abehmswyzvsrsssvxx|ÇÄ}ztroommkhca```cejr{ÇÖ|pg^XXVQNQSW[]]]ZYQID@<EMYgssrjc\Z^foxxtqnhff`WQSVZbmni`TE@EOX\\UPMMPZ]afhLRW\_djpx~}xwtonjb\XV[fputo`QLLMOOJJOWbmtv{yqjbXVZ\^^XOJHIR^gmrurnjd]YWTRSY_bglib_XQMNOQRU]fnwxsnlkonlgaYWVRMICBHKOU\blsvrmgdekmolheb``adilpomihjnoprtwz{od\TRSSOIFLV]aa]VQQX^fosrjbYSNTXY[`[WUTSSW`jqxzumhccgkiegkmqy{{}|yursmjkjec]SH@ABAEIPYcjnjc\]cn~áÄtgVIKQSVYZ[cgehllp{{vj]SLFFHNPU]cdfc]YVTW`oxÅáá}seWOPYdopnjb]_aaghknpstohbYX]^`hjihid_`cddea^bhnmnldZXQIKR\iqolic_adfhiiig`_`bfossojfffeeccehkmoorvyyytpoqpoqttyzvpifdfghhgbaaabfjowÖÜ|sngcdb\[^_befdc^ZPIC@>GO[jttoe[RQYdpyxpkicce`VRTWZakmjd[NIMTZ[XOIHJNW[\``MRW\`fmt{~{vrolkhec_afnsvtl^TSUWXVPNPVajptzyskbWRTUXVQKJINWafjnomljd`][ZZ\bghlpohe`XQQRUX]fmrxytrpoqokd]VUURMHB@EGKPW]gnqqokklnlkfa\ZXXZ]chljjfcejkmsx|ÇâÑui]QMNMJFEO\hmkcWOOW`gpwwrkbYSY]]^aZVVWWW]gou|}uhb]]bkmmqsrswwy||yutwqoqldb[QHABB@BFOXckplfacjvÇàqcTJMQSVZZ^fhfgjjq|Ä|ugYNGCEHNPTZaadb]XVTXbryÇÜÜ}ugZPOV_jjhc\X]adillllmnjgd\Z^\\dhhiie``cdcc_]`eklnmcYULFKPXenmjjd]^bdgiiid\XY\clqqlgdffghijosstusuxyyxtmklifgknt||umd]XY[_cebaabdiot{ÉÉ|wtpnomggjklnlhfc`VOIDBIQ^lusj]QHKWer{wleb^_b_VTUX\aikkh_VRUX[YUJDFJMUWVVUKPV]cksx{{uoligfeddcgnstvsld_behhcYTSU_hmrxxrj`UNNPSQNLLMT]behkkkkjfcdeefhloptwvplf]UUV[`gptx}~zyvtrmh_WRRSQKF@?CFKPV]ejmnmlmmnkgb^XVUTUY`eighd`bffjqx~ÜãÉsfWKHIFECFSdputi[QPW_fowywrj`Y^bbbc[WVYZ\cnw|ÇÅvg^WU[fknssqrsqtxxwvx}uutkbbYOHAAA?AFQZclpmhgks|ÇÅuh^WSWYXXY[`ffffgis|{seXMEACFLNQV\\``]WVUZds{ÉÇÅyse\SQV_feb^XV\bcikifghhfgd[Y\YY_fgiiga`cdcb^\^bgjmkaXQGDKPT_hjhkg_\_abegid\XXZajnlgcejnqsrrtvuuwvxywroha^_][_ejs|Ä}wmdYQOPV[^\\[]bipv{}Åzutqsuurrtsqolhgff`YRLINVaotpcTHBIWhv|uj`\[^a`XWVW[`ehlkd^\[[[VQHBGKOTTQNLJPW_hpwzzungecbaa`abiptssmfbdhnqpi_YUV`gjpwwslbWONNQONNPSZ`dfgijjjjhilpstuxyz~Äyri`YWZahowy|Ä{ytqmhbYQNNONID><@EJQY_dghklnopnjd`]WUUVX]cjkihc]]``ent{ÉÖyl_NDCCADEL[lw{zn^UQT[bkuwxvof_bdccc[VVY[^fqx~ÇÇyk`XSW`hlssqoplqtutyÖ~|xj``XNGA@@>AIT\emomlns{ÇÇyj^WW[`a^\Z]cfddbbgs|{sf[RJFGFJKLOUUY\[VTUYdr{ÑÄ}wsf_WUY`eb[XTU\cbfgdaddcceb[X\XX]egjihbaabba^[\_cgkj`WNDBJOQW_bcijb\^^`cgie_\]`flonkjptuvussvwvuvtsroie`ZXYWTYagqz}xog[RNNSWYTQLOT\gpw|Ä}wspoquwwxwvrnkjjkmic]WTV\fnpk[LB@IZlz{sgZUW\ab\[XW[adejkfdc_ZWPKEBHMQSQMLKOU\emu||xph`___^]\\aipqolf`_bfknmf`]YZbgfkruqmdXNLLNNPSVY^bdcbddefhimt|ÇÜáàáááÑÅxqha[]aipv{|~ÇÄ{vpjfa\SKJKLJHD??CGMV\adeejnrstnga^[VTTX\aiqronf\VWV^ipxÄ~qeXGAA@@FISdt}ÅscXSU[aiqrtsnf`bdbb`XTUZ]bjv|ÄÉÇ|oe]VU\djqqpmlhloqrzÑäÑÇ{jaaWMHB?@@ENX^ekmlnszÇÖÅtdXV[djhd_[_eeaa]\cqz}yqe\WROPONNLLPPSXYXWX\eq{ÜÇ~yugb\Y[ac_XVUX`ecegfdgebada[X[YX\ehkjida``a_\Z[]_eji_WMBAJNNQUZ_hkg_]\]`eifb`aflqutooqsssqrtwyvsqmlkjfeb]WVTPT]emv|zwpi^VQRWYXRKDDGNYeow}{wqnlortuvsqlghjjosoke`\]`hlkeVF?CM^q{vl`SNT\adba\[_eedikfee^VQJFDELQSSQOPSW\bjsz{tjc^`cc`]YZ`innic]X[`dhkkeba^_efadlpoleXNKKNORVZ\`cba__^`beiowÇäèêèåäàÇ|uld`]`gnuz}}ÄÉÅztle`\WMFEHGFIHDGLNRY]___^ejnqsle_ZWTRQW\bkvxurk^TPNU_gqzvj`SC?@?@INYhv|}rcYSUZ`gmmppnhcbc_^\URU[agp{ÄÅÇÄ{phbZTXahnnnlheilnq{ÜãÖÇyibbXLGA<>AGPY]beginu}ÉÑ}pbXXakpnha\`fc][UT`oz}ypd[WTTWXVSOLLLOTXYX[`itÄâÇ|xshfb^_a`]XWW]cebdgikokfbc]XTVWX[dhkkjfc`__]YXYZ[bhh_XNCAJKJIJOXbii`[XY^dhihhkptwvrlmnoooorstsokjjlmkgda[UTSNQZahputrniaZVX[\ZRJAABGTaku|vohb_adgijggb_aefntsqnidcejljbSD@GSctxocXLIPZaeffa_bhfbfgaaaYOICADGOSUSSQRTbdipx~wnfb`fjha[UT[cgf`WPLOUY^cfcdfcbecZ]fkkkh[QMMMOTZ]adedb_]]`belrxÇäçåâÖÑÅ|xrjcbcgmtz}}~ÅÉÄxph`ZVQGAACACIKHMRSV\^]\\\cilpsld_YUSPOU]dmz~{wn`UMJR\dowpe[NA?AADMU_mx{{xnaXRUZafjgikljhge^\WQNRXait}Ä}zwqje\UV^ejjjheeimoq{ÖáÅ~ufcdYLG@<>DLU[^^_`cku~ÑÉ{ncZ^isvslc^dhb\UMM\lx{ynbYVVY^b`ZSMIHJPUXX^ep{áçÇxsoghgdcba^[Z[bc`\`djpuqjdaYSNPUWZchjkkgc_]\ZWUWXY_de^YPEBIIGDBDPZbd_XUV[cimopswxxtpkkjkkhgjjiifdfilljea^ZSRRMPY^djlkjgea]\^_]YQG@??CP^iu}uld\XZ]`adbca`bhipvwwurnlkmmjcUHFNYgtreZOECKV_eijebdhd`bc_a`WLD==CIPUXVUSTSnoru|Ä}unghjnpmbZSQV]^\TJC?AFIOUXY`eeee_TV`gimmaVROLNV[`eijkhc^]^`dmsw~ÖàÑÅ}}ytqmgcfkpuz}}|}~~yqgaYTQMD???<AKNMSWVW\\ZZZZcjkotme`YSQOMS[cmy}xnbULIR[equncWLDDEFLU]gsyyuoeYROTZ`dd_`cgjkjg]XQMJOValw~~zvsvvrmcYW_fjjhdbejptwÄàÜ~zqddf[OIB=@HQZ]][Y[`jvÅÖÉ{od]`jrvsnfdghbZQIKZjwzxmaXX[ahmjaYPIFHLRWZaku}àä~rnkfikigdda][\`_[X^ckrwskd^VPLMUWY`fhkkhb]YXUSSUVX]cea\SIDHGEA;:FPX]\WTU\djptuvyxwtrpokfa\\`defcbdfghgcaa]USRKMTX[`cba``^]`c`\VLD??>CP^jw}vnf_ZZ\^`dfkklmonsxxwwvrqoomjeZRRYalsl]RH@@FR\djniffhc]^_\__VKA:<DKRWYWVUTSvwyzÄzsnimprsm`XRQVYXSIA=;>BDGLMP[cdc`WMOZdgnrg\WQLMU[bimoolga]]`ckruzÄ{vrsomliefmsz|ÄÄÄ~~~wne_UPOMDAB@<EPTU\^YYZXWXZ\djkmsmd_WPNNMRYbku}~xncVLJS\gstlaTJEHJNT\cluxtkbXNIKSY^_\UUZaimmkaYRMJOXeq{|uomsxxuk`\`hjjgc`dhmswÜÑ{xndfi^UQJFHPW\\ZVUYbm{ÑÖÄwkb^bjputqlljhaYOKP^lxzym^VX\dmsph`WOKJMT\_hpw|ÑÉwkhddinmjfeb^ZZ]]YX_eluxrib[TOLLUWY`fgkmjc]WSPOPTVX]bfc`XOHJFC?95>IQWZYX[ckpvwwwxvsqnnmf`\YZaffebbbddddaab^USQLLTVVYZXWWYY\cfb\SIB>>?FSany}vpke`__^^adilqsspuxwvusnmmnlkga^`fmuuj]RGBBGQ[dlolhee`Z[\[`aWLB;=EMUYZYWTQN{||{|uolinrqng[UTUYXSKB<:=AFFHIJO[aa^XNHLYdktxnb[SKLT[ckqrsqle^[]_foqtwwnhdeddggfjsyÄÄ}}|uld]RLLKDCDB?ITX[`^YVTSSUYZ^dfiome^VOLLKPV`hry|xncXNLU_ktsk_QJIMQW^djpusl`UKDBFQVXWSKJPZdlnmd\UPMRZgs|}wohhowzzqhbchihea^adhns{ÅÄxulehle`_ZXY\`a\XTT[ftÉàÖ|re^^cjrwxvusnh`WNNVbnxzwl^YZ^emqohd^WTQQW^ajqvzÄyl`\[`hpplfc^XRQUXVX`ejrunf_[VSQPVWZ_eekmjc\SOLLOTVX\`dec]UMJEA>73;FOV^abelsw{{||{upkggheb`]^dhgda`acdffcba[SQOKKQRPQRPOPSTZdgc]RH@>=AJXeqy{vqmidba_\]`elsvutxzywtpkiijiihffjotxsg[RKIJNV_gmmid__ZWXYX``WNF@AJQX]][WQJD~~}{{vnlkjopjc]TRUWXSKB:8:@DIIHHJPZ^^ZQHFKYfnw{re]TJJS[cntuwvqi_YZ\dnsuvsh`\]]ahikt|ÄÇÄ~}}Ä}|vmd\PIIIFFHFFOVY\\WRPNMOTYYZ`bdkmf_VOJIJOV`jry{yodZQPXbnsoh_RNQVYagknrsmdWJA=>COTTPLCAHS_imnhc[URV\hu|zsjcfox}~unfehifc^[\^agnuzzuqjgjnigfbbcefe^XTW`n~ãåÖ{oc^`ejrxyyyxrke]UW^fpxyvncacfloonige`]XW[`ckqstumaWSU]fnple`ZPIILSUZbfglnf^\\ZXWUXWZ_ddjljc[QKIJNTVY\_cfd_XPIC?<65>JT^hmnpty|~}}|ysrokmokfd``dfdb`acgfhjggf_VRNIINNMLMJIJORZdge^RG@=>EO[gqvwtqmjedc`\\^dltxvwyyywqlgddedegjptxzzrg]WQPPSY`hkie`[ZWVWVV^_YRMGHOW]a`\VOHC||{yxqllljlj`ZTPPVWTNE;79?EJNMLKMT\]\VMEFM[hpxzqe]UMLTZbmuwzzvk`YZ\erxz{ti`[Y\ckmr|ÅÅÄ}{y{ÇÄÅ}tj`QHFGGIKKMTX[\XPKIGIMSYWV[^agic[SMHFGKR\fouxxpf\UT[fopkd]SSX^bkqsrrmcZNC==>BMQMIF=:AKYdknmia[X[amx|wne_enx~Äxrjfhhdb]WUWX_jqvxuokilokjhedefge]WVZfuÖèçÇwnebfiipuxy}{rke\X_fktywtqjimprpmljjkjga_adeknmkjbXPNR\flplf^VJCAEOUZbffii`XW\^]]ZYVY\`agjicZPJIKQWY\^_dge`[RIB?=:?JV_jprtux{}|xxyxuwurtvpkgbabdccdfiljlollkdYRMHGLMLKMLJLPT[dec\QGA>@IT`krttqomjedc`\Z\`hqvuwyxwslf`]^^]_bhqx|{yqh`\WVTW\agiea\XXWWWSSY[WTQOPU\bc`[UNIGzzyxwqmkhed_VQLKOUTOIB<=ENUY\[YXZaedaZOILS_jrvulb\XTRW\aiptvvrh_Z[^hsxz{sib][ajqszÄzwtuw}ÉÜÑÑÄvl_PECBEILPTWY[YQIDDFJOUXTPV[]bd^VNJECDHMV`iotwqh`\Z`jolf^YTV\dirwxtnf[RH@?@@BLPKGE<6<ER^inqng`^ags||uj`[biqx{vrkfffba\UPQQXekquuonmmolkhfdddeb\WX`m}âéáynkhglnlnrvx|zrkd]]flovyustppsuwqlkkkopoigijillige^UONR]fknlf\RG?>CNU[bhghf]TV_cbb\WTWY\]bhgcZRKLOV[\]^]bfea^SIB?>@JXcltutvwxy|zvx|{y{xtuvpkfa_bdbdgikoopsqoldYQLIIOSTTVTSSV[`dd`YOGA?DNZforrqpomjea`\WSSW`kswyzwvqga\XXXWY]dmuxxune_\XWVY]`de_\YVWXWUQPUWVVWWWZ_ca]XRNMOxwxxxsmid^\XQMKLRVSLD?<ALU[_cba`cgjjhaYVX\emqqnf^]]\\_bdiprttoe^Z[^iqsttnheddjsyz}xpmlou~ÑàÜÜÅwj\ND><AFJQWXXXTKDADIPSVWPKQVZ]`[SKGBA@CHPXbhmrohca_fmng`XWW\dmpvywpi`UNHCDGDCKPLIG=47?KXdlqpibbfmw}yqf\Z`cjqsrqkghgba\RKMOXglqtrlmlmpnjeb^^afe`]`htÅäà}mffikqsonnruyvrlgbfottyzsrwuuvwxrmmlkorronnmllljhe^VQQU_hklje[RIB@DNU\cjjie]TXcigg_XSVWXY^dfe^WQRUY\\\\Z`eda^THA>>ESdpy}{uutsvzyvy}|||wvtmhc^]``^begkqprusqmeZSPOPX\^__\YY[_bdb]VNHDFKU_jopnnnmkjea_\XSUZbluz{zwund^XTSQPUZajrqnke^YVTTTX\^a_YXWVXYXSNMPSW[^]\]___\WRQQTvwxxxrje_YXVRQTX[[SH?<<DOW[_cddfjnopnidcegkmkhb[VZ^``cbbfknppld^\]`immlmhegjkr{Ä|peehoxÇÜááÖÄviYLB;9>DIQXXVUPIEEIOSTUUOKPTWZ\WQHEBBABFLQZbhnnjgffjmjaZRTX`isuxwrjbZROLLOPJFKPNNLA56;FS`jpqiddjrzztk`YZ^`eklmpnknmhe^SLMQ]lpuvrklkkmke]YUW_gifeir{ÉÜ~qb]ahnuvsokmpsrqponqyyvxyrryyvuvvpmolhkooooonmmmlif`XTUYahjjjf^VOGDEMU]djkid]V\flhe\VPQRQRXafhd^XXZZ[[[YX^dca^SG@<?L_r}ÑÇ{rppoqsrosvwz~{yytlf_Z[^^]`ehnrpoqpolf]XWX[bfhfe`\Y[_``^XQLIHMT\dlomlmljihd`^[XUX_hpw}{wtria\VRPMLT[cjqmgb_ZWTQQSVZ]]XSSUVY[YRKIKPX^cb_]]]_^ZTVXZuxyzxof_YUWXZ\^a`ZOE=<@HRX[_ceglprtusqopqqpmg`YSRZ_bcb\Z]cgklic_^_biifdcacipsxÇÑÄ~vf^afp{ÉÑÖÖÑvhYLA:6:AGOUUTSNJHHKPSSSTNJNRUYYUPGCCECCEGIPY`ikkkjknle\SMQW`kuwwtme`[WUTVZYPJKOPSSG869AM[hnmhcdluytkaWSVZZ_egjpporqlg`VPSYhsuyyqkkjikjf^XTXahlkjnx}Ä|pcXV\elrvvqlmoqrttttv}|wxyqqxvsrssnlokfgklnqsrqponkgc]YZ\bhighgc]VMHGKS]dijhc]W^hmhdYSNNNNOU`hkie`__][YXWW^ddb^QF?=EWk|áàtliihggdbgmqvywvwtmf_ZZ\\Z]bgmqoklllljdabefikkfd`][]aa]YRMJKMU\`fmmklnkhed`\[ZXUZbkrx|vpnja]YSQPMMV^eknh`\YVTRNNQSUXYSNPRTY[WRJGJPY`fd_[[[^a_[^ad{{zwqg^WTV\`cba`\SJC==CJQVY\acfkoprsrsuvxxsmg_WST\`bb^TQSX]beea^\\^ba]\\_clty|ÉÑÄzpa\afq|ÄÅÉÅ}tfYNE>;=CHNRSRROOMLLNONNPMJMPU[^ZVLEEHHHHGFKS[dilnmooi`VMJPXcmturmga`_\[Z\a_XQQUW\[N?98>HWekjgegovuk`UNOSWW\bejqsrusmg_VRV_nvv{yqmlighif`ZWZdlpqrx}~{qcWPPU^ekqurnortwyz{{|ÉÅyyyqqurnmmoljljdbefjotuvsrnkfc`^``ceecddd`ZRMKMT^ehjgb\W_imjg\VQPOPPVaimnkfca]YWVVV^eec_RF?>J`rÉåâ{pkggeb\YX_flrusrutmgc^\]]Z[agmqpkjijjjgehnqssof_ZYZ]ab^XPMLOU^cdfigglpmid_ZWWWWV\cmrvxngeaYYUONNKNX`hmne\VSRROKJNQRUUNJLORWYUQLJNT]djfa[[Z]acafko~}xpfZRQTZdhifb^VMGB<;>BFIKOTWZ_cfiklptuyxqjf_WSW]]]\UJHJNS[`dd`\YZ[[ZZ\`emuyzÄ|vmcbfiryyw}ÄymbZPKIIKNOPQQRSTQNIFDCDIJILNT]a^[QGGJLLLKHJPX`fkonpme\RJJQ[fptrlg`^bcbbcgkibZWZ^ddXH>:=FTbhhiimsunaSJFLRWY^beksuuxume\VUYdrvvzysqojfefda\Z]flquz~Ä{rdWNMNQW^bipqpsxz}ÅÅÄÄÖÉzyzqoplhffihgjhc_abflsuwvtplgebacbcedabab`[UQOPV`fiif`[W_inlj`\VTTSQWaiornie`YVUXYYagffcXOIIXm|âåÑumkhhg`UOMU]fnsqprrokhd`_\Z\biqutmighhhgfiqvxvocWPQTZ`b^WQPPT\cecaaacjqnid^XUVVWX_emrtrg`_ZUWRLKIHLWainkbYSPQSQKJNPRTTMIJLOVWUROLPU]bgd`\]^cjonrtuÇ|reXMKPXcoqnh`VNEA>:9;=?BEIMORW\adehlnorqkge]TPSVUSPF;:<AIU`gkga[YXZ\^adgkqtty{xrjegjjpsppx||~{toh_ZXTTSPOPRUXXSKA:89<DHILNU_db_XMKNONNKHGJS[bjoppkaWNIKS]gprngc]^dhijmrvrkc\_djlbQD<=DR_ehjlqtqgWIBDMV\`dfhlqrruri`WUW]iwvuzyvurkd``_^[Z]cgkrz|{tgVKHKNQTY[bimpv|ÇÑÉÉÅÄÉÄyxyrolgc``eeehgb]\\_fnruuvrnigdbbabcb``__^[USRRXbgihe^ZV_hnmkb]XVWWU[djpsnje^YWV[]\digiib\X\iwÅáÖznhkjig^NEBKUalqpnppqnkgdb_`bhpyzxohcceggfgkottodYQQV]deaXSQSX`ca^YZ\airojc\VSUVWZ`emssmc]ZVTVQJHFDJS]glhaYRPRTRMKMNPRSMJIILSUSSRNQTWZ__^\_chotuvxy~tgZMFJU`mxwodTF=756568:=BGJLNPSX]^_addeijhfe]TQTTQNG:1139EUdpuph_\Z]`abddejlmqsplffiihkkhkuz|ÅÇ~|wnjf`\XRRSVZ[VMB7137>FKKKMT_ffe_SOONMMIFCDLU^goqplcYPMQ[dmtqjca^cjoqswz|wpf_binqiXH@?GT`filorqj_QHFNXagkkjhhjjknlbXQSW`ozvvxwvvqkd_^^ZVTUX]bkuvpgYHABHLQTVV[bipzÇÖÖÑÄ}{|~wxwqnica^]cccggc][Y\ajnstutpkhdba```_\\[Z[YUUVVZdiifd^YWaioolb]YXZ][`fkorlje^[YY_cailjlokhglw}Äxnfdiihf]MC?GR^ionlmnqonlihfhkqx~|xlc]^cggecbdkppkbZY^cjje\VTW\bc`ZTTX]fooibZSPSVZ_eiotqjb]ZXXYTMIECHR\glg`YTQTXXTPOKKLOMLIHIOQSUVRRQRRVXZ[^bejqtuxzvj]SJHP]jw}wiXD60./01246;BGJMNNQTWZZ\^]^dghge[QPTQNI@4//3;J\mz~xmb\Z\_`aa^^cddgjgdbegdceeekty{ÅÖÑÑÅzvrke^WX\`a_VJ=305<CJONLMT_gghdXQPMJIGEBBJS]gquroh^UU[dmuwohdbahpsux{}|vnc\binrl[JCBKVahmostoe\QMR\fmqspjebacfjj`UPSWaqxtvxvxxqib[ZZVSQQV]ajspf]N?>BINRSVTX`hp}áâÜÅ|wux~}xxvpnic`^]bccfhf`\YZ\cioruutokfdba``_\ZZWVWSTVX\eijgfa\\fkpnkb]YZ]_^afjnoheb][\^dggopmptsrtz~}{tjc^_ehhibRGCIR^hmljikoopqppoqsx}Å~zoc]\`cb_[WYdnssmf`adkkga\Z]beb]VQRX^emnhb[SOQUZaglqtqjeba`aaZSNIEJR\gnic]YX[`b_\[VSRRQOJGFJNRTVSPMLKNQUX\_aejnprtf^WQLLVcpy{p^J9.+**+,-05;BHKMMNOPUXZ]_]^cfhe^SKJNLJE;326=HXjzÑÜ}pd\XZ\\ZYVUZ^_adb__dd_]]]bjsyzÑáàÜ{vpjd_`eigaUF:56=ELPSPMMT^efgf[SQLFECA??GR]hrwutof_bfltywnifefnsuw|ÅÉviZQXbhpm]NIGOYcjoqutlc[TW_jtyxxpg_ZZ]ahiaVSWZdrxtxzz{xoe]WWZWTSRV]ahng\SE;AHPVXVXV[ckr|ÜÖÄ{vpqy}yxtomga_^]bdegggc^[ZZ]cintvwsojfca___\\_\YYSQSV[ekkhhebdmproh`[WZ\^]adinmda_[[]`ehirrpsyxz~ÉÅzrfZXWZafgicVJGMWclnljhimnprststuy}{xod`aege`YQOZgpyxsjfekigddbdge]VPMQX^bikfb^XRRTY`gmrsojgfegjjd\UNIKS]hnlhb^_cilkhf^YWUTQLGDHLSVVQNHEBDFLRY]`cghiji\XTQMOZhsyufR@2+))())+/5;CHJLMLLOTWZ^^]aehicWLEFJKKG@>AHP\kyÑâà}obZWWXVSPMMRX[^aa__b_YUTX_iqvw|ÄÑÜÉ|vpkhfeinoi_QC:9=FPUVWRNQYbhghg^VSKDA?<;>FR_jsyyzwqknorwytkihhjrwx{ÄÖÖÅscSIP[bkk^RNNT\ekpsvqjc][clw~|wk`XRRX^eic[Z]`kuyv{}}}ymaYSSZ[YZ[]dfhh`TLC?GPX]\YYZ_fms{ÇÄ{vqmqz~{wtnjie```^bdefeed^ZZZZ_ejpuwurmhdb_^^[]cb_]UOOSYcjjhjhejqssph_YVYZ\\_agmja][XZ\`dgjuvtuyxx~Å{qgZQQSW]befaVKIP\goolihilnpqtututwz{wsja_bhlmiaVNR_kyÄÄulhkihhifhhdYQNNSZ_adfc`^XQPQV^fnsqmigefjnnlf_XRRX_hnmmiegjpssmi_XTTUTOJFFIRVTPLD?>@AGNTWWZ\^_baWTRPNR]jrtkZF6-)(('&'+38?FIIJJIJOTX]`_`ehii^QGBDJNPOKMSZbmxÇÜÜteZTRQPNLIGHLORX\_`a_ZROOT]hottx||tojghimsusj\MA:<CNX]\[UQV_gmjhf\TQJA=<:;?HUcmtz|~{wywuwxqijklpx{z}ÅÉÅ{m[JAFQ[dg_USTY`hmrtunidadowÄÑÅzrcYQKLT[djgbbdfowww|}}|wj]VRRY]^afionke\QKHIQY_`]Z\_ekquz}wqmkr{~ytnfdecadecfeddccc^\\][^chlsuusqmjfa][Y]fhdaXNLPWaiigiignutsog^XVXXXYZ]djg^XXW[^bdhnz{zyysrxwoh_SOOPTX]ceaYPNVbkrplihhhiknqtutqsvvrne\[_fmqoj`US]ixÉÖ{qijjjkolmmgZSQUZ`cb`ba_\UNKLT]fpsojfccdjprroia]\_dmsstqlnquwvoj]URSWYWRLGIRVSPLA<<>AHNSROQTW\aaRPNMNT`jnj]J:/*))('')1;AGKIEEEFJQZahkiikkieZLEBFLRTUV\cjry~ÇÅ|rgZQNLJIJIHGFFHKRZ`bc`WNKLR]hnqptvwxvmgccfmtxxthZMC=?GR\``^XV\elqmhd[ROI@;98<CMZhptxz|~}~zssrkglmnsy||}{uiXIACMWagb[ZZ]bjmrtsnjgglv{ÅÇ|sk]UOKKSYcjkjlklsvvwzz{zuj\SPOV^djruwtlaYQNPU\dhea`adinqtwzwtommu{{vph`^_^`efgihedbab``ab^`cfjqtttspnjd_[Y^inkg[OIMU_hihjjhmrqple_XVXVTVX[cif]VXX[]bcgn{~~|{tqvrh`YNLLMPRV`cb_XX`ipvtokigdbbejnpplmpqpnf]Z\bhoroh`[akxÑàsjjklntrqpk\TTZ_dfb]]__\UNIIQYeoqlhc__clstuqjdccdhptuwvqtwyxtleZROQW\\XRJHOSQPMC=<?ENUYWRQRUZ`bNLJJNWbih^M<0))()(((.:EKOMGA?@DJTajruqmlgc^UKEDHMSW[bjqx{{{}xqh^RKHHGHKJHGDCFJS]ehhdYPLLRZeknlppqrqhb^_emswtmbVKD@BKU^ceda`fmruqje\SOJA=;<AHR`mrtwxy~ÄÅxomkhiooquz{||~{xthZNHHR^fljda`aflnrsrnmklrxz}|umeZTOJKQXbkoqtqqvwuxxwwwsj]SONT`krxxuoe\WSTY^cjkfdfegjklpssrpljmvzvqkb[[ZZ]dfhlkgfd`bbcdfa`beiprrrrqpmg`[X_lusn`RHKT^gihggflppnle`YWWTRUWZbif_XZY[\abio|ÄÄ}|urumbYRJJHILKO\bcebcjqtxuqlie_ZYZ^cijjlnpqmd[VV\clrrnheiq}àäÑyolmnpwusrm_VX^adf`YWZ]\XSMMT[fonie^[]ckqqpjd_abdhoqrtsoswxuoeYOGGMW`dc]SMPTSQNE?>DNX_b_XUTW[adSNJKR\fiaRA2*'()*)*-6DNRRMD<<=CKYgr{}xqme_ZSLIGJNU\eltyyvsrsojcZNIGEEIMMMKGILR\ekong]UPPSYbhiinkilld_\\cinpld\SKEBBKU^dikkkpvvwtnibZVPHBABGOXdpvx{{|ÄÑÑvliils{{|}~}}}yuqfYPJKWdmspjgeejopturppmovyyzxpjcZTOJIOVakrvxtuxwuwurqrpk`VROS`ow|yqg\UTUZaefkhdeiffecgmoppmhjovvqle\WXWX]dfjmkggeabceefbacflstsssssqkc[W]ittpcTIKS\ehgeechllkje^XVUQQVWZbheaZ[Z\^dhntÇÅ~ywwk^TLGIGHIFKZaekkkortwurmhc[UQQT[cgkoopqj^ULJPYeoqpnmqwÇäãÑzropqrxvrrod[^ceef_VQV[[YWRRX_jpmgc]]agmpkfa\Z_achnooqomqvusl`RHABL[jqsmbVSUVRNIBAKXbhjf_[Z]_cfPLLQZdjfXH9.)((()*-4@NWWRI?88<DP`pzÄ~vmg`[VRLHFINW`hnrqmifghhgc[QKGCDJNPPNLOT[dlmpqlb\XTSW`efgkebfgb_\[_dggc]XRLGDDMV`jptuuuxutqmje`]YRLKKOT^jv{}|ÅÉÇ|tjgjq{ÉÖÖÑÉÄ}{ztoj`VNKO]jsxuokijnrqsrnmmlpwxxwuoje]VOKHNU`jtxzvwwvsuplijigaWTRVbs{{ui]SORX_ffehdcgje`\]djmnmhdhlrrlfaWTWWZ_fgknkfgfddfhigcadhowyxwvvuqmf]X]gqspeWKLS[dgfdcafiihf`ZTSTQS\]aimic^`^`cjmtyÅÉÅ~~||xj[OGFHIJHDHU^fnqqrrrvurog`WPKJNV^dmrppqk^TJEFM[ehjlot{ÉäáÄysprtw{ytrpg_aggdd]RLOVXYYVX]cmqmgb^aflqpf_XSSX[_gnoonkilstslbTKCEQ`oy|uk\TTVSONHFP^gnpmheceehjHJQ]glj_N?3-+***+-4?KVZVLB847?JYjzÄÅzma\YXVSMIFJPW_ehhe`]\]_cfe_YRKFFKNOONNT[binpqtslfaZTT\begja]`b_^\YZ\\[XVSRMJHHPZeqx|~|vvrpmjheba`]YWWX[cmw}ÇÇÄÄÇÑÅzsjglt}ÜààÖÑ~yvuojh`VPNTcpy~yrnlmqsssqlihgksttqokhd`YPKHMWbmw{|yxwuqplhefffc[XY^ix|wl_SLMRYadb`ccejj`WUZdkoolechjonic]TRVVZ_ddikigiiihikkgdbejs{}{xusqnlg_[_fprpfXLLRZdfecb_eijhhc\UVWV[fgiornheebagmry}ÅÇ|~~}xk\PHGJKKHBCOYcmrsqpquusof_XSNLOTZamtqrsnbYOHCGQZ^agntxÄÑÄyvtstvx|zspoi`chfa`YNGKSY]_^`bfpqlhdbhlrtnbZRMMQT[eijkhdehpstofZQJLXerz|wpbWVXTPRMJR_hpttqnkkjklNT_kpmcSC60.,+*+-3=ITYVLA845<GTcs~~wk\RRTWXUOKIMRZadb^ZVRTWZ_deb_YRKJLMLLMOV^fknptxzxsj_UOV]aef\WY[[\[YYXWVUUUTQNKMU]gty|~zrqmjgeda```_^]^_afnxÑÜÖÑÖÜÇzrlimu~áääáÑ}uqoiff^TNKQcr{Å}uonorttsogb``forpkhfcbaZPJHNYgr|~yxusolhfcfghf_]aiqyxm_TMJOU[``][`cgjdWPRZfnqnicbefjlhb\SRVY^chgiifeikkjjkjfcaekvÇztpnkig`]ahprqhYNORZdeca`^dimmojb[[[[bmlosupkigdelryÄÉÖÑ|~~~ym_UMMNPPJCCKT]hoomnptsqleb`^[YWXZ`mtrrsnd]VMECKRVZclqsxzwstvuuuwzztqpkbfjib`WLFIR[bddffjqqlihjnruqh^VOLLNOWadefb\^ckptsl`YTVbmw||vrg^Z\XTTQMQ[entutrponmmU`ktthWG91/.,++,0:GRWVNB7229DQ_o|Å{pdVQTY\\XPNOSX^a_ZUQMLPSU[aba_YSMKKJHIKMSZbgjnty|}|rcTLPX^ccWRSUXZ[Z[\][YYYWVTRU\bkvvvvriigd`^\YZ]_ab`abcdlu|ÅÖáÖÑÑÅxqljmt}ÖââÜÅypkhdbc^TLGJZjv~|toooqsroi^YWX`loniedccc]RLJQ^jv~~{xuqplgeecgjjjfeltuun`SMKMQW[\ZYY`dhf[OKQ\ippmga`cbgkib[SQUZafkihgecillkihgfedhp{ÑáÑ|uokgge_^bhprqi\QPRYba___]bglorohab`bhqqruwrmjgfiqxÑÜÜÑÄ~}ypd[TTUWWQIEJQYcjjikostqnjhijhda^\alrppojd`[SHCGLQValpnqqmlrwvvvuwztppldimkd`VLFHQ[bcfgglssppnprqnibZVSPOOOV`abe`Y[_elrtpg`Z\hpwyvolea^a`\YUPNV`kpttqoonnm[hryq`M<0,,,+*+.7CPYYSG;215?L[kzÉÅvhYMMTZ]^YSRTX]`]VQLIGHLNPV[]\\XRNJHD@?AEINU\`fntx{|ueUJLRZ__TNNPSUYY\_ca]\YVWY[`fipuqljd\]_^YVQMMTYaghikhdkt{ÑÖÄ|{zrnmkkpuz}~zrjd`]]a^WOJJVdpyzsnlklnnjbVPNQ]jmkfadceeaTNNWcp{ÅzxtopldcecfllmlmtzvnbTKIMRTWWUSUY_eg`TLMWeqvtng`^__ekibZSPT[djplifdcimlieccehjovàäÖ}skgcbb^^cipsph\RQSZa^]\]\choqtrmhjikottvwytnkiinu{ÇÉÇÅ~{|}zyukd^\[][SKEHNWahihloturqportqmib]ajnnpmigdaZNFFINVbnpkjidgrxvvusuysoolgmrpg`UKGHQ[bcghiouttuttrkfa]YYWTSSSYaacd`\_`ekqutmf`bkqtskb_]]^cgd`]WOS^glssqpqqqqgqwwkXC3*'(**+.5@N[a\RE925=HVeuÄÉ}pbVNQZ_bc`[Y[^^\VNHDCBDGHKPTUUUTQNJD>98;?BEHLS\elswyvjZNNQVZ[QIIKNOSV\aggb]ZWZ^afjjnnh`ZSNQVWUSLEDIO[glqtqjmsx{Çzsssllnlknprtwwtle]XW[bc_WNIQ]juyrkhdehkh_SKHN\ilic^a`ac`TOS\htÇzxrlli``ccflnpprx{rcTJEIPWWUTQOUZ`ed[RNUcr{~xpe][[]fmlf]UPT[ekrnifedjomfa]]ckpv{ÅâáÇypgeaaa]]biqsoh\ROQW_[ZYZ[dirsutqnpnprutuuvqkhhhnv{~ÄÅÄ}zz{xxvqkgc`^YPICGOXcihhmotutrttwwupjc\`hknrojjie^UKHHNWeqqida]drxtsplpuropmkrxumbULHIPZaciklrvvyzxvoc]YWX[[XVWZ`ffgea^achmswupkfjqtupcYVW\_fkicc]TU_ejqtqrutsptyxrcQ>0)')+,/5>KZeg_SE;7;DP]l{ÇÇxlb\Y`giiif`^_^[WPHB@>==?BEILKKLLMMJD>9;?@BB@BGP[biputm_SQQRUVNGFGIJNT[cllhc^[^bdhkjkg^SKCAGNQRQJB@BHTajqusmpuxy~~tnpojmnmlmmnostqkf`YY^fhe]TLP[grwqke`afjf^RKHQ`klhb^`_^_]SQX`is|}ywqjjg^]_`djnqqsvvjYLECJRXWWVSSY_bd`XSVbq|ÅÄvk_YXZ`kqoi_WSW]fmsojgfdiolc]ZY_ksw{ÄÖÅ}umfeaa_[[aiqupi]SMOUZUVUV[dgopoopppoppppsssmgddfovy{||}}zxxxuwwtpoie`YOHEKS\fjhinpvvuuyy|zvoh`[_fhlpmjnnjd^URQW`lurg^ZXbqwqniekrqprpqx|ypbULHHPY_djlmtxz}zsh\USVY^_[Z\aglkkgdaccfipuurnkntwum^RMOX^ekjfge^^egjpustxurmyvpg[OC:41346:AKVcii_SGA=@IR^m{ÅÄtkgfhosrpnjc_\XSOIC?<978:=ADEDDDEGIGB=<@CDEB;;?FPY_elmjbYVTQRTLDBCCDIOV_ghd`\Y]cglnmjcWJA:8?HLPPH@>@HTblrutoswxx{yplmlimnnmmkkmqutplf__cjkibZQT\gosnia[[cge_WPNYgnlfa_cb_\XPQ[bjrxzyvvpihf][\\^dinnonl`SJFEKSYYZ[Y[aecb]WV_mx~Ä{qdZUVZcoroi^VUX]flsokhgdhnla[XU[juz}ÅÇ|yrlggbb_XZahqwph]RJMSWSUSW]fhmjddgiklllmoqrskebdgouxxxwxyvstsqsttrsng`ZOJLSYaijgioqvxxx|zzvogaZV\bcgkhhoqnid]YX]eqxth]WV`nsnjebhqpnqqs{{qaTKGJT`ekpnmw{~ÅÅvl`TNQVZ__[Z[aimnolihjiijmoqomkqtvun_SKKRZahiikkhilklrvvxzupjqibYPKE?;:<>AGNW`hkj`UMIDFLS^mz{pigjotvutqkc\TOLIDA<9679;>AA?@ADFHJJE@@GIJKE968>HPW\`cda\[XSQPH@=<=>CHLT[][YUSV^djnmh_RE;329BHMPIA=?FSalrutrwz{zzvokkjhkkkjiikotzzvrleegkjhc]VY`hnqmg_YZbhgc_ZXbmpkd^^a`[WRLPZbipvzywwphfe_\[[[_ejjiebZQLKJMUZ\adcfjkdb^]ao|ÉÑÄxm_WUW\hqplg]WX\`gnuupmkedjkb[[X\kw}ÄÑÇzuojhidc^WYahqxqh\QGJPUQTRW^ghjc[[_adgijmprsskdbdfmsvvvuuurprqnpqqrtpi_XPMQX]bfebdlpuxzyzutoh`\TQX]^cgdfnrplga^[_grwtj]WW`jmid`_goporsv~Å}qaRJGN\hnttnkuy~Ä~pdZOLPV[a`[XV[cilnmlnpqponllkjlsvvul_UMLPV[aehnpopqopvyxxxpjdaYSJDEC><<>BHOW_dhli`ZTNLMOT_ny{umhkqwzyxytlaUKGFFD@<76<?ACB<:;>DGJMMHDGPQQQI946<EKSWXY^]\]\URNE<867:>BFLPTUURPSX]chhd\QD:328AGLOIA=>CO[fkosu{~}zvrnkjhfffefeflru|}xrmggiljhd_Y]bgjkjd^Y[dkjgea`irskb^]_]XPLJOZaglrwyxxpgcb`^^^\]`edb^]WRQPMOUZ`hnorspgcbbjxÉÖÇzodXSUY_jrmid[W\_chovxtrnd_fib_b^_kv|ÄÑÅztnjjkfd]VX`hqyrh\QFHNRNQRX^eff]VUYZ\adglprtskdceelruuvtutppsqmnnnpsoi_ZUUZabbc_\_gmsx{xvpnic\XPOVZ[aecgqsqmhc_^bksvsi]XY`ghd`]]enqrvwzÅ|p`RIITdqw{vliux|~yi]UMLPV\dd^YTT[bgjklorttrpjhhhmvxwsi^WQOSVY]`chlprttuxxtplc]ZMGD==@?<==@GNU[`bdfc]YTQPNOU`mwvqkkqzÄÄ|{|uj]PEABDD?<:?HJKJC857<CHLNNIFJTTTSI:7:AFJOPOOTUW[]YVPD:4016;@DILORSPMNPT[cec\QF>:9>FJLMG@=>CNX_chmqw}|zuqnmkigdbaa`ahps{{sojhggc`_^[`eghije`^`gnnkihgntsi`]\_^XNJINW_dhntxxxrjecddeda\]`_\[ZVUTRMOUZcmruxxrjfdhp{ÅÇzoe\SSY_dmphb^VU^bfjpx{vtnbZ`fdejgciqw~ÉÅ{uolllfbZRW`hs{ti]RGHMPLOQY`ffbXQQUUU[_dlprtrkfdeflqtttqsqmmpnjklkmomg_^^afjgc`[WZcjpwzvuolgbZVOPVXW^`_epqomhb`afnuwrg\YZ_dfc_^_fmqtwx{~}ym^RLO]q~ÇÅxkkuxzyqbWQMMQW^iibZRKOX^bfjmswwtqjfghmvwuqh_[USUWY\_beinruxz|wph_UPN:87469879<AKQVY[[\^[XUSQPNQYdotohdhq}ÉÅ~}|sgYLC@@BA>>COZ\YSE847=EJLMKECIQQQND99?FIJLJGGKMPV[]ZRF;2.06<AEIJLLLIEFIMU_ba\TKGCBEIJJJE@>?DMV]`eilrxxwtolifdcaab`^^djnw|vnkgdca][[\]affgikfdcdhopnmnnrwsg_\Z^^XNLJOV`diouvwvqiddgilkf\XYXXYZWVRNJOU]fosvxxtnjjosz~|qf^WRV^cflkaZWRS^chkqx}vrk_UYafkpnggnv}ÉÇ|xtpqof`XPV`it}tj_SIILNKNT\bhhaWQQSSSY^dkooqojhfghnqutspqokjmjghjijkhd`bglqrle_YUYbipvxurmieaZUOQVWX^^]emmlid^[^ckruod\[[^ac`\\]dkpsvvwyxum`VTZi~äãÜzmmtwvsj\SQOOSYbkleZMBCLT[bgksy{zwoiijnvurof_]YVWXZ_cefhkosyÅzpeWJDA*.0/00-,06?IORRTTVYYVSRONOT_ipod[]ep~ÑÇ}qdVIAA@A@?CO_lleXG968>DIJIFA?ENNMJB9>GOPMLGCBEFJOU[\UIB825<?DHIIHFD@=>AELW]^]YROLIIJJHHDA?AFMU\`ehjmqrtrnie`_]__`_[Z_dflqkdcb^][XWZ[^bfdehkgggfioqppssuwrf^[Y]\WPONPV^bhnuuvtpgddimqpk^VUTUY[WSNIIPX`gnqtvxtnloru{}yne^XU[aefkh^WTQT_ejmqw|uog\QT]goutmhlry~|yvtsof`VOU_iu|si^SJILKILT\cih_VQRTUVZ^ejmnomjiggimptrolljggjhefhggfdbafmsutme_ZX[bjqvxvrljfb[XSV\\]ca`fkigfc]\`flpqj`[]]_``[WWY`jpsutstrqlb]_guÜèéÖyprvvrlcWRRSTW_hopi\M@=FNU]cekruxysnnorwwsme`^\Z[\^chihjlnszÅ}sfVF<7%+//0.)).5>GLMMNNQUUSQNKKOZelnfWPVbpÑÇ}xk^PC>@==?BK[jtocSC879?DHIID@=DJJHF?;DNTTOKEAABADHNUZWPKD==BBEGGEB>:7569=DOW[]]XVSOLKIEECB@DHMT[`dgggilpplfa\[]abc_WTWXY^b]XZ[YZYWX[^adfcdgighgefknnostuuoc_\Y]^ZUTRSV\afmrrsrnfddhmsrm]SPPQWYTNJHKRYafkorstpmnqsuvuqib^[Y_dfgif]VTRU_fjlosvoh`VNQYequtnhinsxzyywusnf_UOU^iu{pg^TLLMJFKT\eki_VQSUUUY]dilnomlkhgimprqmjjhedgeccedca_^agovyvoiea_bhmswxuqmljga_Z^abafcafhdccb^_fknnlcYX\]``_YSSV]gorsponlnmfekr|àéãÅ{vwxvnf]SPPSTYbkpqk_RE@HNSY__bfjnrrqruw{yuohdcbbccfjnonnpprvz|yul]K>4',/00/+-4<EMNMKKLOQQNKHGIQ^ilh[KFQ_o}ÇÄ|yqcVJ?;?;;@JUfstiYI<77:@DIKLGCAGKIFB;;ENROJFB@A@??BGOUXWWRLIJFFEA>940//148?KTZ_a\[WRMIFAAAAAEHKQY`bb`^^djkic\XZ^bdc\RNNLOSWUTWZYYXWY\`dfgefikjjhdcfjlntvusj`_\[`c_]\WTUY]dknnnnldcegjpoj]SQQRXYQJFGLRYadhnoopnnpqssqpoicb_^chjjkf_WUTW^dikmoqkd\UOOXfsxxskhimqtuvuspkd^UPU^iv{og_UMNOJGLU^inj`WQSSTSW]ejoqpnmkhghkmmkhfgfecda_`bbba_`emtz|xpljgdglotwvrnmmlkgfbefede`_aa___`_cimlic[UV[]__]WPOQYdloojiihlnjktyÄàåàÇ}|zujaYRPPTU[emooi_UJDKOQUYVVY_eknprvxzyupmjihgggjnsttrrqpqtwxyvjWG9*/1220.4<FNQOLJILOPOLHEEJUbhh_PBAN]lz|wqfYMC:7=;=FV`ntm_OC;:;=ADHKMKIJOPKE@::BJJHEA@@@>>==?ELQV^]ZVSKFA<70*&'),06?JS[ab^[VQKGC?@AAADFHMU_`^\XV^fhf_VQRX^__WMJJEHKLLPUYZ[YYZ]agggghijihe`_bfhouvtpe]^[\djgfc[TTY]bikhikhbcdeglig_WUWVXWOIEIOSY`chopoonnqrsqqpnifecbhmmmmg_XWX[`ehgjjmhd_[UT[iw|}ypigimprtqnjfb]VRW^huylc\TLOPLKQYalpjaYRRQQQV]flsutqnjhefgifedcdeeccb``bcbaabirx{|wolmjjnqruvsplklllkmklljfga``][]]_cimmibZUTX]__^[SKILVbknlgefgjnmqy|ÖàÑÉÉÅ~zsg]XQOPVW_homle^VNINQQRTNLOW^eimqtwxxurqpnliggkosusqqollmpuz{udSC0233336>GPUSPNMLOSRQNJDEMYcgcZMDFS`lw{wpg[MC<53;?FUekok_QE>;<=?ADHMQQQRURLFA;<BFC@?=>??<;:::>DJR^dc_YOF=71)# "%).6ANY`b`[VROJFC??BA@CDEJR^^\XUR[dfc[QJKQVVVPIHHEEFEFMUYZ[ZYY\`ddeefghgc_[Z]adkqqoj^Z\]cmrpneZQQVZ_egfjmkeeecchegd^[]ZYWRLKORTZ`cjqpnmjjmppqqpmjjiffknnomf^YXZ\`dfehhkigeb^^do}ÇÇvlfiloqrmgcba^XVX^htvj`YQJNQONT[dmpjcYSSSRQW^fnwywtpkgbbcdaaa_accbcb``bcccbdkswzytlkllorsrspnlhhijkorrrolfd``]YXYZ_gople\RPTZ^_^\YRKHLVailicbdglpptyz}ÅÉÇÖÖÅ|wob[XQNPUW_hnkhb[VQOSUSQNHEHQX_ejnstvwusvwuplgfinrromkjgeehnv{ynaR>=;;;<BJQSTQOMLKNSRQPKDGQZac_WOKOZcltwri^PB9401<ERcqrmaRE<99:;>BGNV\[XXXQIEB<<?>84458;;877779=BKVafc[SI<5/&!$(/:GT_c`ZTPMLJIEAAB@?ABCFNY[YVUSZdd_XMEGLNNOJFGGEEDACJQVXYXWWZ]`_befgifa\YWZ^agkjgaWW\akwzwpdWNOTW]cdfmrpkifb`edgieaa]ZZXUTWWW\`bipoljijlnonnmjikjgimmnold^ZZ\^`bccffhijjjhhjr~ÑÖÑ|pghjnqqjc__`^ZYY]hrtj`WOHLOQRX_hprlcZSQQQRZclu~|yuohd_]__\]^]`cbbcbcefhhfdgnuxyxrljlnprsmjgfecefgkrvurmhb`^_ZUSTV_jrqkbXPPV]ab`^YSMLPZbikhbbglqtsuxvx|~ÄÜÖztj^XUOLOSU]eiie`[WSRUWUPJEADNV\cfjnnprrrxzzuqjhimnnifcb_^^_cluxuphKIHHFGLPQONJHHHHMUUUSLDIRY__\WTTY`flrtpg]PB9624CQ`q{shYJ@;;:::=BKT]daZWUKFFD=;:5-)+/256312468:<CMW`c]WPB71'  "%*4@LYcd]UMHGIJJHDCCA???@CHRWUUXW]fd^WJAADGIJHGGGEDA?BIOSUVTSTVY[[`degie_[XX[]`efc_ZSW`it~~wmaSMQVV[`afousnjfa_deilica]Z[\\[\\[]`chllkjiijklkkkgfjjilononkd_]]^```abffhjmnppoos~ÖàäÇtiihkonga^_a_[\Z]hqrkaULEHMRV]ckrrkd[SPOOT_js|Äzvskda[YZZVWXX\`_abbdijkkhhlsz{{wpihkmoqof`^]^`ccdhqtsqje_]]]YSQPT^ksqjaVPRX_efd`YSNNS]chhe`bhmrttuvtw{}ÄàÑ|ytg]WTMKOUX^eigc]XTQRUYXRJECHS[bffhjhimmouyyupiggiig`[WWWXXZ\cnx{}|VTSSPNPPMIGCCCDFMUVWULEJQVZ[YXY^bfimqqng^TJB?>@O]kvwk]NC=;<::=AIT]ce]SMKDBED<84.'%)-021.-.26:<:<BJR[\ZUI<3)"#&*1<GR]c`XOGA@DHJJHGFC@???@BKRUX^\afd]VH<:<CGIJKFDA?<>DLRUTSQPPSUVX_beggb]ZZZ]^_a_ZVRNXep|ÖÅxl_SPUXX[^agqwuojfaagikni`\ZWZ_aaba_`adijlmkggghihhhbafgglnllkhb^]]^__`adhjkloqstrpqzÇÜâÇukifimle`^`b_]_\^ippkaTKDEKRX_ekpoibZSONR[hs|}vsohc`YWYWUVVVZ]\^__dkjkjggltyywslhjloqqla[YY]adcdgnqomhc^]]\WQNNS^lspi`XTV[cijhcXQMNUagjjfbciosssttsvz|ÇàÑ}|vj_WRLJPWZ^dhfc_YSQSV[\VMJINWahkjkkhgjjkprrokgffhfaYSOPQSUVYalwÄÜâ`^][VSQMHD@>??ADIRSTRKEJNRVWY\`ehijlnnmhaZRKKKO[horm_RF?;:979?GS_ghdXIA@<>DC:5/)&'+.00.*(*/5;?><<?FOUZXNB7+%(,3<GPV^a\TLC;9=BFHJIHEB@?<;<BKRX__cgb\UF978BHLNNFA=:8?IQVXSONMNRSSX_bdffa][\]^]^]XRNJM\lzÖåÖ{qf\Z\[Y[]bisyvnjeabilnpkc]]Z^dededaabcghjkiedddefec]Z_bcijgggda`_`_aaadimnmlnnppolkrz~ÉÄvnkgkomgb``ca`b^`jppodWLCBHOV`ejongaYSPRZftÑÅ{sqmheaZYZXWXUUY[Y[\^emlmkggnuwwtoigjmqrpi^XW[`fgedgllkjgc_^][VPLLS_kroh`[YZ_flnngZQNPYgoqokgfjpuuttrrvz}ÇáÖÅÅ|ocXQKJQZ\_dfec`[TSTW]`[RPOT\flnmnmjhjiiklkihggggd^VOKLMPSWZcnxÅâéddee`[WQKEB@><>@FLMNKECHMRWZ]`dghgfhjjie`ZTNOQXbjkf]PF?;85339CO]glh_PA887<B@71+'&),..-*'%',3;AA>:8;DLUYSG=2+-4?HQUVXZUPJ@747<AFIJIEA>;7659DOX_`df`\UD747DLQSRF?:67BMTYYRLKKLOQSZ`cddb^\\^`_^][SLHIRdtÅááxrmhggc^\]aipwskgeceknoqmgba`chiggfbbcdfghjhdeeddda]WTY]`egdffffhjihigehlonnlmllkidahpx~~wplinqoic``ddddabkqrri[OEBFMTafjnld^WRRVao}ÖáÄxqomifb\Z\YWWTSWXVY[]emlmkfgowywrledhmppmeZUW[aghgegiighgeba_\VQMNU_jpmga]\[`hnqtm_WTU\jrusplkmswuutposy}ÇááÜäÑxl]RLLS\_`dcba`[VUVX_a]WWW[bjoomlkgfhfeffffggiheaZSMJLNRV\`gpzÇäè^aegc^XTPMLHD???DHGGEABIOTZ]abdfdbbccca^ZWSNPT[bd`WKA;752//3<JWcjkcWH:348>B>5/)(+.01/,)&%'+2;BED?86;BKSUMD;66?JSXUPQSQNK?5238=CGJIFA<83204@NY^add^\UD847FPVWUE=627FRZ]ZQJHJLMQU\`bca^]]^`ca_]YOIGMZkzÇÅ|tommmnnhb]]agkqmecefjprrrokggfgihfedaadfhhiifbdeccb^YSOSX\aeeeefhloqqqmjknponnljjgdb`fouz{wromprohc``defgcdmqsum_SIDGLUbfili`[VTW]ht~ÉÇzsnmlkid_\\XVURQUVUY[_fmlkhegowyuoibafjlkibZXZ^cghfdceedgihfea\VRPTZajnic_\[Y^fknsnb\ZZ_ksvvtqmouwvvsnmpw|Åáäåêä~q`TPRW_abc`_^]XWWWZ_`][\^cioqpmkjffhebc`^_`adda^YSOMQTY]cfmt}ÇÜà[_bca]ZZ[\]XPIDAAA?===BJQVZ\_`bdc`][WURQNMLIMTZ\[SH=531.,*,4BRalok_PD947=@A<4-+.6:;93,(''')/8AHKF>659AHOPKEEHOY][SKLPPPK?40159>DGGEB<60..3?NZ\_c`[ZTD;8;IRYYVF<31;LW_aZOIHJMOSX^`ba_]^_cfheb]XNJMUbqy{zvomlmmoplf`acgjoidchjnsuspmjhghkjgec`]_bdghhgdacfcb`ZTOJNTX]bbbcdhoswywronnpnlljhgda_`fnswxuqnnoqmgb`_dgihffloqtocWNHHKT`ehkg]YVX^fpx~Ä}tpllmnlga]\WVUSPUWZ^bgnuvuqopuzwqjd^_dghhfa]\^chjjhdbcbaehiigc^XSU[_diic^[[ZY^fjmroeaaaeouxyxuruz||{unjmu{ÅâéíñèÇsaUSW\aba`\[\[XY[Z[`_\[`cgmppmjggdegd``\XVWY]^]\ZWVX[]`dhkrw}ÇÄ]`bbb``cgije\TME@=978;CKRVY[]^_`]YTOJGEDBBAAELQRPH?61/-+*+.:L]jqofYNF?;=ABA<6107?CA=5+(((('+3>IONF<538?HNQRUZ^c_XMGIPRQK>3/037;@DEDA<5/,,2>LX[_baZYSE?>@LRXXUF<34@OX__VMHIKNPUX\]^\ZZ^bgklie_XPPV_jturroihgginqojdegiimheflmpstqnkigfiljgd`]]`cdeebaa`cfda^XRNIKQV[```adku|ÅÉxsomnjjjiffa_^`gotvwsmijjmlfaa`fkmkihlnpspg\TNJKT_dhjf[YZ]fpwz}|vpnkkmonic][WVVVV\bhouzÑÖÉ|z|~wpic]^`bceeb`^_cikkhd```aeikkjfb[X[abdea[XXYZX]eikqohfghkquwyyxw|ÄÉÑÇypjkszÅâéíïçÄq`UTZ_bb`]YXYWUY[[\_\Z[`chmnmieccaceb_a]YWVVYZ[]^^_bdcdfjkruxyzx[^acdddhlopld^WNHB;89<CKQTWWXXYYWQKE?97778::>CGFD?81.---/28EWemojaWPKGCCDCA>:7;CKKG@5+)**)'(/9FPTPF;538AIR\djkh]PDAGPSQI<2/1368<@AB@;60-.6@KW[`dc[XRHEFHOTWVSE<38ERY^\QHFHKMOTVVVVTTX^dimnjd^WRW_hormiigba^]`hmolhjiiilhgiqqtvvqkfb_^diged_]_beeec_\^_beb`\WROJKQW[`b``ep|ÖääÇwoihighjiffc`aeksvxvogbeejlhbcaflnjihkkorqja[SLLS[`efbZY\bmvyyytmjigimqrnf_\ZZ^bdhmrvy~ÉáâÜÇ~{z|unhc]]]]`cedb`_bhjigb]^`afjlmlie_^afdc_XRSTVWVZbgiopjjlklnoptwwzÇÜàãá}slkryÅàåèèá{m^UW^`a`^ZWVVUUY\]\]YWY^afkjhd_]^\_a]\_\[ZWVXY\adeghheefgiortuus]abbb`_afiljgc]VRLFDEHOUZYVRPNQUWRKC;3368;BEFHGB=965555468=HYekmi`VSOKFEDA><:;@HPOIA6,*+++*).8GS[\SF<52;GTbrzvl]L=>HRSRH:1/0248=@ACB=:513;CKV[`ff]XSLNRRUVVQOE<7@NW\^XLFEILNPTSQQPNQX`glpokd^WU\eknlecghc`ZUX^ekklonlikhjmttw{{ukc\WU]a_^`\\_accca^\^_bc_][VSQLKQY]`c`^dpzÉàÖ{qjdcgfgihdecaciouxxtj`]`bmqmhfbflmjihijnprmgaXPNRY_ccb]]bjswxusmifhgiottqib_`chlmnpsuy~ÉâçâÖÄ|y{unhb^][[]adffdbdikiga[\_afklnomicbegdb\RMORUXX\chiookjmkklllosv}Üàäçà|tnkpxÖáäàÄsfZTV]`_]ZWUUVUW\_^[YVVX]_chfea\ZZZ]^ZY[XYYXY]^bfgghhgbabcelopppm`a`^\YVX\adeeeb_]XRPPRW[^ZRJHDHOTQKD>78<?DNTTRLB967:>??==<@J[glnk_SOLIFFC?<:9;BKQQJB6--02466;ER]gi`RE:49GVewÇ|o_M>?JTUSI:/,-.16=AEJJGFB=?EILTY^fibYVRU\\[ZWOMGBCP\``]TJEFJMMNNJGGGHOXahlomib]WX_gigb^`ikhbYSVZagkmrqnjkjmqvvz~~vl`VONUXXX[XY\]___]]\_`cb_^\XUSMKQ\`bea]dpxÄÅ{qkeacgghjhdc_]`gnuxvpdZW\bpurlicgnolljhilorqlf\RPQV]`cdacjqvyxsojfgiimruspidchlqrronoqtyÄáéåàÑz{vpha]\[[]`ceedbejmljd]_bdglknpolffhhdc]SNQSVYZ_fikppkklihiijmqwÖááàÇxrmjnv}ÅÉÖÑ|qdYSU[]\ZWTTUXZ^bc_YVUUX\]`dbb^XVUVZZWYXVXYY\abdfdbdda]\\]bjmmkjf]][ZWTOPRVZ_bdgkkhc]Z[]^_WMDB>BHNOOMKECEGMY`^XOC:89>BDGHGFHN^jnmhYJFDCAA>:777:@HLLGA969>BFJLPX`gosk^RE>@L[kv}yl\L>@JTVTH9-)*+.6?FMTVSROKKONNSX]ekf][Y[aa]\WNMKJQ^ghd\RIEFJLJIF@<=@DNZchjlie`\XZ_db^ZZajjg_WSWY_ejnsrokkloruuy~~xnbTLLQQSTTSUWY]]^\]\_`deded_[WPLR]acfc\cntywpie`^aeeillhe_]bhpwwrlaWW^gv{vojbgnqppmjijmstqj_UQPU[_cffkrwz{wqlgfgijostrpkhhquwvtlhgghku~ÜÖÉzuvtng`][ZZ\^`bccacgiijfaehiknmorrohghecc_XVWZ]^_ehijpqnllheeghkpw~ÉÉÄyrnkhjr{|}~}unf_Z\]]ZXTSUX\_cec]URRSVZZ]```\USRTXXVYWTWYZ^cdca]YZ[YVXX[bikiea][YVVSOJJKOUZ^agnqqme`__`aXLCA<AHPSWXYTRQQWdhd[PD>?CHLNRTSQQS^jlidVE@@?>>;7557;AHMMKHDCHMTZ^`bfgipuriaUMOWakprncUH<>ITVUI:,(()-6CLV_a^^[WVWSPRV[djhbb__cc^^XQQSU^inkdZOGEGIKHE?858=FS_fiiifb^ZWXZ[XUU[djicZTTY[`dimqrommnoqpqw~Å|seVNMOOPONLORTX[]]__aaegkmkfaXQNS`dehd[aknpmga^[Z\`bglljgbaejqutnh_Z_htÅÉypg`emqtsqlihlrwumbXSPU]aflpty||zsnhdehiknrtqpnlowxwtoc[VSRVbnx{zvtppni`ZXYZ\\\]_aa`bcdcfedjpqrtqpstqihhdcfd_]]^`bdjmllqrqomfaacfjpw{~|wtpkihfiqyyxxvokidbbb_\ZVWZ]`ehgd\SOPQTXXZ]^^ZSQPRVXWWTRSW[^cc`[VSUXVWYZ]chhfa[WZVSSSPMLKMRW[\dmrtrha``acZNGGCJSWX\^ba`_aeopi\NCAFMTWWYYWUSU`lmidUC==<;<:7679=AGKNPQQRTW[`ceffdbhoqqme^^aekhebYLC:=IUWVI:,((),7GR]hjfgda_]WSSUXahhfidacb]^[UW]bkstkaVKFFHJJHC<67:AMZdijigdb]ZVTRQOOS_gie\QNRX\`dilqtsrqqomjkr|ÉÇzk]TPPPNJHGIKOUZ]_bbccilstqjcXRPTbffif[^eghgb^]\[]`bfkllifeilpqohc]\en{ÖÑypc^dlrxwtlhehoxxof]WSYchowz|Ä|wpkedgjjlmopmmmnqywpi`TLJIKQ]ityzxvsojc\WVZ^^]ZYZ\]\_`_`ccdlsvwywuwvsjhgdfjjgdaadglstrorttrpib`bfkpxyyuoifcceejryzwuqkhhfdcb`_][]acgjkhcZPNOPTWWZ\^_[RNNPTXYWTQPTY]a`YQLJPVY\__aegea[VR[UQTVWURMLPVZ\dlpsobZWVVXQHFIIQWWUWX]acejosncTF@DLU[[[YYXZ[^gqpjdUC;<;;;:99:=@DHKNRW[\^`__bcba[W[djpqmjfccf\UTN@;7<HUXVJ<-)),/8FQZgljkkifd_ZVVX_fikojba_Z\\[^ektxsi^QJHIKLJGA:79?HVcklkgda_[WSPLJHLT`fe^RIIOW\`einswwxurmhdfoyÇÖ}m_UPPPNHCBDGLTY]_bbcfkqyytmcXSRVehhjg[[aeggea^[[]_aehikjijnnqpkb_\^gp}É~tmbahpw~|ymgackwyrlbZV^gnw}~Ä~yuliffikjijjjhhjkntric[PIHHKP]hry{ywtmf`ZVW\`^[WUTXYY\^\[_acltxz}}{|zujgfcfmopmhfgilsurnqtvwtnfbdhmrxwsnhb`__cfltzzuqlfeiihgeb``_agimonjdYPMNNRUVY[_a^TOOPRXZVTRPRWYYXPHFFNX]adabefd`ZTPd^[^bc_[QMNSW[djnql^VSOPQLEFKOW\WRNLQW^dmssj^PFFMX`da_[[[_dflvtkdXF=<;:98779<>@CEGLT[\]\XSTTROIDIS_jopoib_aUKHC3-/;GTWUG:.+,129DLSagghgecb`^[YZ`dfknh`\ZWY\afjotqjaVLIJMNNID?;;@GR`knmid_]][WRMHEFLXcebXKEIPX^aflsw{zzuqje_cnxÇÜ|k^TNRURKFAAELUZ_abbeiow~{tlbXUTXeiijg[Zaehjgb^YY\\_cdcgiknqqplg_[[_hsÄÄyof\_hpzÇÄ|og_`guytog]Zbjry|~~zxsmfhikmmiffghghijmqnhc^UNMMOT_jowzzzxog`ZVW[_]ZWTSVWW[]ZYZ\`iqvz|}~}wkfdbfkptrliiijosqmpuwyxskeeimrvrmgc^^^^eipx|xqib]^dghjhccccfmopqoje[QMMLOSUY\bdcYUUTTZZVTRPQUVTRMGFIRY_cebbddca\VSqkiknnjbWONPT\cgjleZURNMNKFHNS\_XNF@CLXcnuuj_RMOVajmjf`^\`fjnxumeZJAA?=;97779;<=>?DJQQPLF@BDC?:5:GVdmsunc]\OFB<+%):HTWSE9-,/56;BIN[bcdc`]][]\\\beejkd\XVWZ`iloqqnf]SKJMQRPIB>>AIR\honje_ZY[ZXSNHDEO\ed^RFCJQY`cipvx|zysnga]dpyÇá{j_TMSXUMHB?EMW\abcafkqx|wnf]WVVYfkkkh]\dimnic_\_cbbc_[afkputpke^XZ_gt~{rj_W]goyÇÅ~rjbadswusmdagnsy||zuqkfdjoqqmiedegffghjllgebZSQQSXbknuz{|{rh`ZWX[^\YVTRSUVZ^]YWXZajrw|}~|ujea`ekqtrlgeddioomquw{{wogfimpsoic`[[]_hmv|~wocYUU\_bffceggjpqqpnjf^UPNLNSW[`fij`][WUZZWWUSSUUSROKJNV\aeeaaa``_\XWzvuwyxrh[RNOT`ghjjaZXVPOMJFGKRZ\UKA9;CR`lvxnd[WX\dlomkd_[]afkuung]MDBA?<85312344336<AA?:2+/58887:ER`jtyrf^[OGC<+#(:HUWRC8-,089>CILW^``^ZUTSWZ]`ikijh_WUTW]forrqojb[RKLTXWTJB@DJT]eloke_ZUVY\\XRKFGS]fcZLEDLRZ`bhptvzxvpkf`_gryÉÜzi`UNT[YRLEAEOZ_ccbafmsxxqg_YXXX[gllmj_^elongb^^bifebZV]cjrywrmh_YZ]dryskeXSZbku~Å~sleaantvvumikmptwvsmga_bltvtoidccedcefhkmjhe]URSUYbikrx{~|sjb\[[[\ZVUSQQTVZ`a]XWW[ckrwz{}zrib_^ciosrlgc`_cjkjosv{~zsjgiklnjc^\XXZ]fmv||uk_UQQVY\ba`dfehnppnljg`ZURNNSW\cjmogc_ZW\]\\YURSSQRQNKMTY_de``_]\\YWWÖÇÄÄÄ}uj_UPPWekkki]Z\[URNHCBCIQTRMD=;AO\fqvpjhghgjnponhbZXZ]anrnjaQGEDA<61,*))(('&'+000.)$*17=ABELVakw|ukc]TMH>-$):HTWRD8--09=AFLNU]`_ZSMJINU[bloljcYSQRX`ktwuqnf]XRMR]`_[PFFKR\cillhc^XTUZ_`\UKGJU^d_UHEGNT]abipstvsojfc_bku{ÅrcYOLU\]YRJFIS_dfdbbhouwulcZVUVVYclmomcaglmja]\^elhe`XS\bisyvrokc]_`eruke^QOU\epz~tngc_iorswqlkihmpmkd]WYanvzwoicbdfccefhlmkif`WRSUX`ginv{~|ume_^\ZXVSSTRQTWZ`b^ZXXZagmruvxvnf_[Z_emrrnhc]Z[ceejnqwzxrjeefghe_\ZUUVYbjsxxpg\TPQVVZ```dfegkonlkiea]ZXSRVY_fmprlhb][^^__\YVVURQSPLNTX^de`_^[ZZXWXåãâáÖÅxoe\WV^lpnleYY^_[WPH@<:AINQRMHEIU]blrnnrvwusrqpoicXQNPTennkdUKIGC<4,&"!  !#$&'&%+3;CKORXakuÄÑ~umf_VMA2'+;HTWRD:103<ADKRV[`b^TJA;:@JVamqpkaVQOQYcmvytokbZVSQYbgidXQQSX`eghhed`[WY_dd_VKIMUZ`YOGIKSYacdinonnjgdbaafpy}Äyk]SJKT]`_ZSNQYbffecdkqvwrh^TQOOPS]hlonhdgjic\]^dkohc^WU^ejtzvqokeaeeispc^VIHLQ\ht||tnie`fjmnuqkgcbgigd]UPUamvzwngcbegeeggilljgd`XSTUV\cfjsz}xqhb_[VTRPSUSRUX\bda][[\bhlnopqmgb[WX\`hmmie_YWY_cdhjlprqlea___`^\ZXTRSW_forrkdZTPQSSV]adhjihlomjhea^[ZXUVZ^cinqqmic_]^_acca^[XRPSRMOVY`ffb_ZUSUSTWçãâáÖÄxqi`\^iuvrl_SU[__]UK@73;CKT[\\[]cfejmjmsyzxurpomf^RICEK[hlmj]SPLG>4,%   "&+/016<DP[bflt}Ñçèâvog^SF6+.<ITYUH@99<DILRZ^acaZNC81/4@Q`owwocWRPQZdlsuqlibZWWYajotnd_^\_eeedeege`]_cff^SJJNTUXRJGNPT[acdhjhgfb```belu{}|reZQIJQV[][ZYZ_ffeedfmsusmcXOKIJKNXdknplghjg`_bemsrhc\WWbhmuysomhccihlph[VOFFHKU`ltvplhfbdghjrngc^]cgd`XPMTbmuyumfbbdfefiijmlgda\VPPQQU^cenv{zvphb]XSPMMQUUUX[^bca^]^^chkllkke_]VTUX[bfec_ZVUW]adfhikljga[XXXYYZZXTQRTY_ghie`ZURRRPSY^cilkjmmkgc_\ZZZYWY^cinrrpjd^\\]`fjie_YUQORQMOW\cghd_XQNNMOSãâÖÉÅ~vpia`gu}wkZNQW\`b[PC7/6>IVbflnprqmkifgmsutqmlljbYMB<<CTbjppeYURLC:2("""!! !"&*08>?@BFMYepw~ÖãêìéÜ{smiaVI;02?JUYWLF@BEJOSX^acb_UJ=2*'*6J\my{qdXSPRZaglnmiiaYV[`kt|ÅzrnjeefcabfimmifiiidYNHJORPQLHJSTW\aabeecb`]\^^ciqwzzwlaXPJLORY^^`bbegfdedipttph]SKGDEFHR_glpniiiebegjprlb^ZY\fmpvxqlia]`ghmmbUQKFGGIR\goqkhfgefgfhoia^YY`d`\VONVajqurkfbbfihjmllmjd`\XSOMOORZacjrxwtohb\VPLHIOTVX[^`bcb__``dhjiihf`\\VTVWW^a`_[XUUW]afhiiigeb]XTRRSTXYYTQOORV\^_^\[XVUSOPU[bhmnoooje^YVUVWWWZ_dkoqojd^XX[^elmkd[TQNMNNJLT\eijf_TLIIHLQãáÇ~~{upjbcoÄÖÉziULNSY_e`TG8/5=IXfnx}Å{tld`^ckoonihif^SG<66=N_irvj^XUPG?7+$$$$##$&,3;DMNOPQU^jvÅåìñóîäuojicXK?46BLVZXPKGJNQUXZ^`ba\RF8-'$%0DUguyqdZURT[]_cghfib[Xaht}áçÖ~zsjec_\`hmstonpli`RHGKOPLKGFMVWX\^_accba]ZY[\bltyzysg]VOJKMNU\_dhhihdcdeksurlcWNHB>??ALYchnnjiieelnpuqi_[Y\aipqtuohcYUZbglh\OKFFHHJT]flmgeeghihefhb[YWW^a^YUPQXahnrojfddjlkmolklib]ZVROMNNPYaagottspicZSMHCGMRVZ\`baaa_`abdhhhfeb\Z[UUWVUZ]][XUSUW^bikljida_ZUQOOPQVYYVQNMMPUVWXYZZWUSNNRZbiprssqicZTQPPQRTY`fmoplf`YTVY^gnoldZROMLKJGHR]gkkg^QIEGGKQäÖ~zzytpkcfvâåâ}hRKLNV_fd[L:15<HWfrÅâéâÉym`[UX_eghefebYNB934;M]hrxl_XVRJD</%%%%%&')2;EQ[]_`_bhq|âïùûõíÑwnkgfaYLB89ENWZYRNMSWY[\[]^a`ZOC6+%#$.ARdsxqe]XTV\[Y[^bahd_]gp{ÑêïçÜÇvjd`[Y`lpwwrrvng]MEHMPOIFDGPYZXZ[\`acb`ZWVXZcox{{xpcZUNIJIIPX_flmlhbacdkttoi_RJF?;<<>HT^cklijifktuwzrf]YY_dkrqrsng_SMS\dkeYLHCGJJLV^fkkecdhlmkggf^WVVW\`]XUTU[afloliffflnlnokikh`]YTQOMNNPXaaemrrrpjcXPID@DKPV\_bda`a_abcdggfdc_YY[VVXVTY[[XUSRSV^dlopmjc_]XTPNMNOUWXVQNMLLOOQTVZYVSPLKQYaiqsvupg`WQONLKLNT]fmonic\UQTV]jrrmaSKIJJHGDFP]gjje[MDADEKQ